albertjacobsz/Hierarchical3DProbabilisticHuman/HierProbHuman/HierarchicalProbabilistic3DHuman/csv_files/all_data.csv
name,Maximum uncertainty,Average Uncertainty,Number of Joints,Camera Scale,Camera X translation,Camera Y translation,Global X rotation,Global Y rotation,Global Z rotation,R0X,R0Y,R0Z,R1X,R1Y,R1Z,R2X,R2Y,R2Z,R3X,R3Y,R3Z,R4X,R4Y,R4Z,R5X,R5Y,R5Z,R6X,R6Y,R6Z,R7X,R7Y,R7Z,R8X,R8Y,R8Z,R9X,R9Y,R9Z,R10X,R10Y,R10Z,R11X,R11Y,R11Z,R12X,R12Y,R12Z,R13X,R13Y,R13Z,R14X,R14Y,R14Z,R15X,R15Y,R15Z,R16X,R16Y,R16Z,R17X,R17Y,R17Z,R18X,R18Y,R18Z,R19X,R19Y,R19Z,R20X,R20Y,R20Z,R21X,R21Y,R21Z,R22X,R22Y,R22Z,R1,R2,R3,R4,R5,R6,R7,R8,R9,R10,R11,R12,R13,R14,R15,R16,R17,R18,R19,R20,R21,R22,J1,J2,J3,J4,J5,J6,J7,J8,J9,J10,J11,J12,J13,J14,J15,J16
0345163e7e600ceae679ebdaf6483463,0.7160526,0.24568358864979914,16,0.00012021884322166443,-0.2230708748102188,2.5,-0.07913101091883856,0.08898199602485588,0.26156673575327655,-28.018042702698327,5.016152633044583,5.621025628564679,-37.51046720793036,-3.854109311541099,-13.232014201104727,35.78517647426085,-1.3820413703550283,1.483485656926973,50.65081793765621,3.6825810272665085,-13.550044317475283,55.78710902641874,4.079208314753823,1.4726361888734343,-4.253232062003019,-5.112943365359172,-0.12077312161505,-15.234294074095612,7.745717084286262,1.1844271317534238,-21.421068076462635,-7.021788858861576,14.352915924494921,-2.4837516927311762,-0.6891670974236994,1.726317798698618,-2.2667684074427674,2.6401007035771307,-4.075042506775967,-0.9556690565822076,-1.8687635408350545,-12.886366167495648,-21.186220835769202,-0.31279372793451465,-15.849746227224488,2.743038924501683,-21.842594970315723,-11.974660174601363,3.530216134747639,25.576200739965998,11.64932864561707,-22.957971600367774,-3.0671481388846398,-0.7637396733419316,18.18642437607077,1.3579252821003729,-32.00715352003478,20.506235785156974,-0.6075019437825959,47.326556259687955,71.19482625771306,-74.51085760480385,-31.618938592725286,116.49890730560757,76.593027688529,88.35545565489288,1.6956543211002533,-35.389888528265736,61.58474979551376,-7.814709976697306,22.879405823554645,-46.38229305328692,-7.651212695923162,-1.4691240616584995,-10.22903769151038,-4.533872954253084,5.09829282487411,14.9866700196764,1.7317770513370114,1.7298407709350483,1.7320445411155352,1.7262539976906386,1.7309683210703606,1.7297768924480668,1.727565000051523,1.7203739572293477,1.7320002927651899,1.7313661302635999,1.7318234455388593,1.7295079017246087,1.6913060093010752,1.6766796589409116,1.731490359827369,1.725858014741675,1.7137932532733295,1.5560096782427895,1.490592938726019,1.7139954189336903,1.6933383635048376,1.7320507771007625,1.730825245760485,0.951391875743866,0.9792302250862122,0.9709594249725342,0.871212363243103,0.9206255078315735,0.77222740650177,0.6126657128334045,0.9443861246109009,0.8019809126853943,0.9668669104576111,0.8968260288238525,0.8472778797149658,0.835292398929596,0.927644670009613,0.8613991141319275,0.9802873730659485,0.9618874192237854
0712-21_HUMANMADE_PC_76f68319-3bf3-4835-b8ba-f881bab4b60b_1500x,1.0,0.26741981964966577,13,0.015046540647745132,0.15170232951641083,2.5,-0.0844195574469725,0.12608023666565157,0.21475687267106988,-14.310829546024474,-4.463781399619322,-2.045392656114964,-12.414388145752016,-1.0227623198580524,-2.349611038931717,18.16571989619396,2.433506637693029,-0.0697095852526496,17.440126948945068,1.608968162103175,-2.372357457510524,45.41264145353251,-2.192393699703812,1.5689666187244993,-1.9224947765172946,0.5770155340968488,-1.6301089661634067,-1.69035441792648,4.338591161135486,0.029079182553824617,-5.158035068853244,-7.6978411773674384,4.287241002776504,-2.0186774383606463,0.748439510100112,-0.6629139947593421,-6.364711610969931,4.126644930752287,1.467556422005208,-6.197691421033626,3.2216550679993894,-8.788376928224794,-16.096109102579554,5.564107097945138,-3.6114964597602435,3.6268350177043622,-5.031341333647443,-23.948491868979524,5.6577104314561195,10.883492703668365,22.891816615637612,-6.445884860921294,-0.2859482505200654,-3.256714482498507,9.634224506519432,-8.818949764302863,-62.49140292938168,13.048161725374838,9.30227308343648,63.79028512601523,4.505305903387953,-19.544738916621384,7.615615618611118,0.8720764217915413,18.212893815109663,-7.228784037753602,4.42851948254066,-0.32878317066386004,15.89088589932621,-1.3485525011283346,4.356499793388282,-13.751243554586297,-8.12098884549537,-4.227088560678003,-10.572725254850116,-4.836884350073723,7.223865440952411,12.304662425480714,1.7307724824392026,1.7320300548039473,1.7315900651835288,1.7319913025371283,1.732035120316533,1.7320158896997628,1.7304007284678704,1.726403509998826,1.7319981163317613,1.7306898846045022,1.7305660332505886,1.7285266149478873,1.7288252080980042,1.7190958132060592,1.732049835339037,1.7182457310845798,1.7105437352682549,1.7022043278641608,1.7044255327769693,1.7319804899058762,1.730232272454635,1.7314452225252723,1.7288983348734506,0.9486563205718994,0.970490038394928,0.9494102597236633,0.9588673114776611,0.9763891696929932,0.8859756588935852,0.8520575165748596,0.9556591510772705,0.9239320158958435,0.9087873697280884,0.930105447769165,0.8116375207901001,0.82982337474823,0.04453467205166817,0.029555806890130043,0.08708026260137558,0.10053019225597382
1,0.89972836,0.2404169296885669,15,-0.025082994252443314,-0.04374204948544502,2.5,-0.10072590137245335,0.13811486970780915,0.26222531182214215,7.274713187199963,2.03906893263327,4.038183668891716,2.0680818335292006,-2.7927225639993747,-1.3632592659713247,3.971940935188831,1.3558081208571466,1.3176020476028802,8.960596588628569,-5.340692043158932,-1.5760422558475597,8.22637206883787,0.06046651849800161,4.552792318770814,5.845550436946017,-2.0021188613498935,4.097761189292402,-1.4035440973117512,8.563714945323907,-2.0488099962694797,-5.526167431164254,-8.05059679044738,1.9903666029483278,-2.020489979136056,-0.21906346722108605,0.9801605629817652,-9.166624889792637,5.349575907963387,1.4429438843572708,3.2376605917943877,2.7126469777811035,-2.4911602682004683,-3.257069132341674,10.209720371755,-3.2367484446571586,5.146016792055959,-6.041697502169036,-25.542531864462152,5.031435632488294,8.235686505046193,29.01230041598226,6.367855544975057,5.274808015146666,-6.031486061056685,16.772787895800036,-8.905989472656088,-55.62989012199727,12.329793746720771,6.955625260399942,49.74749115240504,21.406835168195585,-33.155036581859925,-4.303707686289288,-3.1226540234800972,14.761829436993414,-8.108385405859064,6.605331396293004,-4.944993837776226,-1.9568059766026942,3.1538953886719714,1.450972579698404,2.684557941947392,-10.81955028894213,-5.236658207064569,-11.010133679033668,-5.771169036292563,7.913399122256726,15.024403648910717,1.7314891657291058,1.7313425558383781,1.7318669127314021,1.729377982664056,1.7320066260487061,1.7318345674933806,1.7255742892441235,1.7261665727521993,1.732045364648599,1.7298132412000595,1.7314726130912437,1.7226843445407758,1.726917518158042,1.7239503745191855,1.730238119094872,1.7018800872471036,1.7154233682435291,1.6473116464059014,1.7124913936976118,1.7297366327576047,1.7318267248620773,1.731265925802,1.7287892284339328,0.9647080898284912,0.9710555076599121,0.9659308195114136,0.9583675265312195,0.9757123589515686,0.8707146644592285,0.9206867814064026,0.937717854976654,0.948154866695404,0.9468397498130798,0.9244229793548584,0.7827991247177124,0.8282150626182556,0.8934707641601562,0.8661382794380188,0.311504065990448,0.24907955527305603
1000_F_128407166_RV0QXZdgR6xNhO8fOIN8NVaITloYGYNX,0.9391966,0.3052685733948103,11,0.01610647514462471,0.041885845363140106,2.5,-0.019891142569193002,0.26880731612553593,0.22020634600528122,-9.55226543386372,2.1472834935927643,4.123262214917961,10.731550029132357,-8.251263399259399,-3.710693003729038,2.9653341708972563,5.775101857760672,-0.6731488539307336,13.57946081908165,-4.483061714450925,-3.6578321054993563,4.8204543527961485,3.9465910031771236,1.2686310069212408,-2.1717518847310373,-1.0665206370786346,3.7503502470933494,1.7890305446829902,14.432563079964387,-4.761552499077072,-7.095148449240247,-10.999131988341576,5.273600441331675,-1.422082131039137,2.551259856780221,1.9193742889066359,-23.532839568218016,3.4556753643682883,9.457711998392702,0.5761121976573356,10.37473803564338,-5.192168581349874,2.1116839839580557,11.704066760962123,-13.037752904833813,-16.799844044980357,-8.513839721269472,13.339373352711666,5.031825380783038,13.899140276453027,23.654812913710366,5.094689719074947,-12.088213339935425,-2.859537943238978,-38.89176195450085,-32.86570610548268,24.776840990924754,17.325155608289716,7.195882917062178,55.277979803321756,-113.36965109388181,-51.42237638677587,128.74649163530384,8.190271135219145,22.71712002686209,-4.154611402494838,9.36267755940612,-12.019605264452922,5.897145761762804,2.8823427400932107,4.179804461301361,-15.469316710461557,-2.656174054389685,-5.458031647456612,-13.38259216132812,-1.139678518907768,15.401524716232124,12.61689424810011,1.731871934428293,1.725301366441978,1.72916929759483,1.7296690380001547,1.7306188547444086,1.7319232824154438,1.7145403367193057,1.7204787044985081,1.731500674336473,1.7320158366175977,1.7228356786115093,1.7216882489289753,1.7199252574037653,1.713270025619831,1.7189341860995886,1.6068235799476966,1.70355729711267,1.4737222406312576,1.691868602235184,1.7218539406263103,1.7311204825278421,1.7301223760555324,1.7132110481126723,0.9752851724624634,0.9606595039367676,0.9768925905227661,0.9296708106994629,0.9625346660614014,0.8351531028747559,0.8394395112991333,0.8900172710418701,0.9168809056282043,0.7252328991889954,0.9214873909950256,0.7901025414466858,0.7395160794258118,0.6297240853309631,0.1440679132938385,0.04818354547023773,0.1489633321762085
1000_F_175185560_08Dv3mkj91BHTON9DTN2ejRMrOliU4rL,1.0,0.30367745359918896,8,0.002948511391878128,-0.02240673080086708,2.5,-0.08159508965795197,0.07083722897780521,0.24059188442472265,-88.01741328105496,13.401947303536128,3.7114961812024254,-58.15579444249807,-7.589493016128786,0.5347451997322495,30.26737393915878,0.883111900377755,2.761681144575716,107.0477612006387,24.5399647932099,1.4838307011382275,90.14197944577764,-18.12347429149434,-0.8591403448682748,-1.7444376725184978,-1.22091383124784,-0.0006901125480533075,-1.6308087190216556,5.4638602586363385,5.5520089744398415,-0.0032069503008783757,-6.233138915646299,0.36516107118147123,7.474849188149802,0.7244003413223121,0.9872044251328435,-27.47399196042615,6.19589660775175,-5.265628348912378,-12.425141065119387,-3.6560114661284824,-6.718294622361276,16.621998831798606,-0.7697845916071715,-5.196674782770545,3.9501662173080443,5.551624975908999,-12.332585480885115,7.380052893231049,-3.76693261900818,6.359905853466708,-3.615209080692364,2.312706700055701,6.64139752468161,2.522799474814234,5.46673422227909,-64.37977499581659,2.4462998367356827,-8.431046508967075,68.08158537616794,-0.6865908949420273,3.42665532394863,0.4871469328344523,-3.127881109802487,11.115274697408914,-5.292259741652267,-6.201753838263504,-1.8355724040679768,41.977911776639516,-10.550648048814814,2.6033655823145145,-49.81540448221347,2.8252539940316734,1.53893017839064,-3.2926432455976853,-4.675054266392199,4.058674252830054,13.784899562635895,1.7311226069991439,1.730311433461088,1.731642941645073,1.7293349457111877,1.7319928784209189,1.7319196943326585,1.729606833245362,1.728644162931488,1.7319876458192835,1.7265688611883963,1.7316628050799376,1.7316175842345818,1.730222169251712,1.7313130857839654,1.7317422468976063,1.7320502477931472,1.7319849984451707,1.7310232718542815,1.7208447750803226,1.7293923035331034,1.7238158696654842,1.7318855504635016,1.7313548139137755,0.4167795479297638,0.38339763879776,0.43493786454200745,0.9539117813110352,0.9764564633369446,0.9228161573410034,0.8813756108283997,0.9352684020996094,0.914961576461792,0.902457058429718,0.9343770742416382,0.7344946265220642,0.6927674412727356,0.38749656081199646,0.5846537947654724,0.1380312144756317,0.166415736079216
1488-human-pose-estimation-ai-fitness,0.5865304,0.21350173871742537,16,6.575137376785278e-06,-0.20526154339313507,2.5,-0.026980358734363993,0.08989158365783577,0.2809248352980923,-53.84911830929917,21.56617377003209,32.280824884703144,-76.36363821896069,-21.617347058546347,-17.77926110630346,61.75303399118905,-4.056466376685398,0.1220933612588181,100.80665049580925,4.49483418362593,-18.001924330604073,124.64454946577605,-8.33293124559742,5.6502324475481975,-4.976403475364754,2.0698968742635477,-1.138231062929389,-12.73326833273152,7.408276608553783,-4.749472042247118,-8.729742194593124,3.174189396813963,21.125940813139817,2.437924459588527,-1.2130908115237875,2.85169826812089,-23.22151402809639,11.976294458863533,11.192461244329369,-20.23497814459431,-9.203963731049274,-37.7570308564658,-9.353577617096677,-6.037311383292033,-8.698375256769948,-0.17328879314733392,2.9227867730326755,-12.243951048176514,-2.9424111065218135,3.386675851173097,0.24955671512457672,-30.42106860914795,-2.546431648365176,8.715505661317156,-15.345404810759574,-7.926249601201085,-49.1800383954672,-16.87670621564562,9.453968143452153,41.28363079730993,-71.82946367527299,-44.50931963491097,90.94372120436783,-108.54600341957827,49.346565860848585,-135.67659982478477,-6.623450992770403,-3.1236304526989302,3.5923593370533116,-6.356941574853417,5.462584416277611,-23.35075617707016,-9.148489086510791,-7.165988152948362,-14.7408622494346,-1.5458606852279841,5.150408357341153,16.095807422988464,1.7142154070947873,1.718775043616259,1.7317619693916,1.7026940020075918,1.7243656497240476,1.7316410738906216,1.7260886124000103,1.7320474848332716,1.7319468513092673,1.728520645275541,1.7295454572986657,1.7302934902523845,1.7313154053867283,1.7310531290020945,1.7282562186860588,1.728338378501249,1.7304941442870239,1.4506283087991876,1.5174596502008129,1.7309675542807106,1.7271085833186184,1.730264907657306,1.7302600756593756,0.9494528770446777,0.9592322707176208,0.9706868529319763,0.9667829275131226,0.8826495409011841,0.8778362274169922,0.8765963315963745,0.9041180610656738,0.5683139562606812,0.9319208264350891,0.8016389012336731,0.8305229544639587,0.8375084400177002,0.906170129776001,0.8771287202835083,0.8605011701583862,0.8882087469100952
1577720851-C2505M-S_1,0.5597035,0.2115509524430501,17,-0.004917379468679428,-0.3249328136444092,2.5,-0.10477780004677367,0.12492425033748417,0.2418697418887285,-8.663820031069507,-4.008374678652883,-0.1072481626239713,-5.433557918825581,1.2157809135209152,5.293044757835514,8.821082737085462,2.261684547177959,-0.05690354213284944,16.96579904206598,-3.140830197577342,-0.7033160129339902,11.673563530133826,0.5548028509777729,3.0297256077283437,2.892233569997997,1.4706100147948462,0.3356263907324585,1.914548745689831,4.844070081821852,-3.160210292889377,-0.8359783315483253,-9.92804041759383,7.369031544701725,1.4711951257240798,0.9982466766075023,0.466892101667744,-8.508347134527492,5.088804136826415,6.2062666842105845,-3.2184305307832615,7.357728279230177,-13.993911753114146,-4.5164844481126645,21.040493217699925,0.5022574035137317,1.1273727481522178,-0.3815363665032038,-16.395987896472157,4.0537024049736905,4.838054511887704,17.27628943165385,4.132648407582888,13.302313197115163,1.7494271633841925,15.574320192078574,-5.084250410862679,-56.66216720299597,10.299730194381612,7.690522148108928,52.657076754597995,19.43948245227884,-63.199288050016015,-4.343764807169394,-2.231176765560718,65.58192546048248,-16.2562842937102,-1.6233848785503668,-8.392731589004653,16.81380611081152,0.5872063082476571,9.574775615990099,-12.131809346811291,-11.09397156656637,-4.570438150844626,-12.126679609742103,-6.003325729345771,7.1576323031735924,13.85811540214272,1.7306827647741065,1.7320073179139488,1.731615078092475,1.7311466660995474,1.7319342553475512,1.731857781430691,1.7300886904843742,1.7234057333749428,1.7319613195634402,1.7305858859030874,1.7265726705342517,1.6948162522591033,1.732009589329016,1.7290841484294777,1.7164993600284464,1.7106838485211964,1.7177624953426995,1.5008878085452981,1.4892497565591976,1.7257289067682007,1.724602307757912,1.7316761789867188,1.7294296507687132,0.9678584933280945,0.9801267385482788,0.9572048783302307,0.9769005179405212,0.9868440628051758,0.9431226849555969,0.9468855857849121,0.9625115394592285,0.9555457830429077,0.9352625012397766,0.9618049263954163,0.8976978063583374,0.8924838304519653,0.9681066870689392,0.9256526827812195,0.9223175048828125,0.9159277677536011
209a2423bd57969c5feb37c655841405,0.69997084,0.2610644549396327,12,-0.03375924006104469,-0.17960309982299805,2.5,-0.05273235151680328,0.12343437250321959,0.16561732547566135,-75.84049294086716,-0.6337758770070779,15.809396924867333,-45.54946813403521,-2.8323254780664007,-13.846377633884252,56.35266762289953,2.8408830420110274,4.242974730007681,108.5460927211011,13.032576981713756,-8.750139519985416,119.13787518146977,-3.4814032994620225,5.842166577790418,3.7606705267319143,-1.733279337034887,-1.0151775210478167,-23.783630253072403,6.10490514806019,9.164404410270096,-11.198955823589449,4.71140055832369,5.748028469238161,-7.235266832032191,4.090118972384121,2.929613757617495,-14.62734474187875,15.814542447719525,-1.0334768203522373,-20.68649201706513,-1.162039929917462,-23.86966333679618,-18.021538439986408,-4.6715561402124335,-19.44951079587856,-6.476012005002073,-48.942046878039356,-3.1858708380384893,1.0181378984988958,49.229759200354636,4.893897763936043,-23.884477807500286,-2.6183368104682345,5.534988752797227,7.0557910357495945,-32.35244241644143,-29.194288582492383,2.082307454525122,34.97651451880842,26.072791584525728,-68.62164882773675,-74.7769524200401,92.09393333286711,-21.04112524114304,81.42643958117952,-36.897331064303216,-3.81374502438943,-5.244746821601763,2.592537041204438,1.3550550169590971,10.678333594788219,-17.262409917651176,-1.3796560149631263,-2.010678551222177,-4.049319748714621,-3.021341185713113,7.0722685912801415,9.489173763999885,1.7113834478311192,1.7266048665438638,1.7297642544266023,1.7186396688131318,1.7280048147211815,1.7317675685538136,1.7317591064582585,1.730987141516796,1.730858677249032,1.7111601602325472,1.7274910134121286,1.7317915313152281,1.5651578813691083,1.5583678407645123,1.7301732740162188,1.6510355123059595,1.648796727780821,1.4689416499464751,1.4459006447447937,1.7294920247196843,1.7236992707734642,1.7317313382208817,1.728388111887421,0.9248618483543396,0.9585930705070496,0.9771727323532104,0.8417597413063049,0.9701060652732849,0.8291199803352356,0.7588386535644531,0.8686733841896057,0.940616250038147,0.7255895137786865,0.8466103076934814,0.3313274383544922,0.3573617935180664,0.17108501493930817,0.8859770894050598,0.38741767406463623,0.8727107048034668
22df0ba7f48bc4eb0825e90d96a86b7a,0.58100086,0.20979534491203206,14,0.0055433474481105804,-0.051400091499090195,2.5,-0.17144884170184196,0.12268428060542036,0.21658660673785715,-75.34567230113302,30.452317402615733,2.96365753271442,-91.21630011253966,-28.074166953379354,-1.8751262694019708,64.18191752336571,-5.433507387200055,0.333136852634207,135.35521476900402,42.698223134732686,12.530691971149633,139.72799739325168,-34.128094245183846,-17.91961460509725,0.043270299489127785,-3.5494411563310657,-4.462021537799789,19.715991469189635,7.148292284171402,-19.585368037392264,28.455030016914254,-5.4098615043128255,9.41993149572873,-0.28677786620116946,-0.5036391929786305,2.0343744603463048,-31.415384777646775,10.575717496648348,20.93516528624649,-34.05658124835427,-12.48425477375648,-34.71963620057162,-7.827060180216924,-6.894693012343828,-7.050380907710515,2.280246962721641,-35.56674534739134,-8.910447584221988,-2.2093666493341497,34.84827898900759,-11.270774930434717,-31.265082001702687,2.7384069402968065,14.143491007285059,0.9306402153926372,-24.195652937643686,-28.080672971389394,-4.703442012823702,14.90145439042114,17.211775491034306,13.991576784910778,-60.90979435661298,12.167291490533351,98.82662699495316,77.98843475865539,81.2260498711328,6.99837248961142,-15.536686736875152,18.83158871808192,2.0847747888704378,12.609578679511822,-10.243981925569559,-10.213763256785501,-4.246563615140094,-6.693958696550173,-9.823295031922092,7.029291491289287,12.409498465138933,1.730292379430174,1.731524358481556,1.7316764352179341,1.702510837410246,1.7194667908872099,1.7309483048658543,1.7320477648352683,1.732047140238386,1.732027140254155,1.731589753673302,1.7235137190819596,1.7290855763932615,1.6319336780044555,1.6364416394722292,1.7298536880858124,1.6922434984546706,1.7179516092838238,1.5475259358826858,1.4458405232748093,1.718990030898467,1.7194896084183486,1.7312783459421452,1.7301512937737176,0.9578230977058411,0.9667190313339233,0.9791925549507141,0.9408312439918518,0.9454180598258972,0.8708180785179138,0.8621870279312134,0.9302632212638855,0.9417863488197327,0.928271472454071,0.9357731938362122,0.7210759520530701,0.7315449714660645,0.8805127143859863,0.9308815002441406,0.7630766034126282,0.6320244073867798
360_F_128296604_f2PN6spSyTp5KlszAIkZNgkx0xdDMQDs,1.0,0.2836398268851123,11,-0.011887684464454651,0.07689295709133148,2.5,0.02261947219405765,0.10751000013287325,0.15492900263478082,-27.17598582535116,-13.494464581260868,3.0947952020557836,-50.3538327535614,7.7533182389261865,-1.9881012996290495,35.73593594682923,2.0799479172052373,1.8764093798187553,34.77161966390124,6.262998268628377,-5.000968068739699,57.44707272695003,-6.477363571947806,3.0684521939402507,8.29816944437941,-5.00798849452933,-2.2662731702930503,10.69534411100075,-0.7111691181483553,-3.447551206043537,5.038183378133946,-1.7695420751976798,8.740787582667668,-8.40170577765369,3.1230226229885933,2.432107971671826,-15.914656902547602,19.226080294503532,6.970704313066372,-6.371050977858597,2.346373602224098,-15.261145829839467,-19.619256614382795,-4.785898678673473,-6.926981534162573,-1.5648335912314182,-50.321796559079445,-11.131594747079854,-2.0549710367608043,54.571276114684025,4.460734810258501,-20.4233560135062,-8.132336485352319,17.4824125946543,21.135798472028235,-45.82556123436184,-46.30020901123267,17.363078171291328,42.34747967780582,43.706793268949184,-115.90047268227974,-70.67567701828088,144.63187179938734,177.23840943500613,71.26648811978963,154.6229752074034,-14.14675787509097,-11.957158759358398,1.8917189627312003,-11.776830865903749,9.508105987875604,-17.290828262658216,0.4095192518585302,-3.541358906447334,-10.839488013615346,1.2960002915330235,6.159869263064557,8.876777975144153,1.716450628356293,1.728377763535689,1.731370374692509,1.7315991178960826,1.7319819587594918,1.7296041316807311,1.7318936063647725,1.7319665091831982,1.7313953441074137,1.7090954947230408,1.7306965766390383,1.7316439490689584,1.561437980960345,1.5314782930674569,1.7165408062804355,1.5739960879763901,1.5968106262629866,1.5052803675676307,1.4946088453174098,1.71941304819533,1.7186464390299283,1.7309408819514323,1.7285876445810961,0.9654061198234558,0.9634978771209717,0.9774169921875,0.8942261338233948,0.8899989128112793,0.7157703638076782,0.7798565626144409,0.857277512550354,0.8040965795516968,0.8760735988616943,0.8000818490982056,0.8193424940109253,0.5552675724029541,0.2774401903152466,0.2470562905073166,0.11732159554958344,0.0502995029091835
59eb3f1446c402d1e08759034a451549,0.5354674,0.20939335880114418,17,-0.02376611903309822,-0.1124563068151474,2.5,0.015905297225324022,0.11455691287067055,0.282245773919944,-38.25069758831155,3.400231576838047,15.995690747758513,-24.06498304458008,-3.1813517068164012,-19.87558760849374,23.762939763951312,-1.4747709706376855,5.22369661344284,127.61422249305846,19.654205173114207,-9.74888197255267,131.6849418663344,-5.241495621980772,7.106188242375632,0.6789986854549309,-3.2237839220386024,9.612639420831325,-17.37674820029466,4.823566004588907,5.732457787128951,-17.60175112976185,2.513874375353863,-2.581160196700001,-6.201957595703337,-0.5907605348407962,3.8579029715453657,-29.531115638191192,17.854403666231047,-4.034967159847367,-18.99689221822888,-3.4554757078359875,-12.1197507924603,-14.352342738642122,2.132933814188321,0.9222743489986275,-4.214948197012491,-14.552085438675922,-10.389226781320803,-4.5300411528416875,16.95704462079053,16.146117077269373,-17.06608268353225,-2.088863410390753,-1.604177479541664,-12.66964058878015,-26.238364460403734,-22.732699948059913,-0.18481316518699129,16.800857186446528,33.13898753511503,-96.7965255000305,-48.421392617092536,131.7671634571107,-104.90395657502377,45.33154538213154,-134.968238002433,-11.767673859707566,-10.66741647808627,4.708902019230589,-8.026459392170255,8.220423484683756,-11.350362900589719,4.221081484637101,-3.2008567767645464,-19.731247758709728,0.9113064029122052,6.563627621537322,16.17149163101639,1.7274738295743388,1.7296598778840377,1.732000211499584,1.6990589830354137,1.7253091493674295,1.731225291917572,1.7313285981383248,1.7311648737301524,1.7319619139981104,1.7057333227864195,1.732005872196823,1.7317539553815071,1.716277897241831,1.712830668297116,1.731845952277242,1.70352044175536,1.7153047712793836,1.5364455350011341,1.529406288026603,1.7207710439963175,1.7240501135233146,1.730326004235837,1.7282818352119238,0.9495648741722107,0.9814298152923584,0.9619517922401428,0.9578037858009338,0.9542397260665894,0.9038711786270142,0.8652220964431763,0.9318637847900391,0.923820972442627,0.9132055044174194,0.9149184226989746,0.8335208296775818,0.8323114514350891,0.9482491612434387,0.8833698630332947,0.90472412109375,0.7908049821853638
637e232968e6e13411d0fdb716d30fb6,0.788939,0.30519347148143156,16,0.28353622555732727,-0.23410530388355255,2.5,-0.04148583828458552,0.05626024784351618,0.051768537390351546,-56.92087807308259,-9.373768066119673,-2.9518446821521045,-35.71838073989562,-6.148309007558204,-8.463185079839013,45.47298843276954,2.1155200122556295,8.79170976369617,110.12302906627782,15.592057593255873,-0.9700094100032842,62.936850337529755,-3.1056913582486203,5.297382893437854,6.740767409670614,2.248060251502375,10.064067206884317,-2.7177477658860423,12.584855972342172,4.519605417660159,-0.8498156507425983,-9.352058285120014,3.5904434859003715,-1.9486502634905953,5.401347330333011,4.91194565506149,-15.613437956245324,2.857940583600547,5.125415122830774,-12.100745946388516,5.495273518873677,-14.309191252652619,21.478063739429125,-27.038499189105877,4.814932748602957,-7.041810037966926,-1.9787683665532478,11.969983800640193,-2.2141664202986067,25.023442591797522,-2.4842556219155143,-22.289918120932768,-15.059592385179473,26.022930788843738,-17.154054970866415,4.978422884585187,-11.282232058947217,-20.45047685302735,15.329261247068018,8.307898052533323,-40.366149330196116,-41.33183800026051,31.59342259170987,-18.699204717659914,18.261602364639284,-13.774955353827156,-17.11330131590907,-20.652843199568036,-33.921672024605236,7.7455696407761945,4.683654015268861,-18.519537990209155,-6.9684947281105245,-1.2378976871820828,-5.788238374867179,-2.3769634432690014,3.223474755793468,2.9661187040323402,1.731450543498186,1.7320506444006734,1.7268172543295424,1.7286581420617795,1.7310906368035544,1.7310502267718115,1.7188759060772574,1.7243548263492048,1.7296678408571242,1.731887401668527,1.7261750802374891,1.6873891837006376,1.7310478771976514,1.6793647081815224,1.6893004511903011,1.726463118170915,1.721082267120507,1.5525162588125456,1.6932376179732103,1.7281955427237388,1.7317188066831177,1.732026528296774,1.7312098601829469,0.9828587770462036,0.9915146231651306,0.9447216987609863,0.9433227181434631,0.6045268774032593,0.9268934726715088,0.8800753951072693,0.9997808933258057,0.9467733502388,0.9729232788085938,0.9714249968528748,0.8743966221809387,0.9000846743583679,0.8930726647377014,0.9346113801002502,0.911663293838501,0.8314822316169739
65eb7c050d76131faeddb0771d26ade0--falling-down-editorial,0.59280396,0.2364180823261559,10,0.03548474982380867,-0.18640057742595673,2.5,-0.16780808581004572,0.1359905664037556,0.20258459634216797,-28.292543807520143,6.5408697611189845,9.829750985933877,-76.15115794015827,-10.430414308718987,-11.775563830533121,29.98293099747242,-3.7766986477363687,-0.2857505158497943,43.078686362420626,-1.3348607483223691,-15.861773591500038,54.304970564998094,-9.52456488566223,5.957008432530107,-3.2118059400461605,1.231849205725873,-0.8561549280128706,-8.518953296659285,2.824807341351564,-6.796903085767157,-7.823040733083543,-10.592027366460886,15.919383469234509,2.851872686706738,-1.6248890463840104,-1.2393098978452546,-14.55231726509895,16.55787750129814,14.172464448647245,-9.362785471785811,6.52464825101737,-27.63799672965926,-14.314810842633628,11.475560805409659,-1.4845240454471722,1.9529442423178038,3.112032685067263,-25.265790342281733,-0.9319811613298181,1.0270620344699108,26.93426199306968,4.0680008429499805,2.225788367021622,-3.9612937303657025,7.297695083346686,-5.5638013556709,-40.233800388620736,6.167434732348518,5.423009036453135,42.909347997389425,2.9421329921265067,-56.49373703423753,15.000873296720238,-15.97957095907315,37.23663629266748,-20.987960075818126,2.6164980153743844,-1.530327650753305,6.219913980903007,2.2240043443789665,2.699196243107481,-5.678591963621519,-13.52284561948886,-6.178522597878431,-11.847526358529127,-9.614695085084778,7.791685508528761,11.60724236476764,1.731958540880144,1.7250363672170534,1.7310273440294737,1.7201088340698176,1.7320118900601142,1.7319070628734892,1.7307959932654748,1.7189710625803103,1.7318018774075579,1.719765430095162,1.7232085921252462,1.720567770298924,1.731706888516117,1.7320290442843316,1.7317223851359256,1.725060330688713,1.7262234454113041,1.540849870151533,1.6087806190932397,1.7319166279125124,1.7315177175568965,1.7311966377071906,1.7293141999009136,0.5689498782157898,0.7699683308601379,0.5373610854148865,0.7792540788650513,0.7258511185646057,0.8327900171279907,0.8310722708702087,0.8343289494514465,0.8490047454833984,0.8371214270591736,0.8678520917892456,0.5770921111106873,0.6482900381088257,0.433402419090271,0.89014732837677,0.5137072205543518,0.7816101908683777
6623ff38175c781d04f77afeb29dbaec--ford-models-male-models,0.8812104,0.34406974278072755,9,-0.1393202692270279,0.3094059228897095,2.5,-0.022807234799401655,0.10398735262516041,0.16614331762715726,-86.04112371909898,6.025229983168898,16.69577310118224,-89.8034447512972,-8.832315340911721,-7.355460357421098,51.03165972873924,2.5340444519526786,0.7156754625940105,45.183042274551994,11.181802432510333,-7.240775949037214,63.30908444176467,-3.5249989708900653,5.946357756382306,-4.922255993162982,0.8458105359744168,0.4493244931857368,3.302189083383092,11.932403938294776,-3.1874152906205735,-7.483225565115433,-11.82283930084379,16.63964396158019,-2.35066458775419,0.7057862277076467,1.3361279670912736,-10.668693803968972,9.837762216774411,16.04717759379436,-10.049369254433467,9.39623898208084,-29.68280570650283,4.4722767615590575,2.445724620748818,-7.275677018094947,-7.066241881674277,-19.380102342340795,-6.263534324363781,-0.6628565068139887,27.577527646495927,12.238223416025955,0.25939854377753396,-3.406131128363061,11.207305671707585,-1.2714246476881168,-31.638878397169382,-29.813166063083727,1.3872814925597936,22.144142070134038,36.66214167022615,-50.20760596958445,-54.07820957276388,53.498445221630305,-43.74277454991852,37.28611928682862,-39.59907208290527,-5.882298012397599,-2.9616941669032117,12.729743156758738,-2.5177413792803045,-0.9292525492290723,-6.6965696590919785,-3.3180755310077346,-0.6730252705088051,-7.521257196630632,-1.3067582963696156,5.958036428160334,9.519310894337606,1.7093239699332263,1.7273515615269062,1.7316446377150696,1.731434818654535,1.7308272441941612,1.7319941577771392,1.7201267151782484,1.7164527555165474,1.7320140055555715,1.7285423939365765,1.7172335241123615,1.7317490534078916,1.703363704328228,1.6725874680737463,1.731098833216072,1.6741768221747186,1.70284349311108,1.4637690865136999,1.5475143012643016,1.7305237141174663,1.732015650766911,1.7320459157976287,1.7292436854331235,1.0133432149887085,0.9611870646476746,0.9228097796440125,0.938034176826477,0.3861677348613739,0.8300262093544006,0.5130876302719116,0.874631941318512,0.7183313965797424,0.8935966491699219,0.9228852391242981,0.7441577911376953,0.7143579125404358,0.8466042876243591,0.7117257118225098,0.5492810010910034,0.3771429657936096
69407332-woman-looking-up-at-camera-arms-crossed,0.6866465,0.26243193739246584,17,0.005057100206613541,-0.2570870518684387,2.5,-0.042424403523447146,0.16900802343982588,0.20342147445972822,-18.98232736488358,-6.519662579479611,1.9454072900312431,-7.061463996408978,-1.0141651718522418,-3.5069870236173717,27.24736497559892,3.712118398405534,-2.3525356101158814,38.8989382534786,0.40024042020551154,-13.225002724233516,67.11719716555221,1.2095702071694994,0.6819004692246652,-0.36547459355679646,-7.448782336910092,-3.975277050153236,-1.8806966369110303,-0.7408689253507872,2.953459903843403,-24.286581301194012,-9.31289304304528,4.479197009694086,-5.1380859112936355,-2.09273690742868,-0.7643319732107718,-13.978125938289423,24.475681171744718,-10.023712171034127,-3.2931737050151906,3.1201593157643215,-0.7366895473310878,-13.096279322445062,-7.559879333021378,-3.221982288163027,-0.9302279807434343,-41.29898506105114,-12.624153217793406,-3.49279802920529,35.857167341379565,8.762495162281436,-10.766406317402744,-8.548448563598763,9.158464868560275,18.838722431169977,-42.18913006521001,-44.746017273627885,29.193531780280246,17.272957059464233,58.85465406690899,-73.34809460474372,-75.11064023577904,97.42462138781418,30.824272975235562,83.12189456111633,4.047660903260468,-5.328916404868741,-15.984224708454098,42.607135260696055,-10.483944129374484,11.755630874114404,-36.31394898461929,1.7668635808765574,-0.2942347666308123,-6.686745339165019,-2.4307392702534605,9.683446446950112,11.655191948870694,1.7280029012337348,1.732021820647156,1.7316179456243574,1.7265150323302096,1.7319438868325614,1.7272492567966502,1.7319895483762702,1.722758399453556,1.731693568560906,1.6757700841140546,1.731175262093419,1.7282152016147276,1.609313723303932,1.6360691386945727,1.7232989308000926,1.5935207830826008,1.6418973484278676,1.4711075228518127,1.487928558174414,1.7117094961378474,1.7110052620309004,1.73202885936909,1.725008966496876,0.9709445834159851,0.9881958961486816,0.9517272710800171,0.9639319777488708,0.8305391669273376,0.8340254426002502,0.8938571214675903,0.9491583704948425,0.9362205266952515,0.7700621485710144,0.9106463193893433,0.8561239838600159,0.788540780544281,0.8877165913581848,0.7873668670654297,0.9229703545570374,0.9437297582626343
6bca8a2b5805feb5e58d39a39c9c0334,1.0,0.34539745251400766,12,0.02947581186890602,-0.42057865858078003,2.5,-0.1223219576073666,0.1304611417441965,0.33151786067876443,-4.654147851110269,-7.586123456005451,9.228342182020011,-1.8069098787763145,-4.511031457244256,-3.394344153788037,21.98814783670175,2.1866286860341333,-1.7201084946722889,16.055651178022828,1.0698434836356288,-6.640294592583171,41.48530719752512,-1.9385355362343732,1.449823931847649,17.890864993616376,-1.820305587239305,-3.1277968462324055,11.719579631395954,4.435699124447176,-4.821644554805336,20.765795451135943,-4.590297037056475,10.091751865590401,3.562380140240652,0.18167473238420553,-2.693661991782833,-14.390223332844496,10.906647400290966,5.411282018062285,-16.50482099593437,-1.8127831985316238,-33.609906651941024,14.69991399878647,0.21779726298585536,-7.923434747069895,4.823953673482367,3.0811977670084802,-30.081904694514478,3.666529386036002,6.622923071037956,16.239611005714913,-15.946264540201028,1.5933634129771783,1.2815233855954842,2.5266911363444415,5.186347844081918,-41.963825222796636,-2.4937992825248516,-8.034458500117427,48.391548733083404,-4.5429533489587985,-54.233563020867436,28.739654817940124,-105.4840758229779,59.79766217076991,-129.42511045276666,6.7903401856372145,-9.07253786710501,1.5675911932939173,0.7420317715585812,7.48702127202907,17.836241404535926,-13.944787299928713,-8.037469290200164,-16.681599810834125,-7.008531912680279,7.474872812400464,18.99457425009923,1.7261465612852422,1.7303553754049181,1.7318830811724746,1.7319929604038014,1.7320306306441466,1.7314148279347497,1.7310665278933308,1.7320121553306838,1.7320511829514602,1.7247354641203034,1.7270141023598038,1.7317675790842002,1.7320450898159343,1.72728604355194,1.7319277690755033,1.7316411799168132,1.7275153244374162,1.5625425926794383,1.4853316953737503,1.7252543798552862,1.7273145776616936,1.7309826768945296,1.7300906230112918,0.9698711633682251,0.9856650829315186,0.9749532341957092,0.9687448740005493,0.9816105365753174,0.9345406293869019,0.9027789831161499,0.8095369935035706,0.9749870896339417,0.7293343544006348,0.9213058352470398,0.7902413010597229,0.7656220197677612,0.5755536556243896,0.6056463718414307,0.7402456998825073,0.4005703926086426
6f523f23d3ee2864abd836637de27672--trampoline-hoodie,0.8676801,0.3376723927872847,14,0.16036057472229004,-0.05646545812487602,2.5,-0.022081103204194163,-0.05181786186035005,0.20530480047463825,-53.08676018795745,-7.837187339431088,8.797521875105497,-44.96271941753107,-3.1374216032477564,0.18777813563942594,51.2968673169024,-1.3353746650067266,2.219893039911254,20.801640659312326,-7.588437909459518,-11.063635848986113,43.20524195754455,-8.945663951090918,3.1948519806216997,0.35537073389601975,-2.627171114158646,-0.3325187080955151,29.457118214693743,13.611007503060799,-1.6308608794863066,28.20959260086652,-15.750236786415348,14.872584718710675,23.96142972563711,0.7877989654889136,6.598650864253396,-16.59446346937038,1.5266527335848603,1.7659104826147936,-6.547405846526924,-5.705999420282046,-20.57894033522666,63.17182391253691,-8.152616959865677,-16.376858943740192,11.29631140763564,9.904799943618714,5.472821438285204,14.440928052911133,-9.347613167473774,-15.702246211359736,-25.33315587123157,6.093348494668964,25.616471332986155,-4.243233870672025,24.79170632142204,-78.13253684312842,-8.45365374938632,-24.01860315452783,80.59825002442665,9.932453242971466,1.7227989850634433,-1.2125418377276342,12.317710271068814,6.038300684940084,1.6533411941199234,-19.837241055016023,-3.2416381074166947,61.44284347155078,-19.917723702008832,13.128804312466453,-56.7913939482694,6.148247574408595,4.091696804619282,-2.17176021647578,-1.2651540205931244,-2.968944787989974,11.763098580972233,1.720087129894642,1.7315646432649474,1.7319804804995753,1.7216741620612586,1.7304256404796639,1.73144347972915,1.7215069188083507,1.7285626938321734,1.731040615455151,1.7319699810630438,1.7312583312578034,1.7035332549232356,1.7219706132066845,1.7181604167899789,1.7292486120873565,1.7247919749339296,1.719175320275359,1.7318564968672023,1.7286250845831328,1.7015737534007933,1.684755308896724,1.7307608002571313,1.7311715801502343,0.9719908833503723,0.9486342072486877,0.974622368812561,0.9558621048927307,0.6493664383888245,0.9867388606071472,0.7136878371238708,0.9040209650993347,0.8289191722869873,0.96783447265625,0.8766087889671326,0.8845468759536743,0.6811392903327942,0.9258739948272705,0.9397314190864563,0.8337836265563965,0.9015970230102539
73513e03cafcb44ca4b6ea73e4d0b337,0.9292985,0.38213728332881247,16,0.15257370471954346,-0.26550108194351196,2.5,-0.10029906356861751,0.1223749703960254,0.19621647477294202,-0.6102575370765918,8.61554832548811,23.00203077507027,-105.25858929467671,-16.09245261439032,-5.759215161960218,35.417331154214594,-5.769241853409187,-0.7438811488842608,31.79585218554368,-2.9990930470116277,-6.082825783963041,42.19705498525224,-0.733727679762192,4.042008216835743,-1.3561880385740763,-1.4720772554493884,2.767567412631466,-4.450444484027344,6.94173632771605,-6.125217843102196,-6.8313367962949325,-10.463416883563823,22.12485924360612,-3.931908971098137,-0.6570847300256037,1.5184232185989825,-6.751282379605353,6.799297782293732,15.026780278758297,-7.050400385408008,9.048717009673101,-36.98226966305365,-8.124160956583928,6.910386289279502,-19.339154448961008,-7.628602800986006,-33.76085270322778,-0.2791550732324997,1.5222388982176625,23.742562757878257,16.837000935341067,2.028764952513326,-3.2796159192544883,5.564024683092882,-9.829870717301612,-38.18612722869952,-22.64581416142874,-2.4576206093283344,8.652481754888619,40.64107066325008,-40.776082675891715,-55.6074538196966,41.34075214118904,-15.293232236003568,25.57980266604146,-16.93396278936424,1.598804337887266,-2.8492746076775317,16.370905749582047,-0.06351734944134049,4.447180780889944,-17.999792405378553,-7.147755368389675,-3.9205343854560732,-10.327467212161954,-5.746713031596137,7.011569321730648,11.242375875424766,1.7268815620038844,1.7237469965439667,1.7297400902537274,1.7291585553090958,1.7316363871311706,1.7318440274779716,1.7273081941529107,1.7190468698378802,1.7319998079778343,1.7300573471652998,1.7206364637714637,1.7247201855411212,1.6423547166841879,1.6868929438266176,1.7312254684353088,1.6593803215081027,1.7299078864711765,1.4795236555426081,1.6655756355961175,1.7315926607949186,1.7304654743177643,1.7314803449781355,1.7291841466133362,1.0157610177993774,0.9804611206054688,0.9940786361694336,0.920298159122467,0.8751112222671509,0.8446211218833923,0.6107675433158875,0.9213584661483765,0.9607030153274536,0.9325799942016602,1.0062849521636963,0.8906059265136719,0.8634774088859558,0.9054526090621948,0.8791743516921997,0.9194616675376892,0.8030959963798523
800e85b65480f0b7e9ce03eabfc02e4e--male-models-poses-boy-model-poses,0.8240301,0.23001900644721504,11,0.02249038964509964,0.07182683050632477,2.5,-0.1350418669941544,0.20152436531898893,0.29143313681635385,-51.834626234245206,-20.893971673694633,-1.3921100571071607,-61.68974498227048,15.668236360638343,2.8757155990354235,52.489647323498886,0.9724446385918745,3.5036801494929106,74.52560651922319,12.459245458967965,-1.002653214575654,76.82232179401136,-16.35444004938757,0.5753089679943405,4.076304020220743,-3.056911995302314,4.692620426093208,-4.769312735091771,0.14157113525373144,5.16845668523307,2.092963910028769,8.554405203628022,-2.6718073042610326,-8.717261285381753,2.3312153146800334,4.061141618019569,-12.406001854550675,11.661270078330679,-11.180319033866654,2.3647769475358675,-9.817708352094805,11.406355386058662,-22.788180510740375,2.382954297920553,-4.9588304483617405,3.9785736758113224,-43.97326895639419,-20.01968436188598,0.4717618352562458,47.0204473535828,13.714906123742335,-15.940909362300241,-7.40002783786618,5.61598127825818,27.622602661882325,-27.22422008384994,-52.61248619050398,14.994980786037098,38.308373540564496,43.60373968412343,74.44371303628263,-83.38030835762001,-44.887235131051575,-122.33309082612809,46.062078087975394,-150.1737803142153,-23.52400322128189,-8.826895441543995,-9.89493198248028,-17.406126635786325,4.062452270474067,-17.28857489758084,-10.308419320323852,-5.368227846188549,-10.462419641403681,-7.73732903633206,11.546495601830644,16.697888749835766,1.7203237565858724,1.7300246239564478,1.731052582350815,1.7315726677958558,1.7311959233978955,1.7314085271141955,1.7320439345868321,1.7258199176267448,1.7318013921543256,1.7159908487925315,1.7247518537151083,1.7305675043353264,1.5953004623523392,1.5786412234400549,1.7255328212145284,1.6193769142162862,1.6203118125542855,1.4985088969128912,1.559140700265779,1.7306347473847217,1.7252403377339844,1.7310784124645129,1.7254313707348174,0.9459554553031921,0.9583141207695007,0.9550936222076416,0.9383292198181152,0.9617182612419128,0.7545767426490784,0.7997769713401794,0.8478760123252869,0.8810882568359375,0.778258204460144,0.8725846409797668,0.4581625759601593,0.17159946262836456,0.07258155196905136,0.04165135696530342,0.08129383623600006,0.051106635481119156
82a7e33c186338335db0f4ac3fea7e00--navy-suits-mens-suits,0.555041,0.21673536828823162,17,-0.01031608134508133,-0.3119123876094818,2.5,-0.0911823930450479,0.1255713528163206,0.2577024908400282,-1.4528715712313094,-2.227964499911411,-0.8144589893098989,-4.890517394079564,-0.14317496701415097,4.0662646924632035,11.16414823748606,2.0787014232659344,0.2805510409370803,25.495064067796985,-5.131090369321197,-4.848362727997909,15.806019901700877,-0.2681019172340771,3.0526785285979474,4.746261355843124,1.9054975380510393,0.593244484065679,-2.757781880564008,3.6619356322859478,-2.5294478355092624,-2.5958735904778556,-9.87824896117389,7.508677590220521,2.8020372606982518,1.1932074199743532,0.5358874147122311,-9.444914988755798,6.490282924430953,4.60486606655824,-3.1914019682635866,6.95780604374853,-14.060151477458186,-1.3758013503503053,11.840875263309515,-0.33378058044809306,-0.13975434653911892,4.230649617910384,-9.590114687177655,0.34803217257655283,4.70463347406211,11.122058394922686,4.975922755433594,6.496853257219444,-1.5582483871812178,11.397419622166497,-2.699786627445509,-51.43514996066792,9.562926039859192,11.207874336149873,48.2790656367116,-159.08166272757478,-81.2141159598324,166.61534058060516,-89.32799715468823,81.71309402076243,-99.95023595377339,-9.123312084476872,-12.462732908045325,12.457341126745153,-4.289254130276763,10.800616105196152,-12.922679257573359,-9.105258387101188,-4.092108191263952,-12.07441379695213,-5.224366287384275,7.194708544123373,14.765265095142373,1.7316227022009973,1.732030173261858,1.731665705416716,1.7281071021095327,1.7320218171193689,1.7317166163735287,1.7307983628860306,1.723103485891911,1.7319205994499776,1.7292785926938141,1.727100691348334,1.719844207720519,1.730506072097923,1.7301254759063136,1.7285341429123262,1.7223241950245367,1.7136859564311127,1.4276617777213971,1.4261616540700974,1.7150253033066027,1.7205970923267804,1.7316814350478573,1.7293097739235788,0.976737916469574,0.9851737022399902,1.0032474994659424,0.7762726545333862,0.9671280980110168,0.9353882670402527,0.9074748754501343,0.9742917418479919,0.9549545049667358,0.964327335357666,0.954371452331543,0.8740622401237488,0.8928661346435547,0.9337368011474609,0.9133382439613342,0.916739284992218,0.9111557006835938
93385946-businessman-step-up-pose-isolated-on-white-background,0.63463634,0.2583876416773815,16,0.06193668395280838,-0.3465213179588318,2.5,-0.08147118422272623,0.11509757281529255,0.21696621434097524,18.549073860288164,4.178254518881924,14.333520993955018,-64.31606185192423,-6.945167926175126,-19.573733906741698,20.87066298131651,-6.224865108658973,-0.5131921315626784,11.125185857106963,-11.374073073643352,-0.17804511194252026,103.56486845894173,2.100136049710743,6.4784303347108905,3.883761436956408,-0.9419798950708573,-0.19341291802320604,-7.347100147506178,3.6967839038381274,-4.366363527938192,-4.450761454825869,-0.8740865435236934,4.197268550918836,-0.07648680898498848,-2.796687136974293,1.6655950112287516,-3.412596858356831,5.852731995550617,8.267594544458984,-7.985073585850296,-3.025799161620892,-12.661483162757984,-6.512757642330157,-14.70974946220064,6.6002522703675055,2.7854083034040333,-5.953650190594013,-16.304751463474943,-3.661593342110821,5.4324594915000075,6.775371592411429,-13.284190962558874,-11.136254291208841,14.121042016827385,7.903876559144045,-11.209513980881733,-49.56809555790601,-0.5476360622923658,0.32468159633804383,42.96344216634237,0.3187569304900867,-62.06586475333748,18.99657974425022,-73.88782973986228,74.45656190038717,-87.1968849630389,-0.6834120375728597,-6.6444739008905795,21.356359419010666,-4.140370877048427,5.84861152896296,-15.787770532242105,-10.81633696909148,-3.6466181331074075,-12.634676360951891,-4.667955007895033,6.59460515451594,12.431248378668677,1.7259134967292957,1.7135413274188942,1.7288954584913994,1.7211393159980573,1.7290953771961037,1.7319717634280227,1.7304909184399864,1.7319251624362104,1.7313624552613314,1.7295966775414802,1.7319289246108094,1.7118666207305366,1.7283556331807466,1.7299005426899332,1.7155709778172197,1.7167724487049731,1.7320491896950174,1.5182883058184447,1.4331641527695622,1.7284194721169568,1.7280643181063446,1.7319367475714784,1.7294846709065443,0.9798334836959839,0.9800273776054382,0.954365611076355,0.9807294607162476,0.6383603811264038,0.9193262457847595,0.8896541595458984,0.9664063453674316,0.9157146215438843,1.0021743774414062,0.9635653495788574,0.9052153825759888,0.8149990439414978,0.9159684181213379,0.9592716097831726,0.881564736366272,0.9039672017097473
9550ec0485867ae069b4caa6d3b1e425--aaron-siskind-photo-sites,1.0,0.38018216522442955,9,0.019709549844264984,-0.30647164583206177,2.5,-0.05593442939942588,0.07279374472221183,0.10574073082183533,-34.40198840997438,2.3790566772939457,-2.0216651614925936,-20.4537173803831,-1.563616238823743,-2.2771330427768457,21.69066690866263,3.9756643412789447,0.37789780373269727,51.83691206310864,5.367237959747361,-11.373287790124959,26.82998992604363,2.8048976269734633,4.446334948326851,-3.7543223205743543,-3.2066425315634257,10.612985337266325,-4.532303623939637,13.666967210393542,-2.8967725179919235,-5.505515624795888,-12.290199661012382,12.729655891059446,-1.155330725265178,-0.07905601824580194,6.042721791042762,-7.471549974487702,4.558320402393149,8.46706304636016,-5.490077104679126,16.06595201923843,-25.021343861627958,1.1544936374218904,-2.2504066703438803,11.646007268638812,-12.183217166447648,-13.768441512618933,10.527450827421754,-6.306563764388255,15.70999251403925,6.658529242451965,1.8402914853986667,-8.621943347252877,8.154605872291313,-21.17250121461347,-11.348950626088323,13.287027791457502,-6.036224699793401,17.343643900900677,13.56533509624506,-22.353056773785017,-32.0307065922621,16.961999128421493,-31.389685453737034,47.73666501886208,-35.2519246648456,2.206602550255318,-9.509362538998406,2.3720580480790643,0.7805877382405966,4.987141229329211,-13.975091804725228,-10.192917197550711,-1.6924750878659809,-7.991651623938555,-3.204806734059575,4.170774347535449,6.058497598720065,1.7312040854780273,1.7320122060874832,1.7307601864400795,1.7292546291503994,1.7302705125483366,1.730757882127785,1.7154499376329393,1.7170036213360178,1.7320479156749915,1.7310524351829688,1.7075857707383588,1.7317094503950448,1.7113041329199343,1.713238630358884,1.7260739967514702,1.7121822201340722,1.711887840160449,1.6320066740712627,1.5275104208360177,1.7243304866784872,1.7301527606636853,1.7320454087479702,1.7307809147671285,0.9664187431335449,0.9143117070198059,0.8839119076728821,0.9024205207824707,0.704804539680481,0.7417383193969727,0.9118146300315857,0.8358238339424133,0.834715723991394,0.935071587562561,0.9395148754119873,0.6358811855316162,0.7014055848121643,0.6756227612495422,0.1705671101808548,0.6100930571556091,0.7444984912872314
96fd8d04ef7ad5eb37e644444d39fb37,0.5586989,0.21910487959460126,16,-0.20288638770580292,-0.10254502296447754,2.5,0.07114736494203801,0.04718822453857404,0.0319276657142732,-51.29120784024122,-7.089831366834432,11.38161798389459,-45.677940366642396,1.5451561276652666,-7.823811634997396,32.54065177402673,-0.4589296975451234,1.0153459238751776,128.54963047672024,15.724078638285565,-10.004922249741112,129.29231207996804,-6.065926163690142,6.626502486645376,-11.175725304441032,-2.9541219564936285,7.413385743300324,-33.12452526431222,15.181630764978767,6.030357871846542,-22.170809539318288,-4.262176782229122,0.24555063881230296,-3.8156763859299545,-2.0308664405411023,2.563798604765897,-19.74454283514406,15.714374835601545,-8.236042920940772,-17.261671478081567,-6.775524432048428,-5.982278580438837,-23.46728389449203,10.484099682420478,-10.706412745992372,-11.293124260912736,-15.85331410682257,5.5119380543590895,-9.455453222245875,18.9433719006057,3.543930194332138,-25.663754126539196,1.076396889265512,-3.9125041315556546,-26.768672237228976,-18.956553509180527,-6.300051803308424,5.499181229037284,24.593420357974207,42.40152163546947,-49.55388011037789,-48.17694277043964,72.48840791285517,-112.21354487334058,51.32496930132221,-147.85954495758352,-23.17003538891536,-5.520525020805376,5.89720398613992,-4.162378789426506,8.904627864566603,-20.64798027839461,1.8311369434246776,1.9860520706811133,-7.904026159640868,4.076443734655813,2.703686108775959,1.8293204951323951,1.7167572011595738,1.728158272585702,1.7320484126210431,1.7054866893238079,1.7250303510967504,1.7304203803477995,1.7245802157926409,1.7306181224897978,1.7316273553645778,1.705751653825485,1.7301498185923314,1.7156235938663116,1.7083654825690466,1.704182148271038,1.7314283046517354,1.7155019755083227,1.6919537462824445,1.4969922670309983,1.5648629881997176,1.7272846611064403,1.723681579625547,1.7317927158436932,1.7313486392026014,0.9597650766372681,0.9451211094856262,0.9745879769325256,0.4646465480327606,0.9681224226951599,0.8359758257865906,0.8815795183181763,0.9784247279167175,0.9641732573509216,0.9480273127555847,0.9325242638587952,0.859428882598877,0.7959046363830566,0.9730913043022156,0.9095783233642578,0.7865628004074097,0.8719625473022461
Header-Ashley-Weston-Mens-Clothing-Fit-Guide,0.59229225,0.22684867896324806,17,-0.020831648260354996,-0.3777451813220978,2.5,-0.0822348688546075,0.09757147556058761,0.2700816399994925,13.298273020177785,2.1945734923709144,1.9829940977752825,-0.6711191726907395,-3.8895404424680513,-7.646886689368395,3.2007467748490477,2.272488098918414,-1.3992822337443203,4.9070510376143766,-6.23867743888092,-3.090741978639863,6.564071687717849,-3.582187358531184,-0.7915816276278848,12.039789960460485,0.4197385388847325,-1.036414241077798,-0.66022448920703,6.24549344015647,-0.6803183578787104,5.248963755139783,-8.653489174657535,9.809152698337224,1.15077670548096,1.2383239279992877,-1.0213577056369165,-5.944051468366588,8.605981630847847,4.915203797426561,-1.4301607444769249,0.8197582002182339,-10.32116816343597,12.70280488497352,4.313963246020042,2.2247222600998606,2.8475156781816913,-2.0411859802132204,-17.35142403523534,3.2421133008405754,10.461076788542028,16.094666203288483,8.53932275023073,4.7120296870583305,-0.21907315623946533,11.37409829123645,-3.017437107126226,-48.70019834726154,17.762833519274817,11.273291475464012,56.809387962897894,6.468102279921995,-58.2095126898654,12.828432454868139,-149.35253732387818,80.18525187331983,-163.0094352319036,-0.28201724200007056,-8.64020781223187,9.208930371048151,-14.085672688546415,12.637701826749268,-9.376300017975364,-12.45573365448143,-5.715598006793218,-14.96928632852289,-4.7117109141808315,5.590433750485528,15.474538095942597,1.7314606939023813,1.7308059933907196,1.7316297870782205,1.7283786740038594,1.730881427837914,1.732047550456029,1.7286233786646548,1.7270104047117207,1.731921070740344,1.7264307535944425,1.73195148167685,1.730115504066419,1.7313643220780526,1.721615504148249,1.7301711624656917,1.7224383596547916,1.6948133949433666,1.5370214544784262,1.4418752194291182,1.7256235502831483,1.7140558603766072,1.7316289229177035,1.7305676846667608,0.9649733304977417,0.9774214625358582,0.9670747518539429,0.9686784148216248,0.9585110545158386,0.9320381283760071,0.9477957487106323,0.9436048865318298,0.9379774928092957,0.9213188290596008,0.9488674402236938,0.8599447011947632,0.8385505080223083,0.9378565549850464,0.9486945867538452,0.9210066199302673,0.9245178699493408
Human-Body-Pose-Estimation,1.0,0.3643910788248343,13,-0.04500434175133705,-0.16424541175365448,2.5,-0.09383122077679588,0.11358966551723225,0.17046425684330155,-26.6508614196958,-0.9741401504045452,8.104455260013646,1.361456409365457,-2.877302338674598,-7.616755877995071,8.955598995619495,5.141413778857354,-0.812180653237227,26.475730305969545,3.0657447602597925,-6.956747991645595,32.955979257066616,6.6274650568248274,6.034200896437706,-9.699231957132849,-0.6626695954895869,-5.3107629692965626,0.9170680290930497,7.582149180459421,-7.698613190669083,-22.950084846780204,-10.555397460257337,10.282629624055497,-0.19701862537642179,3.6440723487595,-0.6245011270303864,-10.01811221808143,11.200421583282923,13.203305582827644,-4.785755582351502,3.7776671429301785,-16.880220868734778,-28.166641367070763,5.074530290012087,1.9104676161384153,-1.1973595499433967,-3.0659215806342153,-23.828930234666252,-0.6968441234715459,18.39200476541872,12.777506174428723,-10.672698824204986,-1.205646648693317,3.3204642234684467,13.79843619459256,-3.9478288781489237,-55.09205292484728,14.695122449294452,9.182665636282218,58.97173120462597,7.931547730997211,-40.17806016644037,12.09805340755262,-4.269940713087433,39.57285843012308,-11.155552332642497,1.6728620619473766,-2.693030644758511,9.873811296208691,1.5844616691851805,2.6655725492655735,-8.672504452246635,-9.824207915877745,-4.2816256896963445,-9.279618884738818,-5.376132937070646,6.508208430440109,9.76688247495524,1.7302812375885297,1.7312434522569233,1.7298991408288487,1.7320382803594359,1.7252367482970217,1.7320452028154283,1.7272704225417888,1.7159553601252076,1.7308826623394946,1.7258450247965527,1.7298625636728968,1.7309334815658521,1.731577810452777,1.7049874402772665,1.7317665272324656,1.7161911583901428,1.7064068007856814,1.6263229111499398,1.610387467049919,1.7315590383210095,1.7315465052635834,1.7314636643003873,1.729425589251017,0.9754852652549744,0.9698242545127869,0.9384378790855408,1.0006688833236694,0.6945112347602844,0.8912129998207092,0.8817323446273804,0.899755597114563,0.4597088098526001,0.9589686393737793,0.7763041257858276,0.7802885174751282,0.8058544993400574,0.6359429359436035,0.796666145324707,0.800222635269165,0.4370971620082855
RIJJcq9,0.8090566,0.3049356132649772,17,0.0856190025806427,-0.25721898674964905,2.5,-0.03241424363298777,0.07391217740642919,0.28740750047293345,-23.381731948117455,14.00627918096421,29.77818808607442,-31.879860195137258,0.6616814533905062,-25.514540749829408,37.83879459615586,-6.077487635514894,1.8855552872811425,90.69659581954075,3.7768580019450826,-16.79013563435367,101.30594777351806,10.805471538814347,9.861777347312454,3.9448266711916826,-6.088631276156978,1.2600625485742492,-20.88528713344036,6.62807731710393,2.2473674457248745,-25.37095573207202,8.695184847376938,7.583147673730761,1.1574804477776584,-1.8605997788878992,1.5801789212105373,-11.272520525599358,1.594974806348523,-6.133887510820508,-9.529765221575381,-8.760552538761685,-2.6030059210542094,0.7700223532175959,7.440248471891679,-4.008614679126066,1.4713101555326116,-29.432758203391348,-4.342160810953343,-2.253244261814109,17.54407542153269,-0.10566902033929694,-14.33345761722877,9.532175464694376,-0.7093021489984385,-12.904441317318012,-29.346881274557376,-21.970275065339916,-2.680716224997003,3.1982320303486853,53.48149204090603,2.1575383512684723,-47.49748449961275,21.867767211211184,-13.274595416584916,65.3481581409485,-36.20084779641707,5.881489749583198,-18.64415394695134,38.46647080897352,-0.7117837474636634,13.484531148307704,-30.384324063338155,-3.848672922907465,-0.10776252940803821,-8.938856894244747,-1.8571993562789997,4.2348558200105915,16.4672367775033,1.7320459071276288,1.7158506688805477,1.730890948109857,1.707666023787199,1.7270338154735816,1.7289092430331154,1.729510300917951,1.7302542692494378,1.7317572614933419,1.7313852059506283,1.7261768926526482,1.7272986951806923,1.6607705693747334,1.7056473084179034,1.7243168747376831,1.6943378373144493,1.732045071896749,1.597345279116908,1.509461636155536,1.722115953119452,1.7195854138833109,1.732029445637264,1.730955378498582,0.935205340385437,0.9479334354400635,1.0003050565719604,0.9757802486419678,0.9954797625541687,0.8322992324829102,0.8180825710296631,0.8743511438369751,0.8206605315208435,0.8762931823730469,0.949516773223877,0.8651661276817322,0.8313578963279724,0.9841013550758362,0.8696544170379639,0.9067702889442444,0.9470582604408264
Yoga-twists-the-ins-and-outs_twisted-lunge,0.8511648,0.34967108774911315,17,0.13959375023841858,-0.3315229117870331,2.5,-0.08717181920933406,0.11195768307681264,0.2016412194926931,1.296107453883118,-0.729200742243155,18.180760559569528,-60.1229827727403,-6.361166888931503,-4.416933813121378,21.19642113077812,-6.766660866367948,1.5015681848913625,16.38017017778145,-8.267759575662273,-2.7428750561605124,39.60230856509896,-5.1264712673170525,4.812754740365509,1.4451807338319542,0.2653762765684449,-6.838846725061901,4.85855207253944,1.105199288000198,-7.660724842855891,1.7256684444200432,-13.537548056205372,14.661995040925541,-1.000045287087205,-1.009939633402844,-2.6300552760418507,-13.156838675443266,11.027054276345549,10.290241963385684,-4.087697460818489,4.627318136139472,-22.87826425586045,-5.642678659083847,-3.81528634302608,-5.477944672142679,2.168373116447923,-14.957196978740164,-20.10325341253213,2.7381955539691134,13.79827685774932,3.875649014549691,-12.69611132016799,-1.0999962369920573,9.569383537286638,7.587963988752466,-17.727943471723947,-49.89311746480792,6.983516092380674,-2.165090452093757,50.36163525820907,-94.87486849184403,-77.3064074919526,118.00840163347019,-122.33906598584569,85.05821214194677,-142.8612066200216,-2.7448985886686303,-7.536936396987289,17.674204705692603,0.027627964669714126,8.504550788571551,-12.684507208224531,-8.230406813024874,-3.5483041021072426,-11.591916328603437,-4.994577333172279,6.414702724364605,11.55319085280238,1.732043254775361,1.7320112835667338,1.729141851078941,1.7254297334165096,1.7319855277852334,1.7320501345117383,1.732034219553268,1.7181839042152574,1.731969040896075,1.7261714789719464,1.7290535289395856,1.7311283487257814,1.7131462715885062,1.715214148499973,1.7311771827111235,1.7066675739645882,1.730647795324377,1.4683817120267444,1.4580348708680124,1.726435269951631,1.7260402007382445,1.7317691599762928,1.7296268085966966,0.9657540321350098,0.9816725254058838,0.9674885272979736,0.9554095268249512,0.809241771697998,0.9176900386810303,0.9504051208496094,1.0655385255813599,0.9903445839881897,0.9721336364746094,0.8681207299232483,0.7507938742637634,0.8916376829147339,0.8861732482910156,0.9616045355796814,0.9351435303688049,0.8777658343315125
aae2107274aee3b9021f125b1c717a4e,1.0,0.5034376145713572,5,0.14921028912067413,0.012489326298236847,2.5,-0.06844076071160765,0.06753813764122361,0.1123618599791331,-66.282534265553,-7.5050973201831805,5.292839680088001,9.41148772036827,-10.58376571706856,-9.77625567246519,14.052739540225671,0.8156665141317105,2.3251619461014905,83.05061046679032,5.239253151945798,-11.049265927541901,45.12699221221003,-3.810949266803695,3.9580558967426613,1.9156349402852015,0.982682324795882,-11.689818641820196,-17.73023423565771,18.204076056468928,3.3495010897900124,-6.3711659396214655,-10.754125799950906,2.2514827570460683,1.1570006801212511,2.2672258652027604,-6.459912238704714,-5.400620787339246,-3.893503184507666,2.8572959430033174,-1.6693268429419275,-0.04092394408171983,-3.7659150349154036,10.799956935187875,-19.63107331576217,-12.669891796421103,-2.7212745162046468,9.356565898656694,-21.618226136159546,-2.2186645020662707,0.746192045619828,-8.986981110346546,1.8181089366950278,-8.901613380040738,0.37601760996687067,21.165554107436794,7.423737649130043,-24.51657702982833,-11.072346225595648,-4.945946218175067,-4.232928605147309,7.921215363062898,-47.18607210225182,10.823061090527279,-16.57447894916088,23.538524319848147,-2.2499114490607353,1.323909137994369,-16.635823976106153,41.973980516785375,0.25758607159820796,2.4908708943479145,30.687746073459046,-11.071782055880677,-2.877526975817327,-8.37200098305747,-3.921366735439899,3.869650243015754,6.437860355044239,1.7266430355658706,1.7197171080104334,1.7318900675772346,1.722735222534435,1.7320494376817233,1.7320213993042015,1.7093895915096806,1.7216360753861186,1.7316548439100363,1.7305450197179209,1.7320499137787586,1.6935690537222305,1.7238385041283124,1.7319473363148519,1.7251510849111318,1.7315840076487181,1.7306269829970085,1.5896483510954842,1.6867183596518462,1.7207729839709192,1.7315974774204388,1.7319261845833425,1.7310379216440894,0.93658447265625,0.9680635929107666,0.9761145114898682,0.9382002353668213,1.017112135887146,0.666265070438385,0.2644088864326477,0.6670531630516052,0.18063996732234955,0.5254042148590088,0.2702111601829529,0.5234794020652771,0.5010704398155212,0.13922306895256042,0.15672194957733154,0.3152036964893341,0.1337452083826065
ac3c9f33f42f34e8da5bd45a8df6a7d6,0.84117657,0.2759554904370592,16,0.05695069953799248,-0.06538540124893188,2.5,-0.12602353181849058,0.12371630825823726,0.17869174242311353,0.8201846062041068,-1.5098366514991488,12.663738872555507,-38.8591414117721,-3.833994838262894,-18.209195535329794,21.782705732136176,2.1574921416366064,2.861598503681309,22.511322297543572,-4.309963867846019,0.5965685881532626,95.65049383413798,-6.876215674297504,3.6447928771610956,2.764681956005085,4.22387107239909,4.302211891927052,-11.862195843123335,8.960553751478693,-0.06877831773907292,-6.004106485845956,2.5547593205359624,-0.6696714870837948,-3.838893664929073,2.734483559714214,1.460998105194967,-0.8974066272646819,-0.8589479382444172,1.9066109066559433,-10.721938808061884,-8.845958902998936,6.304285098565214,-12.220020591668112,-3.5971215598620447,-11.315608278075553,3.9800186849814354,-17.042140149693022,-21.49586094312127,7.577387626416091,21.81715845982229,25.004467228019276,-1.6817201419453949,-3.2184290049599316,-4.710633123836557,16.05664072563386,-12.473321562705351,-65.75905044701491,3.523395023312471,23.85129379958973,39.99844539290605,12.516367927056619,-20.42075789114319,2.2061641736251416,-11.192856435379024,10.497361966849924,-7.733846682700821,1.506128658796075,-2.758227358580296,14.422731543173471,3.196624473861912,2.95406287470962,-13.457315304200526,-10.378990633609572,-4.801196689873632,-8.689872116048045,-7.220616492532151,7.0884223201364875,10.238282674683212,1.7319040391089733,1.7258354995025151,1.7312259464626183,1.7308143159538567,1.7304256037939254,1.730338384999762,1.7253092646562667,1.7314520719184734,1.731443632207497,1.7319807901262885,1.7236275659163995,1.7319509261089543,1.706315977297739,1.6876628421198854,1.7312242635321458,1.6988670041412932,1.696590843341803,1.6999295000335923,1.7200877673103003,1.7315881855596524,1.7316544736331925,1.7312040835186495,1.7292686100522503,0.9537030458450317,0.9653425812721252,0.9715250134468079,0.8425521850585938,0.9505998492240906,0.8864849805831909,0.7996995449066162,0.8800161480903625,0.8404303193092346,0.9145620465278625,0.9041702151298523,0.8102253675460815,0.7883648872375488,0.804242730140686,0.698834240436554,0.8329194784164429,0.8585010766983032
b028054e3a4d09dcb5f4bd42bfa233e1,1.0,0.5277565419611742,1,0.07643451541662216,-0.19442477822303772,2.5,-0.15650837570396225,0.10992493556426942,0.15194417425336262,-46.59564910059886,11.35354525164009,10.00739620411613,-58.27537578822644,-1.4516265109216557,-5.592086228785081,48.70170855223124,-2.616638173936443,3.7428274911856736,38.13226544498544,6.978651606102024,-8.689525843175144,53.69035805155019,-3.3162725787408385,5.0410354438076865,-7.789755173191446,-10.807352511525604,-4.44092286427407,-1.9221033051188148,11.84360667217307,-2.174545782629889,-10.172946730038577,-8.01775852604975,11.391285053254935,0.7781716882424473,0.9361267359356066,5.8462220149870525,-2.7764391584169394,3.903452323185593,1.1877319868564873,0.6617512236665442,2.3511620038317385,-21.090790439462435,32.14145996116088,-31.63193126341715,-26.028190054163606,-25.295485260437292,-45.45388330445151,33.8537630425887,-21.7279609715863,44.9736069666453,-32.25423461861136,-34.234033884226896,-5.643145830799757,26.58496716418409,18.844406383663472,0.3378699840363674,-39.089741923202645,-24.236611235637323,10.639495519560311,2.194471856128638,128.4450237330698,-68.02069761348108,-88.23351331851832,-64.91643776329559,56.98959827776197,-57.87957043419592,-13.801614168219396,-19.651736698230973,113.69610121912729,-10.95256623963894,11.61285159192587,-46.08121438927873,-14.668175289358965,-3.6047509834399003,-10.709990271563813,-8.967269386284872,6.2982348710801626,8.705759906318026,1.732037250614422,1.7306508455369216,1.7319468733534755,1.732049806393576,1.731662177235031,1.7232158725392073,1.7197271941346688,1.7237401319624412,1.7319611508896113,1.7307554091933117,1.7317148567249256,1.6124365161799437,1.549921163283528,1.5598930666039958,1.7013882825416804,1.7205431557273885,1.7253226547387686,1.5539254193331282,1.444268084443897,1.7298546424447159,1.7102500932915332,1.7320043903596882,1.7300353722190396,0.4126836061477661,0.5664286017417908,0.6266224980354309,0.4282102584838867,0.8694404363632202,0.5770788788795471,0.5587519407272339,0.4472540318965912,0.5635600090026855,0.38542482256889343,0.7422449588775635,0.3063317835330963,0.49004876613616943,0.6367877721786499,0.6127544641494751,0.3541179299354553,0.25647854804992676
b03f7fc6fbf7f6e828d24070bf6518dc,1.0,0.34716813403772423,14,-0.05989251658320427,-0.09112107753753662,2.5,-0.054608724267765155,0.00624942761716155,0.15116700611926828,3.7888366470044628,-0.888379914056996,-3.4161218912206595,-71.2500151952617,-27.700910478736375,-19.230026226138197,19.261285347362545,1.2494994083900592,5.417368906999498,33.75582154747044,-3.384273572716709,-0.2720574174711269,124.74525074404941,-1.0604762712613238,1.7300012887471952,7.082289311421602,1.5040195845529887,11.55055845439914,-7.262761119465528,3.669219691500154,12.162825255369738,-7.181324372297651,0.8426083411670664,-6.687173990239957,4.739828935429149,2.4225250164378913,3.3235196742692836,-4.290873328085116,1.5538272135734057,-2.754338010460103,-12.477923320196929,-3.3506623314431034,-2.083781895388529,20.317127144895363,-10.63708937981078,5.252896127639166,-3.785534399129079,1.1495561002626797,17.547362161000258,0.10074194964372456,10.31091219214905,-0.10537158872792672,-23.76277673996719,-13.966404928704948,15.104270176813937,-21.152837261731808,7.676672692774778,-6.631564199563925,-18.493295021776927,8.680777037011312,36.71264026077567,-16.688214697195452,-5.061305403065898,6.105045266944587,-17.519002449266157,58.24324889384903,-36.067289167398265,-4.25243143125641,-14.88189344039582,-18.097891523840257,-2.812759191286089,10.694237589885779,-43.58164000988058,-9.43461651945274,-1.300899761343356,-9.066691321396966,-3.1288494251365804,0.35806582683585564,8.661231452262362,1.7319423260235784,1.7236098086811469,1.7312808836708036,1.7312787255770552,1.7316901814333003,1.7313228995036922,1.7316884234652543,1.7318075526786763,1.7314168444569387,1.7317805379730844,1.7313532095581925,1.726336611843834,1.732050598986838,1.722778051474248,1.702560435740863,1.724134590475745,1.730432333766931,1.7282578719195818,1.5187783937707449,1.7179680530459733,1.7238749596992353,1.7320471150870174,1.7320489851712617,0.9820839166641235,0.9758040904998779,0.9318056106567383,0.967958390712738,0.545978307723999,0.8951240181922913,0.8717045187950134,0.9265379309654236,0.9672685861587524,0.9421254992485046,0.9400409460067749,0.8867688179016113,0.8454102873802185,0.8891941905021667,0.9186914563179016,0.611436665058136,0.5952798128128052
b53b6a6b1c4d2fa1e27a4deb876c19ad,0.67776006,0.21508466138859944,14,0.009437326341867447,0.04469524323940277,2.5,-0.03135515289257771,0.14609739107959227,0.35483012329374647,-44.52467262477292,5.17404864088177,19.859428480735925,-53.90224333682534,-10.321359895753782,-14.47586216559735,37.381607357696176,2.710226498968931,0.6121386950693957,78.55167390247836,11.720089197344704,-3.12673559194066,88.55457416003674,-12.900675511565701,5.317432782739351,14.646424732484228,-3.310045609927273,2.855146587105461,5.145022520812443,5.086253584749447,-2.859436985538899,2.3980148145000566,-2.2695062989528054,-1.2538141671732,-7.331864042969504,3.5634205030199295,3.749885328449544,-23.98146397923233,19.75429219306415,3.567342919669843,-12.81613146891278,-4.032403110513044,-10.242129604246179,11.058490962028067,0.9878565976082985,6.668131402179206,2.5654322107220704,-37.37673691803599,-13.869630190433526,7.311687724150801,41.01629575368473,14.223369391575282,-7.508885815469366,-1.8832374348523002,22.2927811109577,25.88658404103918,-39.594649828525654,-52.08324286594939,25.518330741218822,24.45201324641151,55.70099377954339,-151.6858500953071,-64.34328792920746,175.1917804600306,174.31975430523454,72.04470666570381,154.43499234978984,-28.066646930316615,-7.785354907894592,20.870429176803604,-16.221220691393647,8.077397545342304,-10.448803064418072,-0.8910896060233017,-5.312641551399531,-18.31915397431558,-1.7965179267321179,8.37076390673288,20.330268508838312,1.7229069156982535,1.7291750819650633,1.7314900571835727,1.732000306650687,1.7298622677729674,1.731512067790526,1.730027015028944,1.7315787313546092,1.7312349003410732,1.7087871977227407,1.7318243332560967,1.7316097072328325,1.6249948107878611,1.6004444020564061,1.7302157424526563,1.5857109585454192,1.6368282057121826,1.519943674949081,1.4818909583046507,1.709381974780605,1.7223200651925734,1.7300617812646086,1.7274942892766056,0.9731970429420471,0.9740276336669922,0.9820424914360046,0.9661139845848083,0.9191983342170715,0.820773720741272,0.8635673522949219,0.904120683670044,0.9397250413894653,0.897026777267456,0.8721141219139099,0.7850490212440491,0.8565825819969177,0.8024611473083496,0.7114067673683167,0.2715226709842682,0.1165812686085701
b694b73c5a48a23ba74b9d53563e3250,1.0,0.40748804538809463,13,0.08012886345386505,-0.10156987607479095,2.5,-0.10679334258467374,0.07650931563428043,0.24683239019326933,-21.03052593708683,10.259873729421885,16.827581207400822,11.697145764803702,-6.268325808221981,-17.99289134237951,2.3070177392315476,7.704656088330179,2.26235178561045,21.83401244172379,3.0038159033013088,-3.874882132782434,30.17428975842947,5.235015185049756,3.4424487480112975,-2.668410127096761,0.6219973380724442,-1.1952581618541747,0.5134923666034664,7.3026601327050615,-3.6456558689719465,-2.22605071554453,-6.787863739179561,14.176649172940103,0.9772745129286406,5.271481940920468,-1.1996781496838955,-7.309163005156549,0.48312278667904396,2.2056523905524332,1.2795262403469876,-3.2829789389081303,-7.264700981220412,4.665921503672288,-9.285118041815428,-11.300488424561866,-2.6688498915857606,8.49020113871978,-1.7693364150641686,-3.859015760425098,13.605104525660709,-1.3016028316001513,-9.285187332710619,-6.811097232979056,-1.8318721302441878,23.356653036809735,25.172969401492992,-48.497722480872376,-36.05078441196042,36.26153611859715,-16.344679232119205,149.26099984791415,-75.58818279376491,-111.93020772714178,-154.73366564381323,45.898622434862176,-179.71425507660956,-0.8556707727525849,-28.068688888459395,57.70432249931818,-6.030817833187298,26.324834826448733,-50.36286261952282,-8.499741419302744,-8.784718831061344,-16.8283663230994,-6.1188078101965315,4.383660879278554,14.142454205200663,1.7311698632893915,1.7242394988823895,1.7267477137013143,1.7318922142815778,1.728623407342366,1.732011354116342,1.7274413312912276,1.7276056216923776,1.7296336660976686,1.7320476303349615,1.731024705442353,1.7233261111896938,1.725643399865825,1.7158752627467677,1.7284373646084514,1.7316307981335302,1.6155529362714198,1.543924484943856,1.6048382664586138,1.711814050092349,1.693748543073774,1.7290572555729042,1.7313958038486037,0.9646258354187012,0.9729486703872681,0.9860332608222961,0.926016092300415,0.8990553617477417,0.8662069439888,0.8256034255027771,0.10305806249380112,0.5651478171348572,0.24243375658988953,0.6454287767410278,0.8446588516235352,0.916466236114502,0.9316626191139221,0.9208819270133972,0.9353458881378174,0.8832343220710754
b80e5ab19b9afd4b4036c2de49922714,0.601938,0.22724467012679803,12,0.14490573108196259,0.04424881190061569,2.5,-0.10729961444664779,0.1050470007281114,0.20334994001648304,-57.21930618292699,-2.3482598557501166,11.062181122369154,-67.47769003602397,-9.680292397699386,-14.196776864432568,52.37326062647129,-2.4068954503329545,1.3281405581909762,61.84105881167518,6.08334389921702,-12.417481192676984,77.14641053547385,-11.440927093203271,1.5664997740034152,1.1111936883704854,-2.7873433693824445,0.13526382035219475,-0.6481774409479724,12.324929486366303,-6.178109889200039,-3.683691158021708,-11.734513833370432,14.782464295963699,-1.8345253492476385,1.0127610589894578,1.4547718638313913,-11.82241025939071,15.143185596798274,22.01595806000276,-14.49609880288298,2.188201762607942,-34.52982585951952,34.52209969892857,-2.067568139428041,-14.541858526628664,-4.610041663929417,-24.275441644370677,-12.085239587117531,-4.878188985436624,26.124215018526755,9.199366250516386,3.8459632803237036,-3.1432151548884906,6.885774082854371,-4.920801260304862,-25.40758179235809,-15.267213842409612,-6.591150847864645,29.787267758679317,16.925699140692842,-3.49633740295988,-31.218654875983695,15.354883601804367,-49.08114926775805,47.990756019441264,-47.96328521302991,-2.1529090874527546,-7.6495837847610675,7.539059335950947,0.9277297249028389,1.186739545523335,-0.8705117272468523,-3.239373124609636,-3.335102643201308,-9.202520530529421,-6.1478150511738745,6.018749792228469,11.65109332718293,1.7223465558127071,1.7242593623669267,1.7320351304391426,1.7263232098401966,1.731963186147351,1.7313702640250106,1.7188517617134158,1.7189493222056715,1.7319683724471855,1.724622259425025,1.723455874372954,1.7235820054114834,1.6889738795053235,1.6804857733451442,1.7314327301894676,1.6876180297717467,1.67557116269516,1.6537082269578,1.487627785136116,1.7266410613082828,1.731929715978952,1.7313777180037637,1.7301802633964798,0.8161617517471313,0.7801294922828674,0.6792794466018677,0.7778248190879822,0.8870048522949219,0.6867581605911255,0.7958659529685974,0.9133889079093933,0.9491944909095764,0.9283934831619263,0.9093754291534424,0.47939056158065796,0.2659611701965332,0.8898791074752808,0.8818353414535522,0.37401360273361206,0.9171562194824219
best-fitting-suit-for-business-men_large,0.57671547,0.23082128439669014,17,-0.030241023749113083,-0.3344069719314575,2.5,-0.11254625296441026,0.11951918890526611,0.21862476056535418,-1.3790302025259862,2.306519269418822,1.8965288085189898,10.664825591146524,0.54197642462326,-0.7627188484750486,8.081013810893367,0.7173467892211672,-1.2535313228602498,7.660144332998682,1.4817903480396382,-0.9878266309184047,2.6428334670945075,0.37128917581956544,-1.6238067182562685,3.885083550008411,-2.6386827757160174,-1.3405078866120936,-1.0028112791713297,1.854115770238078,-0.3782871745242178,-2.5011177672622495,-5.078659743064861,1.6167844720126898,-0.5733186039771625,-1.3041666585996357,-1.072688918975265,-1.127900029368227,3.4816546334039806,0.18926419622291646,1.1485119864582096,2.35478217930889,-3.425895161109498,-0.7393030421538863,-19.947290909428283,-3.545284450617394,4.385677116476504,-2.0128966529037613,-22.289235843688346,2.158191023669523,6.303340914560903,18.983993440908822,3.8184404370474203,-17.38567239529303,-1.7704302622359112,7.92073809450788,-6.858185986823145,-56.81683809346721,10.055135579784997,9.30243972145491,61.028413451547934,5.212232208452795,-21.285601638161403,5.099834671070418,-8.149528757922447,39.921531900015474,-12.25304326673573,4.478088508999593,-7.18341279303256,16.13399132316394,0.5326006029509425,4.809968020740828,-13.003866156322562,-12.454052027968466,-4.208070197450059,-11.105211826289981,-6.448425294872438,6.847945095098562,12.526276077452948,1.7316018164114817,1.7320379995554627,1.7320257184986072,1.7318936858095486,1.7320431977421766,1.7313993291365835,1.7317467989133521,1.7297297134105607,1.7319035656232644,1.7309882054408912,1.7315928038018895,1.698417117106824,1.730961927147905,1.728161869606937,1.7058626528753318,1.722665694322989,1.7167332396085844,1.695903079705245,1.6051065453880358,1.729272908002881,1.7302202185913444,1.731812042606856,1.7296426625994854,0.9601033329963684,0.9797819256782532,0.9635097980499268,0.9750463962554932,0.9638610482215881,0.9169520139694214,0.9366104602813721,0.9243483543395996,0.933959424495697,0.941382884979248,0.9343805909156799,0.8563500046730042,0.8555483818054199,0.8973456025123596,0.8879011869430542,0.912899911403656,0.9126302003860474
c7406de312d0ef6932e4b79647504f02,0.70441616,0.27384117267287844,17,0.06455863267183304,-0.3420651853084564,2.5,-0.11167861497743822,0.045960570955201396,0.29599687640575384,-6.522919707826386,9.277968338732252,5.836633275415003,-26.167157690992774,-4.647830867660293,1.2308378088669534,23.570013478851706,-2.4218899276011756,1.9518227305197093,27.43838955125444,5.74940454702182,-6.126477513617796,71.2079466065461,-17.009387100376355,1.702300347782402,1.1382220345500815,-2.891447762260417,-5.677875237241761,0.45138183402923066,14.045240212073548,-1.2975905715319036,-0.7136743883984995,-6.666694750948028,5.206013949715528,0.3579317881524237,0.9294419156307351,-0.5278491335343073,-5.788486610105694,6.2210300164309045,5.21810698569467,-3.0116645135904534,-8.854988309098662,-6.83621542349198,12.50929123979023,-9.929847365369678,0.8776051480577124,2.764932636602849,-22.614807869038245,-13.523277631970767,-14.557457680270787,21.798173673152338,-19.482293305739546,-17.729003080970674,13.968380836239824,7.278917842650925,7.4401208217744506,-5.489875923990493,-51.70840097880582,-32.254863820701225,29.334755737753284,-8.14400964149683,18.941875495222742,-45.292817816863945,10.838389562711498,-104.43839802073313,63.72716596111774,-120.75893861072207,2.4706578139868367,-11.029320226813848,15.249502230147595,8.711864175589772,13.314499595556095,-1.6970554629073036,-14.771183910077918,-4.545709666500714,-11.953326294820933,-6.398713300073713,2.6333467397445944,16.95937176710515,1.7257338264067525,1.730099904159246,1.7318687256156595,1.731607271720393,1.7307909108596984,1.731265056361776,1.7149994239589559,1.7281122312012054,1.731974981315069,1.7292653105829856,1.7258546196316198,1.724172306633555,1.6887843979891688,1.6796881982707617,1.7216546681082239,1.724606701421289,1.6625467346527252,1.6251049893996383,1.4505439435966678,1.7233818196993858,1.7176284901988756,1.7319098823110808,1.7320149452842242,0.9921470284461975,0.9981997013092041,0.9510493278503418,0.975309431552887,0.9886189699172974,0.9356092810630798,0.9227167367935181,0.950108528137207,0.9731050133705139,0.9428826570510864,0.9550324082374573,0.8567149043083191,0.8522214293479919,0.9770042300224304,0.9496469497680664,0.887309193611145,0.9216600656509399
c8640bec672b60b0cf5581ab47ff54b3--male-photoshoot-male-poses,0.8716854,0.26731487075312954,12,0.056597545742988586,-0.09975793957710266,2.5,-0.11611941446474787,0.10892225567142577,0.12302902286520265,-57.3789824638409,14.443272455968419,10.768459985635955,-57.65099984060626,-9.39997263713271,-6.004854552360849,44.78885017937102,1.32410343956913,2.59556155222575,26.47022918314557,9.217258443692035,-4.845060884432809,45.089792299219695,-11.075745984033777,3.2819174817757193,-4.847583562101735,-4.379490541598227,-3.4171254990344866,12.202129232304452,4.551552250053545,-1.7491520328479866,0.9059143690440336,-6.984822821311385,13.03624826062706,-0.8538643313606802,4.983039112704163,4.383424280693686,-18.525474972754182,13.812519906804173,-4.371786129103758,-6.748851015814833,-5.550132843053064,-27.109521648521557,0.9522922264589895,-10.381623997738172,-9.482308141826113,-10.985224530388045,-42.79402841435043,12.869413595773633,-9.329173474984682,41.970578637556564,-18.81809043463857,-26.202026451051733,-2.4179890537660134,20.748650942025936,10.22800874696889,-40.47496765288227,-47.40162784673051,-3.005873715306089,39.460250152323276,40.53148137770683,31.354967083235167,-27.531794210421687,5.247302137569716,31.672165112634566,44.836915124707204,-5.945955934514716,4.134856424947739,1.0932347791069543,14.210835142695899,5.477422830680354,10.685109228264682,-23.7059279893521,-5.924755932233138,-0.46573390168695966,-0.7726304847370937,-6.653152368360416,6.240785545017592,7.049043767794615,1.7318665832741413,1.7320508320044725,1.7313777302236797,1.728851605199567,1.7294512622418707,1.7305985133516844,1.730591910084134,1.7282358951853276,1.729942023591763,1.713923358868342,1.7317566296755582,1.7226252847262997,1.5875436702918395,1.5942958876552331,1.7213967461272124,1.6379670117632013,1.673028510414855,1.697243707142315,1.6449127997687245,1.7316736309040335,1.7271186383703223,1.732037902676409,1.7295559707705872,0.9369207620620728,0.9495595693588257,0.9567067623138428,0.9445807337760925,0.9106734991073608,0.7212880849838257,0.8119831681251526,0.8823521137237549,0.9283835291862488,0.6550518870353699,0.9274536967277527,0.836842954158783,0.8343283534049988,0.7630519866943359,0.6924906373023987,0.5182520151138306,0.13723985850811005
custom_resized_539fa07b-7db6-4cb5-bb35-df8840a2597e,0.8970826,0.26685848527240563,14,0.026292946189641953,-0.046997811645269394,2.5,-0.1143387140862196,0.11210143681976321,0.19360463830013755,2.581478748865534,-0.9346529101725564,2.3519122019335907,-9.448512638412863,2.866319849305527,1.9480519411698227,3.665344407892203,-0.3319745579793762,-2.324139998995274,4.448767848829146,-4.688273637101241,-1.6400874709524542,6.116279890926532,1.2119117594748303,-1.5820172327759454,-1.1316112206436058,-0.7845067234647365,-2.5569650326394053,-0.18610444306534632,0.6763003676619999,0.6792802141946128,0.7951210882310283,-3.126746534502462,1.8924685146297822,0.0353711146916207,-0.4235013368652177,-0.9630414055728328,-2.018625102998126,1.8058212098859805,0.3562011363178671,-1.128040894280476,2.4111684336706167,-7.247060064455747,-12.069950185793836,-17.92839181336177,2.575154585858677,5.558684668968605,-4.159427793337349,-13.008667773829888,6.237655528392261,5.248350119650367,8.688862529146993,-8.884958467671066,-12.658729371316433,8.318824340038988,16.675661451851017,-6.7183104118690515,-64.74841326700427,11.902309061670069,2.747873678059578,65.7919876078956,30.974097968836134,-54.2244514305913,-8.544380886829416,46.1055193451586,37.516224130110864,13.768288023431786,6.579058574275596,-10.02585986401483,17.541523365527514,-0.20372334236345846,9.158073939159477,-17.447044635624113,-11.439700754658979,-3.444834928120007,-10.604974454097627,-6.551125752093398,6.422939207124881,11.092728668754734,1.7319904588526003,1.731498643842889,1.7320309790161346,1.7300288493146005,1.7319563402818992,1.7320034790435728,1.7320104150616589,1.731207601142447,1.7320345958247223,1.7317685189594862,1.7314862057610554,1.7040627889422737,1.729597382632072,1.7287852524522882,1.7158172666549225,1.7045647197155611,1.7195954405286147,1.5542674643571863,1.6314836711656513,1.7271369740996543,1.7252882587549123,1.7319183953461443,1.729859087536334,0.9661173224449158,0.9912179708480835,0.9632244110107422,0.9377356171607971,0.9322037100791931,0.9335719347000122,0.8753637075424194,0.9340941309928894,0.9548853635787964,0.9187238812446594,0.9556229114532471,0.8330548405647278,0.7813203930854797,0.7962859869003296,0.6974852681159973,0.09152595698833466,0.13131560385227203
d302a8ef244108695e02a77e28861908,0.79952294,0.25017777674869296,14,0.06922180950641632,-0.034521330147981644,2.5,-0.10675614722708474,0.14335824295760435,0.18870538491864342,-71.80297335138029,2.4037946733839646,9.974705049595325,-66.73211036814517,4.357361939117996,-5.009726634900765,41.31264082037841,2.799836340795126,2.104932592799095,80.22068880526611,7.02644093229029,-7.096762048411173,59.44875040828691,-9.954128944671,1.5130379233817102,-11.470559402033842,0.7675906305260095,2.6714828024977737,-7.770413521127687,3.7917917578269185,5.161757827771958,-12.308037392859571,-1.6412109592170778,6.741659359484077,-3.9553779423454176,4.005366081587284,3.9553767069908523,-12.367198423242364,6.9996971397626435,0.5314039303359303,-8.255979302648864,0.5893198422947635,-21.891130824507968,-10.495043621005937,-3.9256861714027145,-6.057816727292934,-1.8158587637957906,-30.379816867752602,-11.38375297607228,3.883180209419401,34.21200012225275,13.529949447303068,-4.938556126948241,-3.098757464809345,7.865775162326631,18.792027205105047,-29.893564781729623,-64.24898509327197,14.453650472044991,30.312231076437172,58.05808016899305,11.964167279526341,-37.88833171578389,10.598551296662112,3.711041529198241,45.94539704734008,-16.69338039542221,7.352975097793589,0.24854795742971636,26.195233323048168,-2.6388821621321163,6.089985941973169,-24.193646265765558,-6.6081894257788445,-2.129477020218904,-7.434379167732038,-6.116676673189202,8.213822279881786,10.812022127229923,1.7253991782210287,1.728545839918802,1.730979500338526,1.7290964245592195,1.730826576850817,1.7320463619951916,1.731236357033883,1.7312451718109485,1.7308392050757944,1.7280914962033402,1.7309056816551753,1.7313925220376287,1.6615078027284567,1.6385992894114403,1.7308257209528084,1.659772361756601,1.6669571682465245,1.64159896493763,1.5979060175739586,1.7309984641365321,1.7281927074275263,1.7319145150316653,1.7279207325728236,0.9336614608764648,0.9655503630638123,0.9573364853858948,0.9150403141975403,0.8555054664611816,0.8098294734954834,0.817003071308136,0.9317587018013,0.968796968460083,0.9105507135391235,0.903671383857727,0.8461161851882935,0.7853572368621826,0.8204997777938843,0.6263636946678162,0.7288137674331665,0.6896550059318542
depositphotos_315465728-stock-photo-full-length-portrait-girl-wearing,0.62666947,0.24393736187507856,16,-0.01943032816052437,-0.2971881031990051,2.5,-0.08235369760840275,0.12156507072375224,0.28183980646149787,-8.915521547999608,-0.44860949126003163,2.463817963557996,1.0204794180639438,0.9427282501013794,5.1831144152169495,3.304758309915942,0.040583701534932945,3.0567120671328643,37.04191024908596,-0.2918928028043265,-1.8741605754935817,1.1004343412295636,3.940093270216762,3.2331628858582144,1.2168807439116738,-3.405175445108196,4.9886268642404,0.919310516061235,12.585495326203716,-2.566139578218985,-7.122812222032967,-10.518520833921666,1.0216553504617647,1.1465826322839463,-1.944186723032578,2.6320975941330618,-16.24711779220952,3.2066581477328464,3.877710000915006,4.995500271890382,-0.3613244829695289,-7.589245718380736,-7.775234511907054,9.958932495101696,-4.944185057476616,4.883565612612016,5.743021414870532,-25.69414924594234,2.5225914204371933,-3.9477762022697624,25.310910488923792,-5.9444761778368065,6.252802144445788,-1.6977779501298347,14.811771164078184,2.734749037239074,-63.16452877967525,7.409317140773238,-4.154374624500033,54.06011807002699,13.271112497591835,-17.420536081816905,-0.10912040703006766,-5.180420216980804,11.614759628196833,-12.665079521578532,1.9471961511746463,-5.792730292356576,-2.748850093651049,-2.236884067646822,1.4993159713343265,-1.8415412473929575,-8.817270268360149,-6.91988930859664,-13.684778108432242,-4.718519300258099,6.965165488680367,16.148231409027776,1.7319918874066644,1.7319573312653598,1.7320468841190035,1.7318877815126301,1.7306492495473096,1.7311020131484134,1.7184124875775475,1.7223209901199774,1.7317372051700006,1.7317037783418925,1.7319603179491283,1.722422378559068,1.7312417253280148,1.7315087687209003,1.728467917369168,1.719602283635685,1.7309326169614143,1.7072903869644602,1.7186021819175006,1.7290213012961932,1.7318342161517604,1.7302299745637173,1.7295408988215435,0.9019131660461426,0.9173030853271484,0.662419319152832,0.9030399918556213,0.8770618438720703,0.9535929560661316,0.9495190978050232,0.9280654788017273,0.9057603478431702,0.9374240636825562,0.9394630789756775,0.8158140778541565,0.8772812485694885,0.9153682589530945,0.9072934985160828,0.8317970037460327,0.8699200749397278
depositphotos_315497676-stock-photo-full-length-portrait-brunette-girl,0.7769818,0.29462398961943365,12,0.09164738655090332,-0.2334129363298416,2.5,0.032103766376449946,0.016056557455260728,0.29650313049811894,-8.412280920582516,-6.724889967270339,7.500889553333575,-85.84906626977263,8.59256608573842,-12.518099648491397,43.878626981781714,-12.314972048431544,1.7281577416421747,127.17740072504067,11.25186276392711,-16.099660274504913,126.93357349704063,-6.985687930288251,6.196523457904753,1.2067622400261029,-1.232856338821982,6.414992684685332,-34.250704399102915,12.857978466363134,7.165543825772693,-20.307777639594487,-4.637789585762846,9.588553342882204,-2.040006000026199,-5.274514652958913,3.042719389429222,-26.093791564630987,14.028349382637991,-0.008992037745659789,-12.415747481235636,-0.7915598808961939,-24.690426442351008,-8.977525526124145,17.643319753283826,-11.97153213867727,4.3726850253212834,-22.89403617958134,-17.040643980046877,1.3649570253113394,9.13936437784407,12.371689189339653,-11.457796888735711,11.270564656333352,-2.853953049866399,4.253150930519662,-25.639100307894946,-52.94479837102019,0.0748793007664048,0.3827457004163186,51.68997241008824,-3.5240914184118806,-19.33307664776113,16.880052998678966,-102.19575824173914,59.23097259262808,-133.2756270911996,4.296075717095025,-5.215536261054639,34.57869508391152,-2.39642721839098,10.711629098249487,-33.39962577318628,-4.7749091790647125,-2.84780856804719,-10.579733320710433,1.839410319844582,0.9199729756957569,16.9883779899589,1.7268632220373248,1.7171462194769886,1.7269549624343348,1.6994959319957699,1.724743950061378,1.7319461687399995,1.7284066130812916,1.726969313190288,1.7295183841987392,1.7183068010708138,1.7303141790313952,1.7012415553617588,1.6868270169434652,1.7246258088934696,1.7203251489672373,1.7023827594989782,1.7320438120211092,1.6995333436749538,1.5169035745409079,1.73175376512139,1.7228750668668706,1.7317288782273803,1.7318744649036173,0.9684934020042419,0.9634361863136292,0.9958670735359192,0.9433987736701965,0.8189680576324463,0.9033932089805603,0.7228349447250366,0.8393818736076355,0.6321910619735718,0.9409253001213074,0.9137548208236694,0.7102975845336914,0.44246673583984375,0.8996197581291199,0.688365638256073,0.8240695595741272,0.8758137226104736
depositphotos_315541472-stock-photo-full-length-portrait-brunette-girl,0.73370254,0.2657246511119333,17,-0.07911702990531921,-0.323700487613678,2.5,-0.0877798311531908,0.1474283374502664,0.2476280343996132,-36.01016899962995,6.9036083025983785,18.321534939609776,18.45993511173658,-5.250059105599318,-4.974003536977446,20.421471424758185,6.136344668235407,-0.23606758871156105,65.07262769128586,4.029260950696575,-1.7523677026066427,0.9099166213083719,2.0781607804086626,-1.2212635441773145,-0.33679749660567987,-7.830007216296263,0.1291955267749811,0.849999931898298,6.3806943499627735,-6.407844899860555,-10.64437422947325,-5.57066208632318,-4.530188551298412,-4.694544762321006,-0.9008366592980421,1.0257704603495088,-9.965127637408086,4.660939189972135,2.9435774904413337,4.24248198499602,-7.583670950911788,5.149233461602529,1.014499392256776,-25.827726924163116,-7.751367967469645,5.082365731592703,-7.522095014063058,-21.121124109596455,4.191344433599064,7.939115578856358,19.943903612522483,-12.417802229481408,-23.393174025158167,10.430937002327031,6.021211234560529,-8.881380285945932,-53.539278998914234,0.24039232952781325,4.824728727692404,56.38781062704051,7.153721252724634,-27.06086501113764,10.110442486896842,-12.777240483364691,17.793247199749267,-11.851198404857977,-3.575666296174254,-4.1218784104878,15.375292111749228,0.5265857905918654,3.2084771376188517,-19.888322774460004,-6.774509009604361,-5.305852894431839,-13.222257729231503,-5.0294138514488145,8.44702151653076,14.188041260218203,1.7295788724689056,1.728299763940189,1.729233971553131,1.73204975684892,1.731678481655781,1.726684321472614,1.7286319873673026,1.7301784164220668,1.7319659763920738,1.7305930583381317,1.727574386450844,1.676794033928308,1.7252311804515659,1.7251536855153462,1.6802882048649874,1.7231258970980001,1.731328154191276,1.679724410498767,1.6989337609163935,1.729929160160783,1.7313430702270807,1.7309257619674447,1.7278630518962683,1.0129228830337524,0.977746844291687,0.9598932266235352,0.9111865162849426,0.9397487044334412,0.8025662899017334,0.9155393838882446,0.9084136486053467,0.9084176421165466,0.9287382364273071,0.9713795185089111,0.8465257287025452,0.7857496738433838,0.976363480091095,0.9029970765113831,0.9247289896011353,0.9370763301849365
depositphotos_470210122-stock-photo-sexy-biker-poses-photo,1.0,0.3049407992899926,10,-0.13663215935230255,-0.04382577911019325,2.5,0.0117297411690615,0.09970713849483408,0.22402667228423828,-2.0746364439314684,-1.3606857705357194,4.785523553180031,-0.22408351809551577,-7.560564141972933,-1.6580051146755117,24.280923527442017,0.9983742136217107,3.5843413883975175,42.00085446246442,-6.66308900629515,-6.523354402228013,26.96590439004446,-0.6842889228773885,2.519414577808019,1.9004551067302857,-0.6615232978766388,5.758991917080803,-10.295612072740647,12.372254375370103,0.04483655471471001,-3.458418711581831,-4.032339862203628,2.703503586929377,1.5704716403001866,0.30305182757010457,2.8011901541556004,-8.454763419174888,6.166363180887451,0.7631026035921652,-1.4936348697502013,-1.0265826902809432,0.07467452070885108,14.485753431401937,-10.900567706635007,-5.132675380830424,-5.358208448093333,7.34059252171498,4.875349951724608,-3.6212521634907326,2.0741428332801073,10.882611600646815,1.6184175056331165,-15.884526391475182,2.032409378603331,-20.347459740692596,-8.581624776796813,-14.036278649652978,-0.5536234061359809,2.1920495552700654,40.29227384516686,-83.5709154870446,-51.77374315601417,104.2966859723091,-62.37557277386223,52.83282791533487,-79.89296359154389,-9.410319339675837,-9.035651520074955,-2.428375488449694,-27.846868376633907,-7.438107144830101,-45.56737037644503,-0.661234411288864,2.0072116376852978,-4.935116117329635,0.6720646637680722,5.712798223080376,12.835782820247267,1.7318451709989162,1.7270587564504896,1.7315515624007678,1.7244881641348968,1.7320263968567078,1.7320315231680372,1.719191482190816,1.7305135935805585,1.7320378476024956,1.7289087506357885,1.7319578197241114,1.7199077893438568,1.727971452152142,1.7318907657222515,1.7104933152873427,1.7312883635767065,1.7318985711056423,1.454000029181434,1.456656484619865,1.7257273966388813,1.713411363093923,1.7316789576351992,1.729181441052918,0.9555219411849976,0.9567451477050781,0.9367891550064087,0.53813636302948,0.9318931102752686,0.8221206068992615,0.8601999282836914,0.941840648651123,0.9260549545288086,0.893784761428833,0.9334214329719543,0.5391954779624939,0.7031249403953552,0.3769586682319641,0.6487917900085449,0.05585513636469841,0.03154214099049568
depositphotos_470210180-stock-photo-sexy-man-poses-photo,1.0,0.3770745082269051,8,-0.11788390576839447,-0.09256215393543243,2.5,-0.04894636247034499,0.0927891431601728,0.14277613791618465,-4.1645350149611335,9.752538658357997,7.20813658517284,-0.934812664976564,-8.3183123294679,-2.5388279706131303,16.42599224692432,1.497786849604265,1.3531655296767129,19.380459138241658,-3.641126956493658,-2.619812339585877,25.068047071509948,-6.2479924959084165,3.0382713039920787e-05,5.227506082090833,-1.7774816050331201,1.551702836091821,-6.009695800132678,9.085455465257429,-1.7231667464866651,0.5157623898487644,-1.4919443554557432,2.504442223641235,2.352315634553304,0.545591882526718,-0.14529085522274401,-6.748437650197628,3.4450566913996283,3.251425549500467,-0.354254945637252,-17.222177878658627,13.675494506403805,24.490868826302535,-23.969909601825787,-5.532896429104897,4.162821443514755,8.545910463905383,-4.0893825942274535,0.24073432971987688,8.405770295001714,5.104123110089944,5.612871582847947,-16.203544490760095,5.6817333032326784,13.201796899363229,-1.8527627578452632,-51.15633014665201,6.416821535903007,11.973593705245952,54.12893543409976,-4.7907271522404455,-76.63647239930201,29.51702651778614,-2.915989937963339,56.65801879105954,-20.158603043363385,-23.24062277573757,-0.8088034568332375,14.431381510160636,-17.722125680100376,1.8646316127922262,-17.656132678084273,-8.678914937157895,-0.9334297068794235,-9.094546662337933,-2.804419992068294,5.3164262877130914,8.18047011777515,1.7247833202168077,1.7260726818488161,1.7317601578704582,1.7304258825663785,1.729243454222117,1.7318175921638,1.724633857139926,1.7318606696243466,1.7320250460537354,1.7312417940147287,1.7077461638338716,1.6833229729022656,1.7261662289151933,1.7258885699403488,1.7113995065191978,1.7207397198832746,1.7191057614429444,1.4889813498885263,1.5358406737603916,1.7284968408038333,1.7277590447609363,1.7320330009741045,1.72998098731576,0.971679151058197,0.9618293642997742,0.9710817337036133,0.4488884508609772,0.9651360511779785,0.8432397246360779,0.8536867499351501,0.3409794569015503,0.9210464954376221,0.6646003723144531,0.9410889744758606,0.6441518068313599,0.6311109066009521,0.7445173263549805,0.6794419884681702,0.08362813293933868,0.044647399336099625
