albertjacobsz/Hierarchical3DProbabilisticHuman/HierProbHuman/HierarchicalProbabilistic3DHuman/csv_files/all_data.csv
name,Maximum uncertainty,Average Uncertainty,Number of Joints,Camera Scale,Camera X translation,Camera Y translation,Global X rotation,Global Y rotation,Global Z rotation,R0X,R0Y,R0Z,R1X,R1Y,R1Z,R2X,R2Y,R2Z,R3X,R3Y,R3Z,R4X,R4Y,R4Z,R5X,R5Y,R5Z,R6X,R6Y,R6Z,R7X,R7Y,R7Z,R8X,R8Y,R8Z,R9X,R9Y,R9Z,R10X,R10Y,R10Z,R11X,R11Y,R11Z,R12X,R12Y,R12Z,R13X,R13Y,R13Z,R14X,R14Y,R14Z,R15X,R15Y,R15Z,R16X,R16Y,R16Z,R17X,R17Y,R17Z,R18X,R18Y,R18Z,R19X,R19Y,R19Z,R20X,R20Y,R20Z,R21X,R21Y,R21Z,R22X,R22Y,R22Z,J1,J2,J3,J4,J5,J6,J7,J8,J9,J10,J11,J12,J13,J14,J15,J16
0345163e7e600ceae679ebdaf6483463,0.7160526,0.24568358864979914,16,0.00012021884322166443,-0.2230708748102188,2.5,36.53958253112769,-7.48596587750943,1.3107540694170554,-28.377378406915515,1.7653786109273915,7.319654186314205,-37.392560460340974,5.0182125539683,-12.841967144428002,35.807533101169476,-0.2532832913417746,2.01151867165567,50.269666366727755,-8.139786589582547,-11.469254508059057,55.81273370840828,3.510785748721666,-2.5470452030592203,-4.280897475046832,-5.089824099208121,-0.5011207874809334,-15.51451344494821,7.156594518937552,3.197973116575425,-19.413154687340224,-11.582919101131825,11.035351373108366,-2.4620612146415715,-0.7630281264647747,1.694966724382259,-2.07599288265624,2.792599681787876,-3.972234396264785,-1.3488446470360413,-1.6082221479843335,-12.92088315009833,-20.523815163370582,5.3826437004366765,-14.933054318263148,-1.871202680441513,-21.93004353799678,-11.807838938047638,-1.6986900312535622,25.75027762381163,11.23611112338255,-23.02032955973299,-2.5255134585875783,-1.9011001259859512,16.23671715721785,-8.414559977250283,-31.022073757321348,14.645049146625805,14.526410468289976,45.55985819812669,82.3772928246905,-49.53580693663949,69.48706612490813,102.68761164253212,61.898965013644904,-89.19054995575078,32.70410687817996,-14.444443075607946,66.38450050575402,11.46099937067345,21.35540264765068,-46.966515167123305,-7.789753054997734,-0.07806055115720967,-10.332603454689508,-5.709157478614551,3.7344161739882265,15.374919746238783,0.951391875743866,0.9792302250862122,0.9709594249725342,0.871212363243103,0.9206255078315735,0.77222740650177,0.6126657128334045,0.9443861246109009,0.8019809126853943,0.9668669104576111,0.8968260288238525,0.8472778797149658,0.835292398929596,0.927644670009613,0.8613991141319275,0.9802873730659485,0.9618874192237854
0712-21_HUMANMADE_PC_76f68319-3bf3-4835-b8ba-f881bab4b60b_1500x,1.0,0.26741981964966577,13,0.015046540647745132,0.15170232951641083,2.5,5.594872192100959,-1.1162443691202555,-0.977468265398819,-14.493543598003875,-3.8154824085866386,-3.0913950582099576,-12.446161950893995,-0.4929843779930086,-2.5146092750210642,18.18367282541374,2.2904036197603417,-0.8253840716881417,17.493156068251082,0.8227015148916191,-2.745734979128068,45.45244664323907,-0.4208522976332378,2.662714456653386,-1.9054287583724467,0.6311495533096991,-1.6099314028241292,-1.6973997658306643,4.335856165316516,0.15738184584545528,-4.615479414181784,-8.03361300648199,3.6157066324397586,-2.0100954309873686,0.771291694865138,-0.636188525369876,-6.48357841397576,3.936749855979276,1.9201561403268752,-5.647572224189485,4.112153809620258,-8.410990349635304,-15.812936362617116,6.3405418730378225,-1.9427113459569614,1.2840708682073427,-6.065614379226939,-23.721064279893987,1.0395349414386654,12.206945674271699,22.24124744715007,-6.4516891145146165,0.08173476604385341,-3.268210086244782,-3.3344575851086167,-12.606276952964727,-62.11516099144332,-2.4757036637350254,15.789551502446285,63.06750109760737,7.402488159247181,-18.672437747325265,9.61062940753071,3.279447241533334,17.945572430947095,-7.886527444026705,4.3495118479014865,0.896113988916503,15.869570583667569,-0.276358925370104,4.551702095919966,-13.68897292698576,-8.76686113463954,-2.625764200460675,-11.074256984394404,-6.297147119919793,5.995543041644955,12.940268080736473,0.9486563205718994,0.970490038394928,0.9494102597236633,0.9588673114776611,0.9763891696929932,0.8859756588935852,0.8520575165748596,0.9556591510772705,0.9239320158958435,0.9087873697280884,0.930105447769165,0.8116375207901001,0.82982337474823,0.04453467205166817,0.029555806890130043,0.08708026260137558,0.10053019225597382
1,0.89972836,0.2404169296885669,15,-0.025082994252443314,-0.04374204948544502,2.5,5.509478178889698,-18.09616785686212,-2.0456802896763118,7.119995804043684,2.5289575814765572,3.751191118589778,2.003548908111323,-2.8393625719403683,-1.2631843631688553,3.9409931110011467,1.4434777717602143,1.2209255558871634,8.851899551127138,-5.519868177277757,-0.7296930146945573,8.196066494569806,0.7104221695598951,4.497545099104112,5.975867827967087,-1.569410024912559,4.281916027006809,-1.11015674957907,8.606353396691533,-1.8601832374327552,-5.298579439679452,-8.20165273553723,1.2210557563682167,-2.0164558312085314,-0.253452071719468,0.9718425374002557,-9.334762335822129,5.048602626906625,2.2845473728772903,3.355839705748753,2.564942433118769,-2.6429888703303894,-2.7230534149983368,10.363411876714498,-2.6987153165514655,2.0659382038677463,-7.657828804952583,-25.132504088856905,0.4353461724954164,9.632228173233585,28.613149706875184,6.907982036451434,4.542903104721697,-6.599460257207843,2.455571681156413,-18.77628394346614,-53.9082788923228,2.8152357824709444,13.852216155696357,48.653216722279616,22.681386544812984,-32.35278243784201,8.796390603742443,-1.0705781512163732,15.04413709982965,-7.562415331115736,6.4588877070129875,-5.135129170859639,-1.3813316947712666,3.083672248692789,1.5948773457283036,2.6016788190130944,-11.633846699130732,-2.989133252513115,-11.810978263744904,-7.665068805472797,6.097960020702003,15.832813920649144,0.9647080898284912,0.9710555076599121,0.9659308195114136,0.9583675265312195,0.9757123589515686,0.8707146644592285,0.9206867814064026,0.937717854976654,0.948154866695404,0.9468397498130798,0.9244229793548584,0.7827991247177124,0.8282150626182556,0.8934707641601562,0.8661382794380188,0.311504065990448,0.24907955527305603
1000_F_128407166_RV0QXZdgR6xNhO8fOIN8NVaITloYGYNX,0.9391966,0.3052685733948103,11,0.01610647514462471,0.041885845363140106,2.5,13.006535429837582,7.155073521186754,1.773426814925488,-9.684721592099718,1.4280332199429344,4.423683433419594,10.299296037201941,-8.786900909664357,-2.1409313330769595,3.0481076671279443,5.7319485392144145,-0.9753865518058461,13.321791348715983,-5.209851440379579,-2.5149806665571837,4.7437845177404725,4.03849961093178,0.9351008154206415,-2.0978080799784378,-1.205517396171555,3.7080653041703173,3.062668349777942,14.221292257687166,-5.370238796243465,-6.1866333784885175,-11.530199432249436,3.964395900418549,-1.5081511254637725,2.5013745028436953,1.9839729456198316,-23.762928216864285,-0.6357937084193376,10.043964783006647,1.5322242339151884,10.278189045119309,-5.382296214562652,4.7685469416895305,10.904975014683869,-13.70963851809328,-14.708554537981291,-11.805508989767016,10.550889470373946,-0.9283301769624548,14.73646781357184,23.16114586230385,4.595448603780252,-12.284176330764327,-1.8249646476380539,-31.014526398288485,-40.287355140037874,1.2645965047797556,4.307461788276303,18.232643574215437,53.48873110746018,126.63080562706597,-65.5085014239432,160.2945131024977,10.534092327657591,21.7721944511832,-7.834002435535661,10.733580808972508,-10.816859597975181,7.904168115105556,3.898494393324858,3.2530003221802213,-15.68526134400936,-3.858944182935899,-4.686768232983322,-13.66720511410093,-4.591487094061645,14.760132711498642,13.366028776422864,0.9752851724624634,0.9606595039367676,0.9768925905227661,0.9296708106994629,0.9625346660614014,0.8351531028747559,0.8394395112991333,0.8900172710418701,0.9168809056282043,0.7252328991889954,0.9214873909950256,0.7901025414466858,0.7395160794258118,0.6297240853309631,0.1440679132938385,0.04818354547023773,0.1489633321762085
1000_F_175185560_08Dv3mkj91BHTON9DTN2ejRMrOliU4rL,1.0,0.30367745359918896,8,0.002948511391878128,-0.02240673080086708,2.5,-131.25041773258243,2.6664870689527604,174.95713974095253,-88.06831572417184,-3.249954271253807,13.519238457242713,-58.36059917449814,-4.451156161808678,-6.1764627999275445,30.20959543479165,2.1537656854142364,1.94144925506439,105.54231652689562,-5.564335696982302,-23.98217216657982,90.1349465519101,-0.8149757705275413,18.12544546273938,-1.744849089994743,-1.2203414679914215,-0.037866542078124246,-2.160205700027912,5.2774933650511535,5.729400878653999,0.03667465739269049,-6.23302359644442,0.3669809414629076,7.462052531451569,0.8465780953218384,0.8846940727068002,-27.061340972732044,7.914261427151542,-1.8422110887357477,-12.774851144322518,-2.101716655730977,-7.35170484899449,16.49473950594613,-2.2196225828349108,-4.762453986063057,5.059637651284427,4.563959297272377,-12.725930768165949,7.761470949192003,-2.8960601856840555,6.799410630065381,-3.8603943174740576,1.8744991004896903,6.777576649722966,6.018597918301509,0.08393323985305787,-64.50464803105892,8.73398487284333,-0.8642412313197557,68.32792155105443,-0.7169620223293295,3.4204381408148525,0.5290896117193422,-2.1379689519678777,11.344558305703073,-4.775451836053591,-3.3987439659070113,-5.504722659680077,41.715018355826864,-4.890776165094671,9.712205419546203,-49.15922445675084,2.909796336435186,1.3722636581527226,-3.3654495684675494,-5.5135754386180595,2.8137805252909085,14.086163795147634,0.4167795479297638,0.38339763879776,0.43493786454200745,0.9539117813110352,0.9764564633369446,0.9228161573410034,0.8813756108283997,0.9352684020996094,0.914961576461792,0.902457058429718,0.9343770742416382,0.7344946265220642,0.6927674412727356,0.38749656081199646,0.5846537947654724,0.1380312144756317,0.166415736079216
1488-human-pose-estimation-ai-fitness,0.5865304,0.21350173871742537,16,6.575137376785278e-06,-0.20526154339313507,2.5,-19.78052494958582,-16.322760465287086,-2.1197139907505496,-55.50771453554844,-14.35442972008364,35.74825047426835,-77.03378311999023,12.358988246517123,-25.005640155213086,61.8147829321245,-1.8109634001697623,3.6324277893015964,101.36864064210012,-18.514383754836587,-0.9224453286622541,124.75755794529826,9.380255664562645,3.642396877282053,-4.9378220812108955,2.160484243680002,-0.9550911782956821,-12.20635571668214,8.255382418643135,-3.0375052925453803,-9.282404666965748,-0.20917330269181078,21.35131990207431,2.4957101415876393,-1.0892315045613838,2.9012193263849424,-25.24034253056765,6.346245080994783,15.084066385717545,-21.527031641114764,5.34359636272536,-38.3862915128753,-10.188707590576618,-4.473881054950956,-9.591784061837,0.45080988085888396,2.8930339849949167,-12.250913309506364,-2.9622524027042956,3.3693325310107016,0.42370947782084517,-29.86639891956602,-6.58032249404029,6.266274237984512,-15.985868214665375,6.507922915724978,-49.33477056370392,-18.82833169248893,-4.211061778991213,41.99074284733653,46.485608377851875,-71.1564189995726,92.08403665422163,112.12560801879076,56.62145201179989,-147.9031702498822,-6.426912176413572,-3.5114284268338816,3.2143578866206397,-3.7101357052624775,7.512753025660574,-22.803503496983645,-10.700341693376641,-4.510885312326793,-15.737587423240827,-2.920892405628695,4.516193223085539,16.28053965093265,0.9494528770446777,0.9592322707176208,0.9706868529319763,0.9667829275131226,0.8826495409011841,0.8778362274169922,0.8765963315963745,0.9041180610656738,0.5683139562606812,0.9319208264350891,0.8016389012336731,0.8305229544639587,0.8375084400177002,0.906170129776001,0.8771287202835083,0.8605011701583862,0.8882087469100952
1577720851-C2505M-S_1,0.5597035,0.2115509524430501,17,-0.004917379468679428,-0.3249328136444092,2.5,-0.1543282843789968,-18.52108417041237,-0.5428343002069351,-8.69206629435967,-3.946359505254661,-0.7110424894747498,-5.5228726067389164,0.7045987396013718,5.384726908133531,8.830036969367573,2.226187461844351,-0.40327699359917846,16.95336280305039,-3.2092977836627177,0.24366446399969258,11.630081557350763,1.1553779379698434,2.8553407322865554,2.8845651907543357,1.4857036020348198,0.261113489575386,2.18584345540779,4.728098561424716,-3.3314456851280525,0.4445180493336857,-9.953008007603234,7.3351331025207465,1.4632495685818145,1.0098803944965855,0.4411792607683131,-9.030979427202055,4.083735953804774,6.90769602227994,-1.3628177199740066,7.911525082615306,-13.6926765970632,-5.029234344854585,20.928877824550895,2.2708675711868125,0.9739118712753579,-0.6841894940311389,-16.38640075287868,2.4494287797716328,5.81557310654382,16.98054012575787,3.8326987541633017,13.39034851873634,0.8172427530017509,4.542802786318263,-15.737017102445131,-55.33828827809169,0.22206821959711884,12.827342855641358,51.93797080735464,32.23388591986501,-59.82426773249685,26.56384877660853,27.749544003313357,62.175847222218884,-31.760779206625738,0.8739171014135779,-8.502732596793269,16.759655223094242,2.611603083877123,9.233449286089682,-12.3919174422794,-11.81104741941025,-2.0647290469412427,-12.7843647440627,-7.574841152763282,5.466210638044959,14.596054492162011,0.9678584933280945,0.9801267385482788,0.9572048783302307,0.9769005179405212,0.9868440628051758,0.9431226849555969,0.9468855857849121,0.9625115394592285,0.9555457830429077,0.9352625012397766,0.9618049263954163,0.8976978063583374,0.8924838304519653,0.9681066870689392,0.9256526827812195,0.9223175048828125,0.9159277677536011
209a2423bd57969c5feb37c655841405,0.69997084,0.2610644549396327,12,-0.03375924006104469,-0.17960309982299805,2.5,9.310637253899996,22.096420115989122,13.005481019384462,-75.29724167446034,-15.471816224899168,3.350428701822222,-45.07995886175784,7.88823926018744,-11.757552524057065,56.247796267970585,5.1047659917911705,-0.008724308515831725,108.49991821110537,-12.422363864278378,-9.603280977757425,119.30460811952689,6.79522201655687,0.18477628052313513,3.7311944591340964,-1.795890239888602,-0.8997629107588765,-24.44664210561361,1.8249202514084488,10.846532501050655,-11.635340803011673,3.480904738319918,6.564976766522564,-7.450148365501883,3.682558816488551,3.428170982172365,-14.901367363156167,15.557410448030476,3.055916707783384,-19.47265588029479,7.215252183529621,-22.84213163183465,-18.520945859081674,1.7183158327816532,-19.91052564760597,-13.298011191346937,-47.88565372373192,-12.061807569503515,-4.108071917817529,49.11021443436141,6.304995861049783,-23.59571664824591,-4.624731332299389,4.0146353568585775,-10.263770515781411,-31.569154834366444,-30.05373051793196,-14.982602218049713,32.041626340012904,29.741348401146844,76.0567723705441,-66.59504791710883,91.383969585052,62.471744677442175,72.47963154747917,-66.67030294138404,-3.5889173498544995,-5.400850850329815,2.2484671120301094,4.513683128565559,9.780929075427578,-17.775452909289587,-1.5190048296634517,-1.9076161264541434,-4.098825122341801,-4.170146384541898,6.4639561342639595,9.911503509338004,0.9248618483543396,0.9585930705070496,0.9771727323532104,0.8417597413063049,0.9701060652732849,0.8291199803352356,0.7588386535644531,0.8686733841896057,0.940616250038147,0.7255895137786865,0.8466103076934814,0.3313274383544922,0.3573617935180664,0.17108501493930817,0.8859770894050598,0.38741767406463623,0.8727107048034668
22df0ba7f48bc4eb0825e90d96a86b7a,0.58100086,0.20979534491203206,14,0.0055433474481105804,-0.051400091499090195,2.5,-25.586032064840335,9.03308056414548,-0.22350541412845118,-77.36411155881956,4.4751634229676265,30.284625062824244,-91.07415220430022,2.4471795131005827,-28.033662797312964,64.28851352496304,-2.0633555385878353,5.038567798355407,123.47829083451155,-18.573715900609194,-40.81269572495482,130.2232529040609,12.029281354902267,36.35956948045742,-0.23325154712531723,-3.5420473111094024,-4.467878599330985,20.922746022223517,-0.15594023570354623,-20.800296098330822,28.921677889421122,-0.21709979058446346,10.84854228421393,-0.26873883549474986,-0.513488552520534,2.0319187391592055,-32.903725986862746,-2.2897903968389213,23.240944669924403,-34.805182349902594,9.889828757780615,-35.450235660402356,-8.657380032433405,-5.814708233840166,-7.963134845757568,-3.570323867386432,-35.47439403949669,-9.321301740515326,5.141589676040825,34.57634369195049,-12.178553431665604,-31.01133669994609,-5.0035694821614385,13.520916976231243,-11.077937602583395,-21.666654368128164,-30.00748672215639,-9.09408012984922,12.741351627764544,18.844679750267357,41.34182364976654,-51.0707690091948,40.855930822401,96.09492181033905,72.49672751097171,-83.94130369178586,11.877956806293342,-12.257150979765878,21.067385523182292,4.374078757685553,12.017747726715054,-10.934981743255028,-10.65266270410172,-2.9640171528310972,-7.350036575289714,-11.138043267279507,4.651883041797482,13.468137543193615,0.9578230977058411,0.9667190313339233,0.9791925549507141,0.9408312439918518,0.9454180598258972,0.8708180785179138,0.8621870279312134,0.9302632212638855,0.9417863488197327,0.928271472454071,0.9357731938362122,0.7210759520530701,0.7315449714660645,0.8805127143859863,0.9308815002441406,0.7630766034126282,0.6320244073867798
360_F_128296604_f2PN6spSyTp5KlszAIkZNgkx0xdDMQDs,1.0,0.2836398268851123,11,-0.011887684464454651,0.07689295709133148,2.5,10.316864991294507,-0.905775718384309,0.20087002047668348,-27.214514795058747,-13.411684322156168,-3.4415822720510967,-50.48591015585036,6.473200368418749,4.715371357680043,35.694391017568215,2.7838660042735452,0.30932688779200684,35.1976279441386,2.2669703079350856,-7.682890476564653,57.675900030961046,-0.8878175502307588,7.109668984905448,8.128653381235427,-5.27983782748376,-1.5273320042004608,10.635951792523638,-1.337088183927157,-3.2565101856399616,5.249224065850117,-0.9773552471123964,8.863439155729875,-8.53634481147255,2.7309700311332046,2.865403095037865,-18.884202639899634,16.323253946454617,12.41576931663473,-5.541706426488403,3.9256230509345023,-14.940480441438245,-20.062015828302265,-2.150254327850615,-8.13533074492276,-15.360687339555769,-48.55651490401057,-18.828536598164032,-9.705706494550935,54.00398008787843,10.475307450792231,-17.528242750017437,-13.372123012709807,13.94434857741066,-19.84114117092239,-46.291794929963594,-45.83414493481606,-17.94999156334009,42.14177882045302,43.90158730539056,106.2801135610404,-58.96089084027222,121.55630292282665,131.5569976036676,61.08014144537627,-126.87359153130323,-14.063702718062048,-12.0552966916772,-1.0897370452816706,-8.64607948445162,12.419346628212525,-15.365459934238315,-0.26383286536040307,-3.555167677618174,-10.835019363430952,0.33392333280814834,6.285396206339609,8.788687004132315,0.9654061198234558,0.9634978771209717,0.9774169921875,0.8942261338233948,0.8899989128112793,0.7157703638076782,0.7798565626144409,0.857277512550354,0.8040965795516968,0.8760735988616943,0.8000818490982056,0.8193424940109253,0.5552675724029541,0.2774401903152466,0.2470562905073166,0.11732159554958344,0.0502995029091835
59eb3f1446c402d1e08759034a451549,0.5354674,0.20939335880114418,17,-0.02376611903309822,-0.1124563068151474,2.5,3.7978101478828767,15.592188063736888,2.4038285158819237,-37.79510448926485,-7.22866582128588,14.697641603234903,-23.726999714282726,5.2199639623326055,-19.45659127536692,23.794640785180658,0.7580288015182955,5.374290379081751,127.61604675446196,-19.660897601367633,-9.734978124012672,132.07547726356327,8.78191657911754,-0.8447497390583906,1.2092840320554055,-3.0646943546404968,9.664092713258986,-17.79174461800736,2.8670293203905626,6.918833926382115,-17.497892804440486,3.174882594869139,-1.70317191600956,-6.1490553852223995,-1.002458220024603,3.772063749806514,-29.72692645671436,17.505062795521706,5.386291021453464,-19.284144366749732,0.7233208750857585,-12.57514921959604,-14.392333854882626,1.8373283572528347,1.4228630869063523,-6.939034210852428,-13.486600398293806,-11.749076259297079,-9.333436425349499,14.910559090231711,18.045761060787427,-17.123898966247268,-1.525122331282256,-2.147256515135214,-22.8616403596515,-18.244818386410987,-29.416128943816684,-9.529958897017337,13.902313031937462,34.330808636572286,97.51448100667781,-53.090473022240495,137.39899500456292,108.089881464662,54.386842926708916,-148.56078086317103,-11.078723074337946,-11.381915171594812,2.4989630191798575,-6.348457635399044,9.572322291570694,-10.240552995245247,2.9024233606695686,-4.431382337274668,-19.50094481628969,-0.9549130597687329,6.557459716454142,16.173940888556263,0.9495648741722107,0.9814298152923584,0.9619517922401428,0.9578037858009338,0.9542397260665894,0.9038711786270142,0.8652220964431763,0.9318637847900391,0.923820972442627,0.9132055044174194,0.9149184226989746,0.8335208296775818,0.8323114514350891,0.9482491612434387,0.8833698630332947,0.90472412109375,0.7908049821853638
637e232968e6e13411d0fdb716d30fb6,0.788939,0.30519347148143156,16,0.28353622555732727,-0.23410530388355255,2.5,-33.20594478216289,-41.0896906316501,-12.188216441793879,-57.37963374552257,-2.61520814309842,-9.472365034388497,-36.17420156147786,-0.005079779772425089,-10.447568345025516,44.99261440265172,7.732406786726306,4.69877655931785,109.47156043186388,-6.22048507667557,-14.357899456182007,62.931115880260556,3.3061874321339335,5.174838610033624,6.254973690002726,3.3747851564024876,9.747207577721579,-3.7805259273013365,12.311530384616582,5.227229576062206,-0.26870919354096906,-9.386432716893275,3.498866855176582,-2.4133433962825745,5.210799129126918,5.113699025451901,-15.809297579336791,1.3628246568848823,5.70656243361677,-10.477070493371741,8.194982202039066,-12.973662583135958,25.782020927979268,-23.00398491704915,15.369566585476786,-6.489253020515571,-3.379491156740626,11.65658781397229,-1.2829314005547143,25.084264170296397,-1.7074254163151854,-14.757619201884077,-22.48510910618162,20.090403802040132,-16.003543036690075,7.991184725131518,-9.405760444697117,-22.889789276768415,11.222471235610035,13.368094908646793,-26.725131741027333,-50.16701545369163,3.116431330056051,-14.981067133033752,21.38396308366509,-7.899088161910359,-25.798481683878997,-6.632518799677528,-38.58300779116084,8.834599535733142,1.943341004021072,-18.9869116095437,-7.0579315826030715,-0.5213442305614007,-5.895762088720708,-2.544182500023339,3.0932199993788205,3.101731055414891,0.9828587770462036,0.9915146231651306,0.9447216987609863,0.9433227181434631,0.6045268774032593,0.9268934726715088,0.8800753951072693,0.9997808933258057,0.9467733502388,0.9729232788085938,0.9714249968528748,0.8743966221809387,0.9000846743583679,0.8930726647377014,0.9346113801002502,0.911663293838501,0.8314822316169739
65eb7c050d76131faeddb0771d26ade0--falling-down-editorial,0.59280396,0.2364180823261559,10,0.03548474982380867,-0.18640057742595673,2.5,163.54101129803146,-15.246061397357321,34.4379708895552,-28.96119394886423,1.0264534216307983,11.745093405237315,-76.2129992874298,8.958784327675021,-12.923858551255517,30.022424345871208,-3.4136916214621724,1.6416105672465886,41.77623734135769,-11.715021789869041,-10.850780024940757,54.86765409333196,-0.6727225135491867,11.199509847167745,-3.1938374370329825,1.277754864215785,-0.7859855662039511,-8.142483660531056,3.7801361796318225,-6.317318802972956,-4.75162728245494,-12.266178782301344,14.682224158730891,2.817276728372309,-1.6841829228998666,-1.1574380937782487,-18.540113077440026,11.883691603875214,18.24762388661257,-5.368047586180359,10.066485624247472,-26.630012819098443,-14.307192985557478,11.485135551652984,1.4074994301420547,3.0959779016996247,1.9783169086568264,-25.37231203061605,-1.2961410931312247,0.49335726363300897,26.948195474036197,4.214397472627118,1.9339151295230428,-4.111518175140624,2.022102476661428,-8.943650336021566,-39.720527986102276,0.8518006287159593,8.161634657190126,42.55620054834354,25.68252556233969,-52.284978568137134,29.34942531638234,-3.6386479572013624,39.92132530241689,-14.251499623065195,2.76751666583465,-1.2362571961397264,6.2847319704428255,2.482384442516944,2.463690855088854,-5.7843932929827115,-14.519380496086741,-3.118776859705716,-12.978132088174085,-11.03501754761268,5.58538079047558,12.803496103927905,0.5689498782157898,0.7699683308601379,0.5373610854148865,0.7792540788650513,0.7258511185646057,0.8327900171279907,0.8310722708702087,0.8343289494514465,0.8490047454833984,0.8371214270591736,0.8678520917892456,0.5770921111106873,0.6482900381088257,0.433402419090271,0.89014732837677,0.5137072205543518,0.7816101908683777
6623ff38175c781d04f77afeb29dbaec--ford-models-male-models,0.8812104,0.34406974278072755,9,-0.1393202692270279,0.3094059228897095,2.5,-91.90914283033428,36.119990350035465,-51.91738120210163,-85.899136436235,-16.240091270667836,7.188201219321786,-89.80417415078473,7.32523786596069,-8.857336381706467,51.04436691295811,2.1499177275905805,-1.5205856982911923,46.19527411170756,2.6473055498858376,-13.034827780927069,63.30248692581249,3.7319961525879264,5.818953623296153,-4.929217323517149,0.8041078723409932,0.520293235202865,4.0401597737869155,11.706149374137196,-3.9469515972783364,-3.926662947235637,-13.41060173717272,15.401909238744087,-2.3666281040108608,0.6502018857517736,1.3640389364532637,-13.044295276890352,6.326138711625558,17.691970922159104,-4.238381681897618,13.065941000143768,-28.36923682142486,4.748379527504599,1.8524203005542126,-7.4479951483660365,-9.592229731680344,-18.29598845612543,-9.019840242439411,-7.038614953856629,26.74017694022158,14.075840817990807,0.9176242823252829,-3.290573833134696,11.241384883195446,-18.20845616681713,-26.359028478872773,-34.471554929704155,-12.517635611689947,18.46558034566955,38.43336517663503,-6.146727144489072,-67.81170951396321,22.46847076536347,-23.82278970229757,51.072910273499595,-12.66454188167952,-5.098944536184204,-4.16999099773828,12.39178766868517,-2.6090586249678815,-0.6284912757012419,-6.731301264322483,-3.3776173370305154,-0.2320281428510916,-7.547592113069516,-2.2836901841364536,5.656979102223885,9.700166357360409,1.0133432149887085,0.9611870646476746,0.9228097796440125,0.938034176826477,0.3861677348613739,0.8300262093544006,0.5130876302719116,0.874631941318512,0.7183313965797424,0.8935966491699219,0.9228852391242981,0.7441577911376953,0.7143579125404358,0.8466042876243591,0.7117257118225098,0.5492810010910034,0.3771429657936096
69407332-woman-looking-up-at-camera-arms-crossed,0.6866465,0.26243193739246584,17,0.005057100206613541,-0.2570870518684387,2.5,24.25096230853462,-25.164027119423807,-7.5499374292757695,-18.8879916873417,-6.79688260629883,-0.27758937327691124,-7.1105722774231825,-0.5736917074948775,-3.605207777911803,27.397104534593407,2.218915871699226,-3.7934307159644294,38.20579010367938,-7.953367675244451,-10.607889106544995,67.11813112450508,1.098567092496322,-0.849258624405951,-0.886964897162418,-7.405055456601459,-4.056463435335736,-1.8402262784516241,-0.8363761405793665,2.927866455658101,-23.896164717003725,-10.321722109568032,0.2812693778160936,-5.168721748745054,-2.015644319357769,-0.9492277810583435,-10.763100032791657,25.972859828484008,-4.488370020614669,-3.257770782428652,3.1571209013759325,-0.5571630765902699,-13.591423311485991,-6.615312272497796,-4.880191506315267,-12.029151581308037,-39.821628446196804,-17.345753755773035,-10.455253161615428,34.650806414281966,13.162625742939884,-9.42027545045704,-10.014669247882816,7.524202984030454,-17.27708303385773,-42.74542410910957,-44.22762297032653,2.0906214403111147,33.471331782363734,53.69570632987908,79.52924737476775,-66.09875954182654,94.70078457809106,77.15317482668205,62.44970365699054,-75.03234644787973,6.984052841445628,-15.347585329180392,42.800594962130354,-1.6647754739818044,15.615871744683908,-35.00335345848135,1.7206417256374542,-0.49779384502490254,-6.674726807427268,-4.383011364459461,8.975969083626772,12.205329480759346,0.9709445834159851,0.9881958961486816,0.9517272710800171,0.9639319777488708,0.8305391669273376,0.8340254426002502,0.8938571214675903,0.9491583704948425,0.9362205266952515,0.7700621485710144,0.9106463193893433,0.8561239838600159,0.788540780544281,0.8877165913581848,0.7873668670654297,0.9229703545570374,0.9437297582626343
6bca8a2b5805feb5e58d39a39c9c0334,1.0,0.34539745251400766,12,0.02947581186890602,-0.42057865858078003,2.5,-42.00975126379667,13.843086754096989,-11.147828367039196,-3.416893699522439,-8.215142359148006,8.67415668458225,-2.076692977046166,-4.393568275595362,-3.5451906922314893,22.050113140963727,1.3823680692561102,-2.4143066663989576,16.07039522073887,-0.8112738613582473,-6.676658043415089,41.51999937955008,-0.49117603204939486,2.3702348707794507,17.784315079737677,-2.690799127303421,-2.420177640877407,12.071080405075453,3.347212536496792,-5.631114883384339,21.23537061072417,-0.6616329543797305,11.057277134117752,3.567005462666864,0.013808081180827029,-2.69974838266343,-15.551954834430928,9.149975836695663,8.044387629897686,-14.810799054761796,7.58502069594754,-32.88557475914344,14.593819312756125,-1.7958577964900444,-7.7215519085878634,5.717010915499596,0.24034309775278875,-30.223720265995237,1.6878141289390804,7.376567591346983,15.91859085134075,-15.981291987921468,1.1794879721314595,1.6702830610520676,5.3495241131512845,2.1589461704562796,-42.179153615591325,4.365135905627891,-7.195615389665835,48.490975823829714,28.736641234616307,-48.35716900289458,39.53396136892337,107.20246913674809,62.99274467714158,-134.71075549065097,7.119577028070198,-8.817376359967309,2.6565664326267284,-1.5935024499927213,7.353737684046215,17.89010446469742,-15.681994806038801,-3.4864847894284066,-18.146412435944026,-9.087092846328295,4.725081325358862,19.828670953045243,0.9698711633682251,0.9856650829315186,0.9749532341957092,0.9687448740005493,0.9816105365753174,0.9345406293869019,0.9027789831161499,0.8095369935035706,0.9749870896339417,0.7293343544006348,0.9213058352470398,0.7902413010597229,0.7656220197677612,0.5755536556243896,0.6056463718414307,0.7402456998825073,0.4005703926086426
6f523f23d3ee2864abd836637de27672--trampoline-hoodie,0.8676801,0.3376723927872847,14,0.16036057472229004,-0.05646545812487602,2.5,-81.67057315126928,-6.001107084497576,-101.0754616021665,-52.578417155259224,-11.725265366076767,-0.9295193769299774,-45.000387157927186,-2.3521641112263008,-2.085282580257692,51.30369212027057,0.8977153481117536,2.4299757606852017,19.318882708868415,-10.912162935011661,-7.806037079752691,43.7740027867893,-4.301939153445525,8.472156401200062,0.3404744980783955,-2.629139381127719,-0.31655282772748367,30.445349659278396,11.001097974420752,-8.22678953923017,31.427226918508165,-6.307366790465425,20.62987434080254,23.746610894937128,3.3910292672394817,5.7183197504993,-16.635789742496062,0.9579900599898236,2.1286265338437698,-8.14408875498601,-3.0032747323028035,-21.11942473446862,61.940212526042615,-18.24074930121295,-0.35221404579691357,10.492137036907142,10.753978315155106,3.500523602937133,11.678271103266141,-12.645246597274234,-13.216992341185893,-25.428893317700435,-5.651733943828138,25.711014281367813,23.519158765386532,9.114360669042279,-79.10072813643032,22.443175159772327,-12.169449643275623,81.21995142077769,9.970056159771586,1.4873766782163556,-1.4919923919914033,12.212379089756444,6.250984859527438,0.33178529683494923,-7.01123315236087,-18.874211780691198,59.70906293176625,-0.49463482917291873,23.702895976701754,-54.37252343511398,6.312930406431223,3.8320998319504564,-2.6030087849105428,-0.6346014668832001,-3.1641005009340395,11.71278063404763,0.9719908833503723,0.9486342072486877,0.974622368812561,0.9558621048927307,0.6493664383888245,0.9867388606071472,0.7136878371238708,0.9040209650993347,0.8289191722869873,0.96783447265625,0.8766087889671326,0.8845468759536743,0.6811392903327942,0.9258739948272705,0.9397314190864563,0.8337836265563965,0.9015970230102539
73513e03cafcb44ca4b6ea73e4d0b337,0.9292985,0.38213728332881247,16,0.15257370471954346,-0.26550108194351196,2.5,-34.61991688376059,1.6310028565787358,-24.689004538122344,-3.9541121968494486,7.684804637079549,23.313682769490452,-104.86670153495464,9.752446332814978,-14.073818228222835,35.50278713587643,-5.1312658451103506,2.7433352348518665,31.455353637510278,-5.742109299378455,-3.6101750329856945,42.156839387572894,2.1710076442002872,3.4882429228094503,-1.2839969100652362,-1.5354514982980192,2.7329475843413347,-3.717155432181958,7.359081453298104,-5.616026141734135,-2.479235084979334,-12.230140996693063,21.232951016210695,-3.9134683024196417,-0.7594189050969519,1.4699313078590852,-8.309584238575418,4.7650930004036205,15.774656567413778,-0.24281095715770545,11.45053552086499,-36.39932801161606,-5.457838960556639,9.159747276077013,-18.41029167188559,-9.333646453666477,-33.37771379450495,-5.40105234091033,-5.688891026686654,23.136733058662934,17.682384751658994,2.340388438210376,-3.0651317001907894,5.684734429689878,-26.85238841054843,-29.765059402850543,-33.3156581108008,-7.522692658450235,4.940505064894241,41.15202635311022,-10.280728167943261,-64.23190491712197,12.700103261593192,-8.563541770973893,28.375319104880756,-11.273856456283333,2.338729556015709,-2.2815963042690215,16.457246890044637,1.316187698345212,4.24879131707954,-18.046155504211995,-7.741741094000775,-2.546809561532855,-10.744778050343097,-7.036279882934131,5.716364608849384,11.946475556499617,1.0157610177993774,0.9804611206054688,0.9940786361694336,0.920298159122467,0.8751112222671509,0.8446211218833923,0.6107675433158875,0.9213584661483765,0.9607030153274536,0.9325799942016602,1.0062849521636963,0.8906059265136719,0.8634774088859558,0.9054526090621948,0.8791743516921997,0.9194616675376892,0.8030959963798523
800e85b65480f0b7e9ce03eabfc02e4e--male-models-poses-boy-model-poses,0.8240301,0.23001900644721504,11,0.02249038964509964,0.07182683050632477,2.5,-3.385342707868623,7.344121631468483,9.799455963551237,-53.88888457017455,-11.607927838777826,-17.547541449517308,-62.72683175237464,4.80401654093623,15.199395837400502,52.41975527593441,3.3704721053850357,1.3646608038328523,74.8860096449122,2.3319666015203384,-12.282825660855956,77.34547197257459,-3.119130748882087,16.072249617098528,4.317384345593039,-2.7053173347145174,4.903411588172371,-4.762690054476245,-0.28864160652977033,5.16235430489131,2.515289732617127,8.440668375352656,-3.0139974889694887,-8.864140957667093,1.6831357695227391,4.369316835173585,-10.22227797034723,13.610207185477174,-8.685448694827572,4.306560630192685,-9.139803123700576,11.953858990992401,-22.553660299786454,4.1099007009678,-3.6586813289238327,-13.467780665809482,-42.41915280264723,-23.659705275485177,-13.641785711331082,45.45219392623978,19.245804807391156,-15.319545695090197,-8.634201785484967,3.415073880995454,-2.9446892115838423,-37.91606372437119,-46.810814174803696,-16.575436483442537,37.73693859829302,44.069080619312196,86.42285485122407,-60.29675289852165,80.51265118127702,124.42588395920245,48.97066000923971,-156.49267954630685,-24.7336347017065,-4.014913260180433,-12.616986689583307,-15.588141176653656,8.826690176674267,-15.455932619984305,-11.12858772414727,-3.3261943368733706,-11.271120965520742,-10.842418165849368,8.701941894125861,18.308728466474793,0.9459554553031921,0.9583141207695007,0.9550936222076416,0.9383292198181152,0.9617182612419128,0.7545767426490784,0.7997769713401794,0.8478760123252869,0.8810882568359375,0.778258204460144,0.8725846409797668,0.4581625759601593,0.17159946262836456,0.07258155196905136,0.04165135696530342,0.08129383623600006,0.051106635481119156
82a7e33c186338335db0f4ac3fea7e00--navy-suits-mens-suits,0.555041,0.21673536828823162,17,-0.01031608134508133,-0.3119123876094818,2.5,3.0637101670697806,-3.8051257073707836,1.888969496576597,-1.4854848225379678,-2.206357928579923,-0.8713169337739187,-4.868213915832003,-0.48866711146817876,4.039379424674242,11.161374339710624,2.0936807247290457,-0.12723002911528689,25.14939856176893,-6.708420557489764,-2.1887847056191263,15.798087531361508,0.5735116146163713,3.010323700969668,4.729025332717722,1.9479665361930516,0.43382397412542917,-2.599250686763155,3.7760436156585158,-2.355573869726018,-1.310109150149018,-10.126854251226629,7.16822718486773,2.791395860946661,1.2179212331477098,0.47702436033680445,-9.982956679566447,5.622172031326677,5.633012822199957,-1.423005346940159,7.518826771380008,-13.772578711294948,-1.3357485063544825,11.845395586972598,-0.05252683610025581,0.5678914361465087,4.19476324008427,-9.605763751520724,-0.5668925743412472,4.683350150190554,11.130945846958218,5.182120445462504,6.333876889068359,-2.1277627283571747,5.082474388774364,-10.561986820227924,-50.69559696336975,-1.9243285321361068,14.569539697804021,47.584602890779855,136.8714858345845,-78.7266455057779,139.47280436111888,89.47424869311644,79.38422196812087,-97.76953393066444,-6.442538795460916,-14.020060370586604,10.666084879594441,-1.8189331637141095,11.47032001756958,-12.334319310782329,-9.764289027062135,-2.0516027040169473,-12.575646969631805,-6.91565660775759,5.5892573497163855,15.431938165430049,0.976737916469574,0.9851737022399902,1.0032474994659424,0.7762726545333862,0.9671280980110168,0.9353882670402527,0.9074748754501343,0.9742917418479919,0.9549545049667358,0.964327335357666,0.954371452331543,0.8740622401237488,0.8928661346435547,0.9337368011474609,0.9133382439613342,0.916739284992218,0.9111557006835938
93385946-businessman-step-up-pose-isolated-on-white-background,0.63463634,0.2583876416773815,16,0.06193668395280838,-0.3465213179588318,2.5,-10.161384272575628,-54.69389066575225,-17.545972213555498,17.112729899407004,8.376619130184508,12.388402456177783,-63.59977090943729,14.627903664261781,-14.843420038237777,20.934119994738882,-5.998546190445644,1.7435206182011755,11.307839208725085,-11.192521709873175,2.0448826516473013,103.62679680435471,5.804905631720729,-3.5648866099202787,3.881076984054502,-0.9528963396945808,-0.12919725699838278,-7.063707361319963,4.214889673134182,-3.8686712260876437,-4.375779474788886,-1.1945893069429463,4.117658942091288,0.004786839528978254,-2.797710370834338,1.6638639638927248,-4.235658570852898,5.288662005004594,8.63780471027215,-8.454626720695224,-1.1777262102124195,-12.959767417043214,-4.976310624070741,-15.286697607824314,5.0904977266150135,1.0123900621297421,-6.49276544529625,-16.102445883419154,-4.292192900386739,4.949917919344165,7.134754989066436,-10.499628046879353,-13.789482575717082,11.547081098556768,-3.3799489928584285,-13.270474429934385,-49.184523477436564,-0.6220296499421454,-0.1356408467892022,42.9642599550222,32.01071290382943,-56.46475722695604,36.699538731300215,71.3284987855219,76.56786859594698,-86.76594208342298,1.7892038048562768,-6.436316920013857,21.417296114362046,-2.413772844426639,6.744638489337403,-15.433915505194769,-11.351116994853578,-1.140941586107081,-13.093421412495669,-6.002901289815174,5.408761916935982,12.98411448011337,0.9798334836959839,0.9800273776054382,0.954365611076355,0.9807294607162476,0.6383603811264038,0.9193262457847595,0.8896541595458984,0.9664063453674316,0.9157146215438843,1.0021743774414062,0.9635653495788574,0.9052153825759888,0.8149990439414978,0.9159684181213379,0.9592716097831726,0.881564736366272,0.9039672017097473
9550ec0485867ae069b4caa6d3b1e425--aaron-siskind-photo-sites,1.0,0.38018216522442955,9,0.019709549844264984,-0.30647164583206177,2.5,29.640616771267496,-23.853313817698357,87.63900418389069,-34.35119333615019,3.104673799730109,-0.32526017166091276,-20.500413227726828,-0.6681792638123646,-2.6800782916274395,21.715020645188318,3.8336438815897025,-1.1196157078058915,51.815771892913936,-5.646281745323176,-11.238732208476542,26.614441695338108,4.50387070804919,2.7114222431720396,-3.106938434326791,-3.8372062521286874,10.403761219236348,-3.9577458574878954,13.841205890754297,-1.8727851498948402,-2.760522765567969,-13.168423719771578,11.817761495364373,-1.140585135609771,-0.20021716378177867,6.039931160400398,-8.074577066029143,3.37058330940246,9.002831363858787,1.7855658753495989,16.86314283430369,-24.510666591346016,1.5858586145378306,-1.9704175814382952,11.695953609253658,-9.858208397018041,-15.50250767993462,7.705925289540521,-8.342708948502688,14.74855383330818,8.611050005519562,3.072484825719131,-8.26585395241441,8.515416258081983,-18.692882211058407,-15.164862400956919,8.649023295983895,-10.25620437372833,15.278685795927888,15.866059866434183,-15.718678044523648,-35.45994135921294,5.416181209921909,-6.036796957345008,54.73840642366781,-17.950095723724935,2.631907315288867,-9.401467670803765,2.772069413803287,1.9670733500659277,4.649566327008378,-14.08894795100806,-10.328267138340196,-0.2396980717630457,-8.164265987567873,-3.634812379095577,3.802043157620992,6.29590530615132,0.9664187431335449,0.9143117070198059,0.8839119076728821,0.9024205207824707,0.704804539680481,0.7417383193969727,0.9118146300315857,0.8358238339424133,0.834715723991394,0.935071587562561,0.9395148754119873,0.6358811855316162,0.7014055848121643,0.6756227612495422,0.1705671101808548,0.6100930571556091,0.7444984912872314
96fd8d04ef7ad5eb37e644444d39fb37,0.5586989,0.21910487959460126,16,-0.20288638770580292,-0.10254502296447754,2.5,12.658539852946372,56.53936679835468,1.5163895075415714,-50.38512729955224,-13.277112520033992,1.7069801733586651,-45.31664199197171,6.664385474137045,-4.388345315314417,32.543187621334454,0.159311801172807,1.1027876157948608,128.99790330658226,-17.589203895907094,-6.0490396445454335,129.60673270881887,8.962124290179156,0.47322106554701804,-10.731191950310295,-4.309520663424239,6.719354836577308,-35.02517932797412,9.247426414452468,13.493194945937454,-22.210458661918945,-4.039380278447887,-1.3830876937181946,-3.7237533949201906,-2.1950048735188923,2.424779907717526,-18.196467477276464,17.498678276195037,-2.660839356282806,-17.931328071433033,-4.653299452276613,-7.746431726413282,-21.773741489030208,13.76778562604489,-5.862680067475751,-10.168128230607369,-16.586176955912382,2.448582263201374,-11.142299328906072,18.026433332983583,6.897771330529088,-25.555813600404907,2.661998780894416,-3.0635027000737414,-29.590008484612284,-13.819450030700514,-14.516366675115473,-12.977212573957072,21.74812998718995,43.70518521580684,28.209379658995296,-60.600143071264455,65.87460639364505,110.64971342217771,47.93898725586597,-142.1709613097057,-22.673717949922352,-7.377172063088528,3.2836644564589936,-0.7838787196492667,9.791298156361304,-20.256585719641127,2.0877574566147636,1.7142694793069497,-7.967010124337905,3.9929503600174336,2.825631330387704,1.6345732312456542,0.9597650766372681,0.9451211094856262,0.9745879769325256,0.4646465480327606,0.9681224226951599,0.8359758257865906,0.8815795183181763,0.9784247279167175,0.9641732573509216,0.9480273127555847,0.9325242638587952,0.859428882598877,0.7959046363830566,0.9730913043022156,0.9095783233642578,0.7865628004074097,0.8719625473022461
Header-Ashley-Weston-Mens-Clothing-Fit-Guide,0.59229225,0.22684867896324806,17,-0.020831648260354996,-0.3777451813220978,2.5,-1.7618339561915664,-16.834964888882805,-5.328405595124429,13.228009436317123,2.590848700310393,1.426670063594988,-1.1848855291230622,-3.765128546478012,-7.708618945394445,3.257664914496517,2.190095675052946,-1.525067156160367,4.593624943271858,-6.472525460351387,-2.5632820568202215,6.527271987869978,-3.6489999626621628,-0.37795561471609,12.045469757008844,0.19425266106842537,-1.1011686475181564,-0.5896754173697653,6.252526774732569,-0.612089216739691,6.701329540470821,-7.588160021644807,10.651489619111771,1.172953081921344,1.217343975441138,-1.0462639584315974,-6.72315455618995,8.01392925506766,5.8343292328914975,-1.26035666485247,1.0624917408476071,-10.299258471161506,12.568704082340487,4.695565089747475,1.2269362290784804,2.1119139147183947,-2.795438265718251,-17.249166343172593,0.23834267941919485,10.944081262776777,15.774955388189968,8.585457286699524,4.626999381990656,-0.9185637535012771,5.33320892565824,-10.499120051559833,-47.90926910278724,0.687735589509992,20.929514739691,54.91519220995525,29.599379504153543,-52.9849226939017,31.435501692687634,121.44983393404449,73.67545423717583,-125.44996154221914,1.1116038959094665,-8.573544583013376,9.270949585953991,-12.253312413452331,14.419632413447875,-6.252800409186192,-13.512381801089665,-2.1912232965962324,-15.85313885607181,-6.046696889660119,4.108836045230924,15.921835191196505,0.9649733304977417,0.9774214625358582,0.9670747518539429,0.9686784148216248,0.9585110545158386,0.9320381283760071,0.9477957487106323,0.9436048865318298,0.9379774928092957,0.9213188290596008,0.9488674402236938,0.8599447011947632,0.8385505080223083,0.9378565549850464,0.9486945867538452,0.9210066199302673,0.9245178699493408
Human-Body-Pose-Estimation,1.0,0.3643910788248343,13,-0.04500434175133705,-0.16424541175365448,2.5,129.23551192742866,16.734409136374584,82.92745090195669,-26.314022654884266,-4.489660072594155,6.823721407755572,0.969616642782772,-3.0317675067557466,-7.5569033684555365,9.061565868079018,4.951146499621121,-1.6076671951142698,26.63749870642878,-0.37112518542223927,-7.590255182172709,32.490895693048834,8.829306139126382,1.4944087848537069,-9.718617259629552,0.2430700774593428,-5.346330999714304,1.9378570024477864,7.388554573340355,-7.884513391995198,-21.33342309890158,-13.625859417733905,5.55591193930156,-0.15763565674223,3.6459955332010034,-0.6132144904054506,-12.437476511590678,8.423574973181053,15.107625415712212,-3.497378941154577,4.994040514495625,-16.569731567938284,-28.378556614547342,3.565916901267893,4.086197383226917,-2.335565684326112,-2.319544194967378,-23.908257566929233,-4.917509952392924,17.757586841968127,13.658977297472003,-10.590029015639058,-1.7976148626540303,3.041230733850799,4.8177046669197585,-13.524130580235735,-54.04260480763485,-0.0909213371269875,17.27425875063593,57.798973209615504,19.558849452525767,-36.57546151483777,21.523170876686414,3.7115038775305957,39.61995686566842,-10.95616386741853,2.1115536222396765,-2.364888540206623,9.956717654096197,1.969881838475272,2.394954179159373,-8.75055064290155,-10.395323374290443,-2.584202712804559,-9.88287391765825,-6.429983200219139,5.469584324608123,10.380241462829408,0.9754852652549744,0.9698242545127869,0.9384378790855408,1.0006688833236694,0.6945112347602844,0.8912129998207092,0.8817323446273804,0.899755597114563,0.4597088098526001,0.9589686393737793,0.7763041257858276,0.7802885174751282,0.8058544993400574,0.6359429359436035,0.796666145324707,0.800222635269165,0.4370971620082855
RIJJcq9,0.8090566,0.3049356132649772,17,0.0856190025806427,-0.25721898674964905,2.5,19.768322816633596,-25.223951784106912,-11.896454666113028,-27.051254490875227,-0.2450320759788554,32.631365363519315,-29.09000790151609,13.670688510577635,-21.76284221466216,38.10478526623323,-3.634012820075862,5.225749559446429,90.72620187741227,-16.83474290773478,-3.566812082935988,101.20178595086588,7.569991718452573,-12.50857451198228,4.099914537514418,-5.985512055075144,1.684383026098207,-21.226030327034177,5.380948532862044,4.479261963356457,-26.36825435689417,4.5229606598925525,10.60399760626538,1.2089530880457773,-1.827577621882407,1.618251853893674,-11.049760510936153,2.75285865298898,-5.71015425934655,-10.01972956428415,-8.194243687835058,-4.054194958757646,1.2975381869816096,7.367013010471781,-4.142215179704777,-0.7626981429504984,-29.457229607147237,-4.156199992030378,-2.329710291216707,17.534422363669005,0.6013795868428168,-14.412979809196282,9.410046388401302,1.6844833445016414,-24.423151377510646,-21.067858513782316,-29.971740927135126,-4.164531969044147,-0.2534700009660392,53.54712922486379,24.616732598967147,-42.0433182284727,32.40313459240334,39.710210985360966,58.149136517794545,-50.37064046832264,16.43619795456995,-10.67556945103065,40.97895277463669,6.292352754009267,11.971395501686409,-30.96058497931831,-3.818734432405211,0.4913467867786452,-8.926100164949217,-2.986448561282477,3.531196061508956,16.627987958916613,0.935205340385437,0.9479334354400635,1.0003050565719604,0.9757802486419678,0.9954797625541687,0.8322992324829102,0.8180825710296631,0.8743511438369751,0.8206605315208435,0.8762931823730469,0.949516773223877,0.8651661276817322,0.8313578963279724,0.9841013550758362,0.8696544170379639,0.9067702889442444,0.9470582604408264
Yoga-twists-the-ins-and-outs_twisted-lunge,0.8511648,0.34967108774911315,17,0.13959375023841858,-0.3315229117870331,2.5,4.855271134241653,17.261508495002808,-58.75815033513873,1.4589202958650842,-0.2882305145191002,18.192675014739816,-60.32317890042044,0.6732777865843675,-7.709919242657686,21.47953792072108,-5.758892781716469,3.862302074686607,16.158053868546812,-8.702269743206022,-0.31330875467599206,39.870686279910416,-0.8664416728104105,6.973844696844221,1.4664884656305757,0.09133631780981205,-6.843359909166651,4.962574686763022,0.44444144982936107,-7.726870918404011,5.195198550175785,-12.63474518142534,15.442371279387244,-1.0454928941073263,-0.9628275414694851,-2.647655810524212,-15.063123318174993,8.19806773999662,12.651493659043858,-1.981172781503538,5.845819318622752,-22.611875709629764,-5.990475895054452,-3.2406073708180565,-5.835641909872609,-3.1491891307588435,-14.785662251068858,-20.227285915649063,1.86349844050115,13.940616732802894,3.316422043718375,-12.352906816834873,-3.1531002678323223,9.10570511181658,-8.777503423140066,-17.18392437622063,-50.036832048111194,6.125115999068328,3.997213678719991,50.27980236745606,92.70857549154925,-66.72458245471813,105.13756634686983,97.46307017279513,69.22046335103501,-101.16084579698082,-0.33859699646943536,-8.011397816206525,17.469672170337287,1.9078385344889919,8.289378831463228,-12.824824223384917,-8.778613328880194,-1.7900927966654363,-11.984704125284178,-6.202498627269987,5.256131948421939,12.118223224500527,0.9657540321350098,0.9816725254058838,0.9674885272979736,0.9554095268249512,0.809241771697998,0.9176900386810303,0.9504051208496094,1.0655385255813599,0.9903445839881897,0.9721336364746094,0.8681207299232483,0.7507938742637634,0.8916376829147339,0.8861732482910156,0.9616045355796814,0.9351435303688049,0.8777658343315125
aae2107274aee3b9021f125b1c717a4e,1.0,0.5034376145713572,5,0.14921028912067413,0.012489326298236847,2.5,-18.347650299460113,41.904798577010254,8.16950986530315,-66.26142732709955,-7.860849347842042,-4.746449999064071,7.657359229447145,-11.90771081786521,-8.102819044473499,14.011851336977896,1.35513279666239,2.0580894627377555,82.96509207447262,-10.33489669070334,-6.546058423182098,45.252854855312954,0.12235695594674723,5.491038375677956,2.075122673867298,0.573649018812565,-11.716626884323995,-19.555384839069276,16.2161839010255,9.025123393762415,-6.056749220571085,-10.932869507254201,1.0710465527830482,1.4056386304800494,2.1221143753569858,-6.5088462719233995,-5.213629815651065,-4.1408401772474885,2.4849873849209536,-1.6683881104442122,0.06881758432267669,-3.7655195748079953,6.806873465507266,-21.289132737228634,-9.51521678746751,0.9121459370024038,9.698480154409062,-21.472869948543853,-2.0752377198661303,1.0830285188562487,-8.952918902725273,1.8990489348008317,-8.884830454436708,0.6651000224354524,22.26030709002899,-2.3038475664810423,-25.45214840427704,-11.43514539711766,-4.025739110014903,-5.11584711994587,21.98737785343716,-43.45332199016262,23.14024548344361,-17.08161326509572,23.18339520352517,4.755457311032025,12.285122311964374,-11.380934185675269,43.396365042673885,-1.0502258950370278,2.2734071208975877,30.702970734392938,-11.373733458742784,-1.190753728837161,-8.769534299925954,-4.337905648954343,3.3959794468404487,6.699012398794895,0.93658447265625,0.9680635929107666,0.9761145114898682,0.9382002353668213,1.017112135887146,0.666265070438385,0.2644088864326477,0.6670531630516052,0.18063996732234955,0.5254042148590088,0.2702111601829529,0.5234794020652771,0.5010704398155212,0.13922306895256042,0.15672194957733154,0.3152036964893341,0.1337452083826065
ac3c9f33f42f34e8da5bd45a8df6a7d6,0.84117657,0.2759554904370592,16,0.05695069953799248,-0.06538540124893188,2.5,10.884673131149652,35.02846806405948,22.642299079740294,1.1315090948632935,-1.2930979236908666,12.68731885501422,-38.239210219288246,8.429746902869805,-16.63508623301155,21.679088727512173,3.0633953380377252,1.859719851786252,22.605996624301678,-3.7518707224121943,2.204864678472629,95.62562634265664,4.302721210105491,6.486045819813428,2.4476343610106235,4.414960001189018,4.105839299732581,-11.994137470301613,8.781989149877472,1.7883616638759554,-5.9800730900616985,2.610675885697294,-0.39928269363646973,-3.911448700859433,2.6295365993166375,1.6424558031563778,-0.8684383825647286,-0.8882338182441594,1.893174972114621,-9.83612212656316,-9.823230998278406,4.625199627144358,-12.686798906863654,-1.0654795217226645,-11.819242792640619,-2.5545573439291767,-17.30546076231184,-21.28812016168418,-2.2534318057830625,22.930234241938646,23.99916567723481,-1.9430129414975,-3.0678642027456178,-4.809909286642659,-4.612366982354373,-19.719686747101225,-64.79498571229782,-13.09465340786721,20.406861834212453,41.62097348114496,14.092187168221939,-19.391687402778874,6.888892938381718,-9.897249758313833,11.725386601934536,-5.683596349419425,2.147224925510303,-2.294861598854244,14.502004494838229,3.798719843702958,2.124170902627394,-13.610209746798112,-11.000000021511672,-3.1049295049371612,-9.425223068737068,-8.404100396310055,5.631649772573716,11.10018950512565,0.9537030458450317,0.9653425812721252,0.9715250134468079,0.8425521850585938,0.9505998492240906,0.8864849805831909,0.7996995449066162,0.8800161480903625,0.8404303193092346,0.9145620465278625,0.9041702151298523,0.8102253675460815,0.7883648872375488,0.804242730140686,0.698834240436554,0.8329194784164429,0.8585010766983032
b028054e3a4d09dcb5f4bd42bfa233e1,1.0,0.5277565419611742,1,0.07643451541662216,-0.19442477822303772,2.5,44.417181210361896,-51.07335765089023,29.41202741522009,-47.64575015932439,0.39894774756287466,15.085712461307518,-58.2005541818664,3.9926208033899804,-4.178421585608191,48.74512033265672,1.087348506784576,4.434619420054431,38.669734118147076,0.06784428236594987,-11.127914950514024,53.73253812497837,2.102407785497618,5.654690135078285,-8.734281986072226,-10.062612053214428,-5.949342361438519,-1.506987325262226,11.90271794958193,-1.8180512155375315,-8.520784786769614,-9.756806554826385,9.947875120441969,0.6788902810914139,1.0104448455984636,5.833876732858984,-2.8631440099698833,3.84036820282758,1.3783752900777089,1.464169829850768,1.955158298502252,-21.129369489900157,21.444881540872434,-39.23442683796705,-8.975313385466452,0.3709856201115036,-50.63668658177839,23.290012748921775,3.2502601356625767,48.835012452323255,-24.645690893500706,-29.56479484129118,-18.933258766065958,19.80692704582251,15.035901599237908,-11.49787983087058,-37.62338670334156,-24.934594235013908,8.772592517126828,6.428428478409315,111.18441478135216,-49.91224939765016,88.97341824203608,-38.00364382500368,72.95600309114171,8.78616922564952,23.355895046108426,-5.0022704655586665,112.32899739189538,0.6297093438901785,15.899037727294296,-45.0520199729579,-15.078018253207498,-0.7280686569717106,-11.270456729623959,-9.850260618145086,4.791025948021689,9.613235124699072,0.4126836061477661,0.5664286017417908,0.6266224980354309,0.4282102584838867,0.8694404363632202,0.5770788788795471,0.5587519407272339,0.4472540318965912,0.5635600090026855,0.38542482256889343,0.7422449588775635,0.3063317835330963,0.49004876613616943,0.6367877721786499,0.6127544641494751,0.3541179299354553,0.25647854804992676
b03f7fc6fbf7f6e828d24070bf6518dc,1.0,0.34716813403772423,14,-0.05989251658320427,-0.09112107753753662,2.5,-14.138327657386315,-32.77647273243624,-13.046147111929072,3.729860010925005,-1.110501994297273,-3.350578752540551,-73.21134971326263,9.83413795660927,-31.956293371617353,19.08046812569995,2.9599128494701543,4.7077723453415805,33.790626050588905,-2.964553536124355,1.6556271826405127,124.76329530420108,2.0258236490986152,-0.1149594341888003,6.6456310553366595,2.8778440711676314,11.290350509355267,-7.876791009364852,2.0299778982178642,12.535534976183612,-7.037114446673342,1.6645719556888792,-6.531927188676165,4.596493622723264,2.684927512494737,3.115467419609433,-4.213244024431032,1.7537678229468987,-2.631607854182444,-12.606829344513852,-2.8185050952058535,-2.7615722668226237,21.421935520355778,-8.081870000515424,8.695324294593766,-3.955705765360177,-0.04688370579354351,17.583732914381915,0.12157053703705696,10.31071013707868,-0.12542393766770774,-20.466018102613933,-18.55772301266761,8.773119295466564,-20.417744033107578,9.521714858689132,-3.4774847345364455,-19.925603290198772,-4.2940707755216705,37.373883308055575,-16.16357095384889,-6.578645255712229,4.427076756776621,25.001145890739217,56.372477956174585,-39.805901935632846,-8.848784984865611,-12.733403848891589,-19.642814675540027,5.368299876292827,9.676901879273698,-43.773060220683846,-9.52072448125948,0.21287828011014603,-9.156318521113667,-3.1470630209362658,-0.11748018753914491,8.667786679407566,0.9820839166641235,0.9758040904998779,0.9318056106567383,0.967958390712738,0.545978307723999,0.8951240181922913,0.8717045187950134,0.9265379309654236,0.9672685861587524,0.9421254992485046,0.9400409460067749,0.8867688179016113,0.8454102873802185,0.8891941905021667,0.9186914563179016,0.611436665058136,0.5952798128128052
b53b6a6b1c4d2fa1e27a4deb876c19ad,0.67776006,0.21508466138859944,14,0.009437326341867447,0.04469524323940277,2.5,-13.621601648560047,0.7998833469784875,3.3366061064894086,-43.81884639378502,-10.238241829984844,17.85177344307531,-54.3707646614027,5.726033595393184,-16.791574404633003,37.39267315846228,2.5250998052559694,-1.1595281316642725,78.79248852937681,-0.7564039635477731,-12.101101647798597,88.58569572361114,4.9931449059407065,13.02776195023069,14.806799979002754,-2.4758658807278136,3.60240910789939,5.411099976066242,4.802120736554729,-3.3151672099017966,2.34967706859477,-2.3194895534540176,-1.1587229163941515,-7.559791684700805,3.0476654123791858,4.17966425315031,-26.29333571943559,16.434749954465907,11.666712715643188,-13.330693646525448,-1.6064442710877203,-10.882926310269422,10.876507639996902,2.239609637337072,6.359257018250481,-7.315703775652999,-36.83356753338338,-15.440662024547448,-2.7976506066791003,41.47190460250943,12.544583269286587,-6.251893701573874,-4.572350184667738,21.919352584398418,-14.869514775961811,-44.170187909595896,-48.68638753598378,-4.5817113858120635,34.498698101465784,51.50616283293184,133.18538300369036,-56.15264831773772,140.7714282280134,133.86017837293093,63.72244793711989,-128.91359145146762,-24.424937471978602,-16.218859627632852,15.388858454787487,-14.747595899277083,10.564433735498081,-7.924835413760368,-2.5226185255965508,-4.760988483599266,-18.46538227018362,-4.62239071184819,7.212544867297357,20.75322584966568,0.9731970429420471,0.9740276336669922,0.9820424914360046,0.9661139845848083,0.9191983342170715,0.820773720741272,0.8635673522949219,0.904120683670044,0.9397250413894653,0.897026777267456,0.8721141219139099,0.7850490212440491,0.8565825819969177,0.8024611473083496,0.7114067673683167,0.2715226709842682,0.1165812686085701
b694b73c5a48a23ba74b9d53563e3250,1.0,0.40748804538809463,13,0.08012886345386505,-0.10156987607479095,2.5,27.85110550117686,31.17473873055489,5.520356108916589,-23.093053998920702,3.1667055777721647,19.38399831732073,9.322936717047897,-9.457423141805448,-16.577296002444072,2.020606665233195,7.784212917807207,1.969502976419748,21.99084246689365,1.340765173578151,-4.714897940193197,29.99756245729236,6.252871272398831,0.35342517707497434,-2.6550313476107683,0.6768383962152069,-1.1650680554113875,0.9834328348132384,7.254592365601602,-3.7407673961426924,-0.50432729449199,-7.124213445856167,14.013230181416592,1.091857178688725,5.248991839418337,-1.294729271685442,-7.322348695941775,0.19829493243788288,2.2491928196294233,0.8559013568997587,-3.4178529142140026,-7.202494243933684,2.808685204170079,-9.999249242057866,-10.67562409254401,-2.433555420140523,8.560154850919213,-1.389046820325619,-3.6554771164294504,13.660205023975314,-0.40310765293252976,-9.558177823573246,-6.4205105816139785,-2.922966008372028,33.74991812313563,-2.186520711352679,-53.1191017601466,-33.41770113700079,38.64478343710902,7.836577416852756,110.20307369197225,-51.72495428261486,98.63056123781458,146.0576941172798,40.65713816660778,-156.54161102152082,23.8316433350092,-15.307191590428936,60.73905545860417,17.005154419979302,21.237657016548834,-52.16225372913034,-10.729399025653167,-5.842023440991517,-18.03151328617878,-7.01144744954608,2.7313102599312358,14.54420311107786,0.9646258354187012,0.9729486703872681,0.9860332608222961,0.926016092300415,0.8990553617477417,0.8662069439888,0.8256034255027771,0.10305806249380112,0.5651478171348572,0.24243375658988953,0.6454287767410278,0.8446588516235352,0.916466236114502,0.9316626191139221,0.9208819270133972,0.9353458881378174,0.8832343220710754
b80e5ab19b9afd4b4036c2de49922714,0.601938,0.22724467012679803,12,0.14490573108196259,0.04424881190061569,2.5,-38.73661874559443,-13.892547568971636,-147.96823463191575,-56.614331539590154,-10.549790663691219,4.087632576726266,-67.49409888736844,9.445292725839506,-14.352384078427221,52.411046784742645,-0.41682120536246087,2.717067607964467,61.70708450929174,-8.09070570398048,-11.224989867866476,77.40410231640998,-1.0003234657438569,11.50342850579757,1.1190988545847917,-2.78418488873042,0.18949747536413455,0.6875820169753725,12.32281214957815,-6.182345727237042,-0.6061557567025069,-12.276658000035434,14.338602464229428,-1.8599192079326519,0.9653486283251603,1.4866665519860858,-16.82981321870132,9.221047370104232,24.959929114192775,-10.840567184584295,9.923953236647645,-33.30751311021556,33.3122191105537,-9.850033514355182,-10.945803324221266,-10.255039826474844,-22.574480423923944,-15.129289068212199,-9.772627834265075,24.80215174436548,12.485625076371036,4.199417160229987,-2.6521481540073766,7.088593155560905,-12.244911280773216,-22.94204534656089,-18.87108355405133,-16.384274856499513,26.02119878478748,22.49088573867216,5.233172267526941,-30.99893649150793,15.829943533650447,-18.246170763866647,62.5122135482745,-13.85264133497219,-1.144689865857537,-7.862673862124082,7.316444851177945,0.9458550549905324,1.1723504244487963,-0.8897866190632795,-3.7351756056465675,-2.7683565656591504,-9.38713964147237,-7.25875195080614,4.6158776995877595,12.267545673908991,0.8161617517471313,0.7801294922828674,0.6792794466018677,0.7778248190879822,0.8870048522949219,0.6867581605911255,0.7958659529685974,0.9133889079093933,0.9491944909095764,0.9283934831619263,0.9093754291534424,0.47939056158065796,0.2659611701965332,0.8898791074752808,0.8818353414535522,0.37401360273361206,0.9171562194824219
best-fitting-suit-for-business-men_large,0.57671547,0.23082128439669014,17,-0.030241023749113083,-0.3344069719314575,2.5,-4.014856484232957,44.56273254157487,7.287443014188424,-1.4557240874986357,2.258930961838569,1.9529959032997082,10.671372299785679,0.3913950791251479,-0.8498689658413151,8.095106907126908,0.5338434233816711,-1.3419794531465323,7.686650495702745,1.3366492375512777,-1.1768296411621495,2.6523199759536844,0.2958851021858482,-1.6392218153060825,3.82662799665163,-2.722805607197512,-1.1600311110636206,-0.9910694131921358,1.8604161041947702,-0.34596789116178983,-2.366545501410586,-5.1425996902643405,1.399553358816391,-0.5977978463142326,-1.293126098221193,-1.085962725435004,-1.1414815979383353,3.4772149420642298,0.2582032153391523,1.288179974045046,2.2814249092095364,-3.4751582013504096,-2.0699865850548598,-19.857166502262537,-4.037677426910439,3.301013563837649,-3.520660708157623,-22.110671305692353,-0.004603891844842405,6.661153940885983,18.865405959303757,3.446856458750816,-17.46084585838234,-0.6569288216714428,-1.37266824013934,-10.373468476493695,-56.46608228365503,-3.2205430498009093,13.287739440608885,60.58349107006796,7.527741875794167,-20.610258037506263,7.450583790061471,-0.2797872534466273,40.60730510642337,-9.185320358103187,6.3254646573318425,-5.62732797037639,16.7264109848565,1.6052466401054408,4.565902059204423,-13.090233421700566,-13.03302802608077,-1.6487773566766362,-11.752926778441674,-7.810669655557251,5.238508352816013,13.270362585586726,0.9601033329963684,0.9797819256782532,0.9635097980499268,0.9750463962554932,0.9638610482215881,0.9169520139694214,0.9366104602813721,0.9243483543395996,0.933959424495697,0.941382884979248,0.9343805909156799,0.8563500046730042,0.8555483818054199,0.8973456025123596,0.8879011869430542,0.912899911403656,0.9126302003860474
c7406de312d0ef6932e4b79647504f02,0.70441616,0.27384117267287844,17,0.06455863267183304,-0.3420651853084564,2.5,-2.777253313939915,-17.488373228284782,5.711213792441548,-7.512164775618307,8.499340554096712,6.925495495256993,-26.15612746429379,-4.714006173619687,-0.9455745903477387,23.64590146317258,-1.4377183214643068,2.7581686981818416,27.90530817488279,2.2478980718948827,-8.089739232212924,72.0180268728022,-3.7882329420060494,16.678985566354516,0.8478584889869513,-2.9894359152707115,-5.627015916108685,0.7897207191845961,14.030583130776655,-1.4503744485529289,-0.10794390276637822,-6.703733767058665,5.15812471024778,0.36652086418928376,0.9260876337588692,-0.5337082603412989,-6.360226905112622,5.635078954423886,5.846278648844435,-4.084679373683882,-8.41689760949372,-7.370148921074462,12.838117479057054,-9.497912503205283,3.0395863658081184,-2.6647671419423866,-22.626208861603036,-13.503514507999697,-7.423109354125096,25.003119815409352,-15.016527767657166,-19.712646529614236,10.922870964082948,11.371392411404761,0.3357663099452882,-9.231076649126749,-51.32406998965931,-32.496523768924924,29.06055612581499,9.151399077363966,33.78715289939595,-36.81222319222709,30.342944633052397,110.00550364004046,71.1789449634553,-134.5646987254394,5.35175502368894,-9.966080989674637,15.955029910562768,9.336223996304511,12.888449996824525,-3.7726455965464343,-15.388844794409147,-1.2702199916224974,-12.714486786211593,-6.887820171795203,0.6396895309280365,17.14508279795806,0.9921470284461975,0.9981997013092041,0.9510493278503418,0.975309431552887,0.9886189699172974,0.9356092810630798,0.9227167367935181,0.950108528137207,0.9731050133705139,0.9428826570510864,0.9550324082374573,0.8567149043083191,0.8522214293479919,0.9770042300224304,0.9496469497680664,0.887309193611145,0.9216600656509399
c8640bec672b60b0cf5581ab47ff54b3--male-photoshoot-male-poses,0.8716854,0.26731487075312954,12,0.056597545742988586,-0.09975793957710266,2.5,31.33605413837225,-2.3893137235654116,3.9066090849456563,-58.519455714214295,-1.448428911856533,17.890389625095267,-58.1369377999369,0.08396168118764863,-11.139418696623618,44.73685113899142,2.7676923297623666,0.9107755235784641,27.30956712264323,6.040230834950233,-8.486017416346955,45.894120825917945,-5.44325479913137,10.197711487449988,-5.112691572549324,-4.066645966727756,-3.784226609171014,12.366932610295493,4.0757642692697225,-2.677676626360534,2.4711351209539334,-6.597337349036438,13.23398670561453,-1.2362789673677057,4.902350774416904,4.473492161055089,-18.020936738249016,14.473691653181232,0.1986428985595833,-8.537125160585223,-1.8305032907246994,-27.57365467935448,-0.7741981004395372,-10.39625996398038,-9.466226401871948,-2.9583681595006737,-43.836734659221285,7.363237623408056,4.6303918515740365,42.60342106117042,-17.039255846957886,-24.019652829650262,-11.059111893683546,17.826158526140468,-25.06074782898404,-34.26939499065011,-51.461817829745534,-30.397770561520087,26.634734187362216,48.968740726082935,36.201614525711705,-20.211953848509676,19.782736223329614,44.078376506772585,32.85129745479373,-32.90601751532929,3.7423063231400606,2.0716119566339115,14.103683230368716,9.380980518388311,7.50513053454684,-24.835196199570003,-5.930639595943732,-0.383451382357438,-0.8166002349720937,-7.399731324143434,5.332802956289448,7.757220010207317,0.9369207620620728,0.9495595693588257,0.9567067623138428,0.9445807337760925,0.9106734991073608,0.7212880849838257,0.8119831681251526,0.8823521137237549,0.9283835291862488,0.6550518870353699,0.9274536967277527,0.836842954158783,0.8343283534049988,0.7630519866943359,0.6924906373023987,0.5182520151138306,0.13723985850811005
custom_resized_539fa07b-7db6-4cb5-bb35-df8840a2597e,0.8970826,0.26685848527240563,14,0.026292946189641953,-0.046997811645269394,2.5,14.644958646619303,27.57434794355524,-2.8866129668448703,2.61793402890749,-0.827004640790433,2.391868000871585,-9.549647771073545,2.5056916092859667,2.394318544679739,3.6489713612450134,-0.47955745338438005,-2.2982448903709276,4.328130794478408,-4.79983475761689,-1.276399818717478,6.148414628100888,1.0359852707826687,-1.7024064012139895,-1.1655783986084345,-0.7330896997853164,-2.5721724017986394,-0.19413725488383596,0.6740331094570358,0.6815194770350458,0.8991982462135868,-3.098478391266084,1.938508645183288,0.028235078219067043,-0.42401518214705614,-0.9628015013732745,-2.030798374691912,1.792108236079119,0.419763736234267,-0.8157675388627339,2.5338569615455717,-7.20528522998328,-11.858813493597088,-18.06611160941948,-1.227568768628647,4.500235766750274,-5.286899389311907,-12.59875520714125,5.40544159122571,6.102158452607446,8.114362917944467,-7.183669388807482,-13.684890181409385,6.468238662873558,1.26772932045297,-17.899045182320968,-63.56302449170262,2.4480435320305896,11.96667584096993,65.2488654430235,38.978270838429474,-49.8504225252832,26.283570256469766,47.465296561452654,35.56325821569314,-18.730931487377255,9.367179267396654,-7.491071443914015,18.733834317774512,2.570848198873303,8.795126164972345,-17.62846382325633,-11.878370886511775,-1.2254515167076487,-11.077612314824172,-7.692091595150306,4.997334373222863,11.796873923108828,0.9661173224449158,0.9912179708480835,0.9632244110107422,0.9377356171607971,0.9322037100791931,0.9335719347000122,0.8753637075424194,0.9340941309928894,0.9548853635787964,0.9187238812446594,0.9556229114532471,0.8330548405647278,0.7813203930854797,0.7962859869003296,0.6974852681159973,0.09152595698833466,0.13131560385227203
d302a8ef244108695e02a77e28861908,0.79952294,0.25017777674869296,14,0.06922180950641632,-0.034521330147981644,2.5,33.85151377194498,9.29075457322609,15.77785651103993,-71.59923382384287,-8.722609192780673,5.418292165262266,-66.65298158164889,6.322293742009664,2.0200598232127707,41.26930753134852,3.492211049273816,-0.2661750332763357,80.24434769030057,-5.804336164698679,-8.125143517775687,59.88605362372879,-3.7323995606357805,9.356499412855694,-11.493791108878682,0.22035077386640442,2.770751400736886,-8.091187232316967,3.0434744509931484,5.634675119489208,-12.04615619102043,-3.027376122006251,6.245190297790329,-4.230948728533351,3.7130611606613586,4.230950862967466,-12.518842847625747,6.72157037918933,2.028824023134955,-7.45250648831283,3.6110847288057757,-21.61333449637246,-10.86245708710054,-2.7351223592617493,-6.678603366668073,-8.627940209563357,-29.293110406675584,-14.13565705342084,-4.531942358651119,34.141704604116725,13.726813882534923,-4.477797314666312,-3.7343820230423765,7.586062299795967,-19.150194111842026,-29.678442358891026,-64.30830058298856,-18.683097965072363,28.058662997222502,58.83118554793368,22.148421761235014,-33.53228439051693,21.4675748443898,21.11838825326207,41.94011407011381,-26.439916701665943,6.496607426704383,3.4602207910790033,25.982814829199302,0.08278737556818906,6.634641707848933,-24.05804190788032,-6.829521945908206,-1.2440109549515717,-7.631563312499299,-7.600101753634928,6.865815436723538,11.70819586956726,0.9336614608764648,0.9655503630638123,0.9573364853858948,0.9150403141975403,0.8555054664611816,0.8098294734954834,0.817003071308136,0.9317587018013,0.968796968460083,0.9105507135391235,0.903671383857727,0.8461161851882935,0.7853572368621826,0.8204997777938843,0.6263636946678162,0.7288137674331665,0.6896550059318542
depositphotos_315465728-stock-photo-full-length-portrait-girl-wearing,0.62666947,0.24393736187507856,16,-0.01943032816052437,-0.2971881031990051,2.5,-166.18403495963796,-50.435499944681084,-177.88570629100056,-8.888821846232934,-0.8245535100128976,2.3647438255735835,0.93130536467623,1.030937760986029,5.166343135366597,3.29790540087847,0.21658816672694722,3.0493067922141046,37.021445546882916,-1.361782732871338,-1.3204230559608547,0.8787851586619458,3.995292261129102,3.164656521021161,1.5106961179815428,-3.2855111688558356,5.068125441988637,1.5134605303263997,12.528867004006386,-2.8336638462950505,-7.055346356002222,-10.563567155247135,-0.2879274782355338,1.235315910694734,-1.8890585024792188,2.6719155752390398,-16.435866690395205,1.9862597783313165,4.622440230719673,4.904680722697525,-1.015774100698366,-7.529965956142652,-7.011175522639749,10.508092358808293,-3.620179979459294,6.8984598989747905,3.0343516661395387,-26.122178009024243,3.9714216037535532,-2.485161127857966,25.484062463173924,-5.7931517299327835,6.393179579650172,-1.048981626669322,9.209284076806178,-11.963624453958227,-62.553030758754495,7.707317794357557,3.5685520736270484,54.088783716613314,13.852633651009375,-16.967222964423637,4.009137481463541,-2.5903562863599174,12.440515091997687,-11.855464139582844,1.6764500815423544,-5.876546205264523,-2.5642653906172916,-2.188369344740225,1.5692924175927878,-1.7822930407983992,-10.233473504170528,-4.554890513601893,-14.627000371744046,-6.49522089830287,5.348181980979377,16.73924320275966,0.9019131660461426,0.9173030853271484,0.662419319152832,0.9030399918556213,0.8770618438720703,0.9535929560661316,0.9495190978050232,0.9280654788017273,0.9057603478431702,0.9374240636825562,0.9394630789756775,0.8158140778541565,0.8772812485694885,0.9153682589530945,0.9072934985160828,0.8317970037460327,0.8699200749397278
depositphotos_315497676-stock-photo-full-length-portrait-brunette-girl,0.7769818,0.29462398961943365,12,0.09164738655090332,-0.2334129363298416,2.5,3.3180540320431846,-63.752234392090315,-7.27257966878083,-7.533321286572421,-7.69782810027947,6.49820227587558,-85.78578944695865,13.105051517104908,7.657686224753659,44.723265892732265,-7.629420340647208,9.847120438674171,128.96418949283907,-19.52609528036097,1.1067092115955062,127.1645985710808,9.144980407091445,1.8451209627655847,1.3371866880615932,-1.0900204981322261,6.44069037551678,-35.80758432758825,6.448135281712094,13.227655974027575,-19.42171120682296,-7.618825863470872,7.451849082605216,-1.7653253567962066,-5.372444947345378,2.8659055408286838,-26.783599867869935,12.577739568838767,6.263190834461074,-11.630014963006355,4.447872548365194,-24.323321332601736,-5.4950963618185895,18.979784307144794,-9.656221774014194,-2.541819041127103,-23.15433787124864,-16.675596084978896,-0.6242247019866582,9.21895477089727,12.31291776679174,-11.116553784603354,11.607163711364432,-0.5862319881718738,-18.43460202268896,-18.61497536583795,-55.023419972448686,-0.253920606688275,0.2960212790824253,51.690379865036256,2.2574970489996895,-19.514460053109854,16.667852358007394,101.3606971320954,56.72672913257188,-129.73300924619406,6.498725639120733,-1.8406442006514643,34.87896546841166,3.922690338459628,10.256323048265159,-33.527100276936885,-5.2192570377535095,-1.9132166681301424,-10.785694298566058,1.4908257103038005,1.4168255198451782,16.95516426544398,0.9684934020042419,0.9634361863136292,0.9958670735359192,0.9433987736701965,0.8189680576324463,0.9033932089805603,0.7228349447250366,0.8393818736076355,0.6321910619735718,0.9409253001213074,0.9137548208236694,0.7102975845336914,0.44246673583984375,0.8996197581291199,0.688365638256073,0.8240695595741272,0.8758137226104736
depositphotos_315541472-stock-photo-full-length-portrait-brunette-girl,0.73370254,0.2657246511119333,17,-0.07911702990531921,-0.323700487613678,2.5,-12.520072281676349,70.91305935944504,22.701033583960527,-36.243995849511634,-5.308206591314585,18.82941086237779,18.05571093886084,-6.541424139830244,-3.0798441411064084,20.55146718422538,5.666516180739339,-2.370498473392731,65.13838030300938,0.10714267622001077,-4.391952082083007,0.9546059146994939,2.0580218011762903,-1.2549076679986808,-0.32219419045594394,-7.830618930575566,0.08409196838008795,1.564712028702354,6.244535453403654,-6.5405827459018635,-11.086768183406575,-4.618205940321087,-5.4979919351398525,-4.678324838508717,-0.9816367085049367,0.9487440115660362,-10.21709897940907,4.073774976673956,3.7144967810475307,4.9427901900584335,-7.14850117165791,5.7394630279618974,-2.6216150739833037,-25.72206894253948,-8.11740320589877,2.067553757049866,-8.83306701203812,-20.627099576452224,1.2595057726922747,8.883163888279224,19.55508601829309,-8.957460124749685,-24.851952361151337,5.872915532833838,-3.5610973490348026,-10.114020325776176,-53.38646951520675,-3.8880446307815615,2.869033554025138,56.47510496354861,12.867292632096763,-24.99409201287389,14.697395716424783,-9.491058408373176,19.69930033997603,-8.191456970653693,-2.3650298397450777,-4.916674534880067,15.145027531607202,1.5882038240223781,2.8374349644905434,-19.942400432915125,-7.822456854517401,-3.5782191391801437,-13.781236829841585,-6.992778834997143,6.913925581689814,14.9826278312591,1.0129228830337524,0.977746844291687,0.9598932266235352,0.9111865162849426,0.9397487044334412,0.8025662899017334,0.9155393838882446,0.9084136486053467,0.9084176421165466,0.9287382364273071,0.9713795185089111,0.8465257287025452,0.7857496738433838,0.976363480091095,0.9029970765113831,0.9247289896011353,0.9370763301849365
depositphotos_470210122-stock-photo-sexy-biker-poses-photo,1.0,0.3049407992899926,10,-0.13663215935230255,-0.04382577911019325,2.5,-127.08424822568477,67.17372203415982,147.05007962254763,-1.9545958751127837,-1.5281500260752756,4.734811783605192,-0.44599678528899345,-7.550779250090974,-1.7022345792676814,24.190252172096965,2.381875647559268,2.8590787667532562,41.586282950350466,-9.30490331009177,-0.4231301924018635,26.96907194723434,0.5328076358662093,2.555719756748548,1.9573059661093977,-0.46714742654929,5.777943886858926,-10.54448360670612,12.16180410027344,2.2902209122000436,-3.273288331892686,-4.183953611949078,2.4621246073348053,1.5538258811041172,0.37932928315205594,2.7918919034351335,-8.583124777097966,5.985716533863422,1.668935059186342,-1.4925285618412494,-1.0281728150326435,0.04788905761253782,13.756349328053352,-11.81412441963134,-2.3131014055893515,-6.00391813422786,6.823568582272893,5.577581568217072,-3.948707809668676,1.3492321535497338,10.994702356036681,2.259156571524591,-15.808131324536012,2.5719134949404134,-21.82385458697059,-2.946126539517307,-16.14717849984086,-1.840233748971029,1.3135979894327194,40.32394787851622,78.16454825784253,-70.25644595377504,116.89299126700044,36.630871424479494,69.56974556481113,-72.31867813968782,-9.89309188065659,-8.503433544956842,-3.9108971630839546,-24.99497993746599,14.679879696298284,-44.14296960575339,-0.4864630414395274,2.056543278664394,-4.914791537103259,-0.6147666508943359,5.719228165658912,12.832962393780987,0.9555219411849976,0.9567451477050781,0.9367891550064087,0.53813636302948,0.9318931102752686,0.8221206068992615,0.8601999282836914,0.941840648651123,0.9260549545288086,0.893784761428833,0.9334214329719543,0.5391954779624939,0.7031249403953552,0.3769586682319641,0.6487917900085449,0.05585513636469841,0.03154214099049568
depositphotos_470210180-stock-photo-sexy-man-poses-photo,1.0,0.3770745082269051,8,-0.11788390576839447,-0.09256215393543243,2.5,-146.82001153054492,65.26180865150069,165.65783718598016,-5.419042205410498,9.119765056223052,7.996087093408295,-1.3147441805528122,-8.267141443072958,-2.701837353332396,16.394400611944057,1.8190063748042755,0.8749179375703964,19.249554581245494,-4.301998063827116,-1.26797926268791,25.199308461581506,-5.657433736690514,2.655906465598176,5.27584857012165,-1.6280256411525507,1.707867030733709,-5.810184941062325,9.213659666743217,-0.7766743108179313,0.5806704532793381,-1.4678845989856086,2.5185880736560082,2.3537943920038185,0.5391677159222548,-0.16756416379406336,-6.942606826675168,3.0331583040254904,3.6386552142773554,3.8328498720986883,-16.806484707591142,14.188259755313693,24.38656546922147,-24.076237531829236,5.019678910205736,4.808903541287374,8.20156821194625,-4.745523654657887,-0.5108366782144237,8.393774004058642,5.123919549771179,7.441268265807221,-15.46595079994942,7.493211854445168,6.9562983677532815,-11.39776633311112,-50.24687402546742,-5.964967272938569,12.202467631497111,54.093465811289356,60.372807054929744,-62.231342509225236,64.424502591338,23.59564663880692,53.20138846417233,-30.52898874075979,-22.411880940542623,-6.367301273545463,13.002360476707413,-16.425512123613466,6.999463882647293,-16.35395052413195,-8.716765112172082,0.4554802361472917,-9.13066859945933,-3.544235746408157,4.855411580006461,8.46103258436305,0.971679151058197,0.9618293642997742,0.9710817337036133,0.4488884508609772,0.9651360511779785,0.8432397246360779,0.8536867499351501,0.3409794569015503,0.9210464954376221,0.6646003723144531,0.9410889744758606,0.6441518068313599,0.6311109066009521,0.7445173263549805,0.6794419884681702,0.08362813293933868,0.044647399336099625
e760c982b3e5c7bbd9398c7da5e08481,0.6406993,0.23391696225198902,13,0.08779072761535645,-0.2170829325914383,2.5,3.7834027176023812,0.7219822113692889,-178.96519036856438,-20.697158534316337,-0.6612388844811324,11.534799564655438,-29.957380454405175,-1.6904564516525233,-8.64347120596232,20.778075785413478,0.19161384683106003,-0.8918542453910893,49.79043297380298,-12.551546647145415,-7.610708183642312,54.643436058353366,7.786625682131514,3.8056541932578134,-2.952146497497027,0.07320054472752165,1.5438929717819203,-8.959509181500689,8.954438619815601,-5.060087589996002,-7.408469697412819,-15.351201914345914,13.211219977563585,0.3998325238646558,-1.1926422761426694,0.6657949941835012,-13.162997134476003,8.646055578789525,10.37764001452928,-1.853149636691523,13.958942130346038,-24.071519578660048,-14.22989402717315,8.887510449912291,1.2864388094152215,-7.264354413472843,-3.5777151992854437,-12.163692647578948,-6.143963479196155,7.625457977154954,17.618500284804572,4.613149465901163,-3.202692350405081,-2.506572703688898,-8.969593102036566,-7.95103772696383,-7.190066714738846,-6.933124816559897,15.920084955221691,22.4409263199881,-9.02290870492404,-31.47096061976376,5.143469258723048,-6.86061254012328,32.648297402471776,-5.647019405753537,1.6875795546297727,-2.6463474024113314,4.914639565394226,2.6972493872008516,1.806231786622236,-2.638749670733339,-10.989087086765284,-0.8092634378647364,-9.771158489819875,-4.895640540444189,4.3283049643022435,7.397781305135395,0.6488839983940125,0.7615247964859009,0.5743348598480225,0.7134347558021545,0.7236494421958923,0.9471269249916077,0.9803222417831421,0.9541932940483093,0.9495353698730469,0.9349119067192078,0.9117857813835144,0.8589556813240051,0.8389773964881897,0.8869197964668274,0.8664316534996033,0.7791576385498047,0.7557817101478577
ea139ed5715e1ce55ae17aab62a92229-screen-small,0.8699865,0.34473593485607873,11,0.01566217839717865,-0.5441442131996155,2.5,85.39633206048451,5.530369166239828,82.27121315669103,-72.12196186140228,-4.557344685948043,3.529377310199029,-73.49454984681887,2.976703802327573,-3.637051400482872,58.71339210550764,4.421698409692059,-0.14298283323950314,23.940700965486794,1.8803615372316769,-10.467146228507712,30.300915063994722,5.2744714332302465,4.267181601419799,-9.208008538978678,-2.9410051783002666,-3.5333915404402925,-0.25054777389875804,15.521505851111012,-8.07700092941085,-4.614552216001954,-14.924195562909642,15.760574424892505,1.3580364808332919,4.007614776165451,5.981535177430905,-0.9783382607443494,5.753418811983527,14.532446647968975,5.4709960393322,13.763286238929146,-28.39233481365055,-6.9239860234504205,2.722554811188926,-7.871303806140394,-13.554912535277689,-41.29661462765022,19.2643129124946,-3.1028238856820933,47.37172980001265,-25.578745960543223,-18.270501605237527,-9.393028972084213,11.396378097162314,-22.335659444499864,-26.746448761426944,20.6453720400293,-36.67563648429976,34.82714140808419,-4.675844199179533,-39.57933431557977,-27.3083667168966,1.9533608915334808,-30.313656781891382,34.65350092390954,-8.760743846464148,6.433289865551072,-8.051827413451123,16.60404814587572,4.459489846369739,2.5339641101381765,-5.443536544434633,-7.199052682365643,0.686413734462183,-1.4785058633100958,-6.168923978631144,4.7337595075861865,2.7327973201795945,0.9905768632888794,0.9335852265357971,0.9046173095703125,0.8467008471488953,0.7062814235687256,0.7810496687889099,0.7061821222305298,0.8572645783424377,0.6826213598251343,0.8159995079040527,0.81453537940979,0.8821959495544434,0.6321730017662048,0.893642246723175,0.7182228565216064,0.8792915344238281,0.7434181571006775
eb6299babe6a106cae1688998ee77318,0.9107063,0.2341783588885293,14,-0.19490137696266174,-0.36879661679267883,2.5,-6.695025275866899,29.61366142970804,7.474106107789349,-87.21109966257856,-16.641486120263853,11.778530596319113,-66.32559695435182,1.5768773426660871,-6.551288213652212,67.8029873623931,4.469597245680889,-6.890169329982864,66.43909420778994,5.458484840320029,-3.8816242529617497,52.22186079001705,-11.65018280407811,15.740138498895828,-6.665206804384739,-5.520470087698364,-8.719326433110837,33.698257987348235,-2.3699915452902687,-11.153639150475584,32.33650609704987,-3.456218300225376,31.44331542909813,5.138577135730026,7.302477968098915,2.452050932082683,-23.988865751966433,5.9132465192222945,8.399881900723924,-12.795696881669398,17.147377741519186,-56.36406316311713,32.96999931237938,-17.96898119678002,-31.29567064490455,-3.0396410073214786,-26.509415584018114,17.030470516137957,3.9850640528470076,42.15141280227732,-13.427620007263453,-17.023266374110886,-26.356041978658187,11.990794946476537,-14.659121043863324,-33.66711573982756,-20.031679543103653,-34.93586435929245,34.376451375700896,48.06625417067081,124.46678313195248,-35.19038452852381,148.07126120535622,106.21125159382834,58.099890853878755,-123.29474999113498,-7.875564990408835,-24.496039741238434,78.65457334965592,5.853172871037916,26.606153260780296,-70.70798975980458,-4.311881347556125,-1.7518439507567765,-15.9235905498132,-7.834456643115467,4.981163900362858,13.527193066304838,0.9412737488746643,0.9743968844413757,0.9777292013168335,0.49373140931129456,0.953988254070282,0.6427821516990662,0.7835378050804138,0.9374709725379944,0.9409153461456299,0.8092697858810425,0.9325705766677856,0.6346336603164673,0.7715027928352356,0.902455747127533,0.9477975964546204,0.8849713802337646,0.8391205072402954
ed29c4f66a9dc5814821378a6498c4df,0.76015216,0.288639660370205,15,-0.18505311012268066,-0.3166812062263489,2.5,-48.2909742245534,1.0488460901029795,-15.641192963484437,-59.603427226062834,-5.058495729032566,9.937419808369972,1.6522555237897594,-9.678171440685675,3.1252725830498096,32.1901112374744,3.349107273661236,-7.535547928241845,143.60938548853204,-20.76682817139776,-14.926939591408694,39.89634047043299,-8.259229522693145,11.4722401545,-0.14814273433254366,-9.710584957165617,0.02323049222599825,18.858775553166968,0.994609158729495,-12.164140024969583,-8.627737865209196,-6.875345685049821,-1.9254977751446485,-1.025769015331622,-2.6125966629579485,-0.31108141931548033,-21.66916104755356,6.263472579764337,6.002320723735723,-10.58826085041767,-13.226323233365777,-11.090978141256242,31.348232365662383,-22.013062779810994,2.802946137719976,1.4054592312926308,-23.087714498537043,-12.703950365643202,-12.085078024005748,22.955903800386846,-1.6096850891271854,-25.559600940299678,-9.012379114544819,13.038991634999837,-4.787586947774588,0.12381562822136807,-27.76019909841858,-17.32347026360587,20.565262458801513,26.31317912652177,10.45288137842614,0.2195909019810273,5.96869570245175,119.69067773217269,45.77422027013295,-160.16244456470633,18.575320995064146,-4.0909593057388856,15.161380712027505,2.4847374426860136,7.925238394921399,-15.291514598736464,-20.74613952840179,-0.24258001138639437,-10.971201382649959,-7.642382332144599,1.8931482916881754,18.68698263516281,0.9568318724632263,1.0074368715286255,1.0204812288284302,0.9613812565803528,0.9551646113395691,0.9035443663597107,0.9345309138298035,0.8934199810028076,0.9543188810348511,0.9252197742462158,0.8404324054718018,0.46810171008110046,0.669735312461853,0.8415595293045044,0.826266884803772,0.9074503183364868,0.8629253506660461
excited-curly-black-guy-expressing-amazement-indoor-photo-jumping-funny-african-young-man-excited-curly-black-guy-expressing-223170596,0.6613908,0.23825877373348733,17,0.18175958096981049,-0.22054091095924377,2.5,2.857637383394972,-52.371284838489416,-0.07614308893954098,-52.41730323802238,-12.521829347840335,6.87933750373287,-72.19591914973518,7.163007212794548,-6.233342907788119,28.875314565335074,0.10841224430209351,0.674865058514455,101.96126200543628,-15.510309463514067,-4.610567227508075,103.09143974701995,9.240234225256444,6.105367787743705,-11.466716239008752,3.067456739272944,1.0976411749769621,-20.30300710033512,3.5142924105302327,5.042252258525806,-15.529476681872417,-12.45350611179905,10.673281337658697,-1.5662497817609589,-0.23129304374166898,0.5247624734367277,-23.29582694745275,11.073238432434426,11.313655968576997,-8.547937350041353,12.75011049160144,-25.07457896205332,-18.85937148717205,20.909360558997584,-2.3452771461088124,-7.291640165433398,-7.779950879765119,-3.108378110137783,-7.2020349137120006,13.119611772868083,8.987295244817947,10.078972063823901,5.708256320530933,-4.966471309684514,-20.46366168735028,-12.12034058314323,-23.89907437759015,-17.93874736441896,18.208744742309563,19.56556352847989,-15.45584895016697,-56.199226792782625,7.049134725838917,-7.494799019653549,58.272558036096676,-17.551619072451807,-3.7871968876863233,-3.474829498496603,9.514503032699245,2.58688100073285,5.0369332487096585,-9.821919601957763,-4.084618328868174,-1.2679287833210755,-9.491486148969948,-3.3897989794152332,4.6003684744167765,7.012596201987112,0.9821168780326843,1.000019907951355,0.9658715128898621,0.9705847501754761,0.9540799260139465,0.9271533489227295,0.9500983953475952,0.9580066800117493,0.9739995002746582,0.9677824378013611,0.9348784685134888,0.8820158243179321,0.8758299946784973,0.8748359084129333,0.9316672086715698,0.8977158069610596,0.901948869228363
f5f959b64bdc5ce7c6319674a95e7030--tumblr,0.8642226,0.33642853083932456,8,-0.3730640113353729,0.09651251137256622,2.5,-93.30101243977782,23.74321799846692,-175.09855197752847,-29.660970734994134,-4.971280616633849,3.134441471680317,-40.912126203797285,-1.718994689552129,9.565825927896366,38.28611654341331,-3.12843965639058,2.99239381406815,40.63461561781966,-6.02447188098772,-4.568582908453653,50.81525163234462,5.199470406614806,4.595020863183479,-2.2332086828677125,-6.41378882169704,3.3907308733501167,14.472742256886601,9.56412350324574,-12.037257308305549,15.912694690539738,-12.277530556701905,17.869864906639382,-0.16940715427141642,-3.7254814327802035,2.2285451577684747,-13.815862473838965,1.1193848687562862,10.773049910865073,0.21172127007712965,12.697209822706045,-17.47726904824163,26.488132714564355,-17.95001546900219,-8.348917590458228,-11.93027605533564,-27.299344037003014,-2.155016036919172,-8.756901865056015,14.987378227826845,-5.909577426977528,4.943377159440232,-2.3095366871728396,10.83397434448794,-21.786379046542024,-31.92232001068571,-6.150400078715245,-15.181797855003964,4.91197835293886,5.728005812516025,-12.64694219173569,-55.694687548982955,12.52915557949882,-10.049873750412354,31.675835559012874,-12.716459003334434,11.13641597470975,-9.574720541743016,12.949109760617054,-2.4332070804928523,5.61420504254668,-13.11151970624891,-6.970018937135368,-2.376610212039423,-10.114503561659953,0.7255129389225095,5.952208479568986,8.545513486659644,0.34014639258384705,0.3929837644100189,0.421217143535614,0.9034115076065063,0.9234971404075623,0.9300245642662048,0.8778731226921082,0.9607962369918823,0.8547251224517822,0.8864328265190125,0.9395382404327393,0.5094766020774841,0.5437332987785339,0.3282774090766907,0.48071157932281494,0.44194865226745605,0.4320274591445923
fat-man-playing-sport-25234036,0.81616586,0.2921664945609565,14,-0.13095776736736298,-0.4373060166835785,2.5,51.003604343991476,42.773731828124696,-37.52991897964452,-42.11771264891248,1.081649460974141,10.602495818421623,-45.65670686546289,-1.3096295428032363,0.11587888170474715,49.00908323841562,-5.670099468732657,-6.031279018269284,16.46517673967102,10.8058766537898,-1.3732071847535363,7.340114017972978,-6.361548119830196,0.1611013907766297,-13.273289321646077,-14.820414253565882,-6.126980640711741,6.138682889194088,9.33335190175852,0.2960471324156509,6.249848486804278,-8.508799512323533,11.130078412933626,-2.115809683866241,-6.284490779387759,1.4083795640496344,-3.2417119404728942,5.08945654965341,-1.1983564764353256,1.1204539000830989,-2.5188288378242514,-16.855334220535074,-5.386759743185256,7.040224744066636,-21.227338308260236,-0.636790115625366,-39.752930403524815,-2.5932821686456218,-2.0499828819665966,13.540449609710187,15.616817725883955,-19.08619011667713,-7.846654507199464,10.675382474602122,-14.323236246144193,-20.48455694356864,-24.157262358405802,4.409704597509517,-1.6714112162038832,57.143432143645185,3.908359747807295,-15.621030245054559,10.121896387662845,15.82693654286835,48.04584556543082,-27.975505444077598,13.193890933865617,1.4214997171149941,27.60220828517972,4.587736893320484,15.94560424950815,-40.028791498817874,-8.994771740638171,-2.9408905591882575,-7.604772749253571,-8.147775349590523,4.665078540387124,13.33648564694162,0.9794622659683228,0.9546074867248535,0.9690788984298706,0.7292761206626892,0.9805604219436646,0.7923360466957092,0.7933678030967712,0.8748517632484436,0.9163347482681274,0.8923381567001343,0.9443625807762146,0.6631953120231628,0.6403529644012451,0.9029106497764587,0.879326581954956,0.921445369720459,0.8941442370414734
fat-man-playing-sport-25234206,1.0,0.3255404046681914,15,0.02506040781736374,-0.3269350826740265,2.5,6.774186314573701,44.85198763783032,2.9955207600475466,6.75777336999816,4.235684184062285,2.4567159512858017,-4.551677336484225,-5.86213365234215,-2.5084584762300564,1.3282482115938679,1.2839651069969134,-0.8190591030732983,2.726665304408804,-1.7074269104190662,0.6102656629530033,1.8249876995265026,-2.297800714631465,-1.207872637496446,6.438157229108352,0.3707264731294398,-3.4286736414065957,0.22811193649658842,10.432373735443177,0.6712262218732779,2.779257334131079,-8.81546049190512,6.856338122363321,2.8229453584965962,1.1601937549432313,-1.5363326994226567,-7.9803417998241235,5.239170881165505,-1.9676003418490764,1.115158155598812,2.6184055254036327,-6.942226897402586,3.3384022327977103,-10.83879645804197,-4.058486451990529,3.6471536771521436,4.014200786072636,-11.885872995541387,6.394871759017042,8.380278404032342,8.106078752254888,-5.596151571909867,-10.132865671469887,2.145878097583341,24.319607417240544,-1.466684620125802,-55.1737900021211,7.860357574221801,10.378629538185285,57.821540154633226,35.04461121616281,-50.56293761421518,28.481147763428226,42.59464085299237,49.23327395263753,-22.77063662669754,4.527843391375465,-8.465076910125344,0.6253422383287487,0.2616988047707443,9.956138795564037,-3.3576573898416227,-16.988738060309178,-2.4268639691880263,-15.346483961176727,-7.280201306120919,5.015027551380958,13.215777421287276,0.9858090281486511,0.9767423272132874,0.9699710011482239,0.8458454608917236,0.9786803126335144,0.8844398856163025,0.9055718779563904,0.4233335554599762,0.9412761330604553,0.35091257095336914,0.9591107368469238,0.7798623442649841,0.8334863781929016,0.825103759765625,0.8438968658447266,0.928436815738678,0.8930885195732117
fc3db32ae4e8b927704a6f45bdfe0054,1.0,0.3718616883690822,7,0.09764349460601807,-0.15664389729499817,2.5,83.97066667502776,-8.699196158079516,14.121739689213292,-77.53878681665347,-14.259616449120108,0.7995042714795518,-27.128341713395283,-0.046897793058706665,-11.095755858580665,30.376211069404942,3.780778644300627,-0.5605698468822252,122.93600113516922,-14.066781425830431,-20.898500558217265,80.63896869978723,7.109625015562666,3.6981837279886016,-19.743819512986175,-3.078219623301003,-4.003624238142871,-14.425958876166598,6.5539822963929595,2.4530419498425693,-12.777656644524102,-11.514972379268539,9.569759263084649,0.2104655024456258,3.1297034548304437,3.998544284947674,-22.142248977772613,10.095542956523998,1.8347173039991858,-8.68032007653454,4.720242563218731,-24.369174100047328,-29.145766150805485,-5.127254389633437,-10.672294375323629,-18.358455658727074,-31.696589088805958,1.6102340655817253,-14.110467315761833,37.887356439289626,-10.394564369518925,-28.66621173898972,-11.701000265276651,12.990000395630627,-14.897776391200033,-32.198205011640866,-32.741925635614315,-28.732949517369914,27.89449598542666,35.11820308937511,108.85405668938137,-52.34915844067316,131.2092863334006,61.958367168856505,75.69162362732605,-93.37083063347369,16.54536999071614,-13.218604265830017,114.26447492719107,10.396752591374268,18.237170282087863,-70.63196975434234,7.817866113621506,-2.944936592497844,-7.233548552768792,-1.03089827395489,4.718789867359634,10.899343523713194,0.9480889439582825,0.9705880880355835,0.9763293266296387,0.9100663661956787,0.8990166187286377,0.6954406499862671,0.8404619693756104,0.6288369297981262,0.4186074435710907,0.5195298790931702,0.510111391544342,0.7516817450523376,0.4338017404079437,0.5547123551368713,0.30871713161468506,0.6477442383766174,0.5349680185317993
feeac42bc14f1315c185fa98fee8b58b,1.0,0.3742729887166243,10,-0.13902883231639862,-0.487810879945755,2.5,-26.006353368626456,-36.55523390961077,-18.91121091542516,6.849213381285352,9.886776516995265,11.456734771310424,12.621549255948874,-6.549326668699949,2.9867657381920596,3.8654546338753906,2.030529649436754,-2.972910059130454,2.9455280441912843,3.3049518082243963,3.5954491451351474,5.4414187589051055,-6.050257125764988,1.0406041862088897,11.444785355357487,-2.936290213338842,3.5627167441983305,18.59089553391907,4.484274041546777,-14.823153159423057,5.964728216317619,-5.69819502499668,3.8778706371260045,0.7336227213448417,0.08943367656903377,1.2994622726151435,-11.538648376252741,1.1398059604358606,11.299455151518895,3.0762271290540637,-8.284536227341688,2.1118979064625276,21.120806140228254,-10.16467556998193,-1.2126592127224496,7.101881288591165,-12.785247546012924,-6.875133095411904,2.2998495579390577,21.01584833079996,15.264736842095429,-12.385839427691735,-14.013604988047296,4.4640221037708665,23.88662465028051,-4.431360992933511,-52.7801809433414,6.608828715428161,14.146079068320633,52.29707141806264,91.35255071486995,-58.72759889898126,79.5395063189011,125.63930804639023,54.166654703340626,-131.54794077282818,8.351938241618667,-13.372859819366523,12.331092900173145,13.223221473708945,12.996209891359817,-65.13054607603138,-20.499132567257448,-1.0682552465683344,-20.23407000104218,-10.841158849721147,3.7678969075259827,20.110482850652676,0.23099741339683533,0.12644174695014954,0.11929792910814285,0.3355659544467926,0.3049238324165344,0.8763370513916016,0.8674556016921997,0.977577805519104,0.6121512055397034,0.9709697961807251,0.5581335425376892,0.8204297423362732,0.7555422782897949,0.8984363079071045,0.8759280443191528,0.8918048143386841,0.8871516585350037
file-2,0.745706,0.25954014044829493,15,0.138961523771286,-0.3586767613887787,2.5,-24.605041022655378,-75.3861502468864,-34.15798094490887,-0.26693104984009147,7.587383087626718,10.531902398254957,-5.538195282368194,-1.0272327035264146,-8.191392083856579,8.63545854029225,-1.789556306650473,-2.597904285723016,11.827822364011801,-0.1737397887218788,-1.9938350984510953,40.52321523245676,1.9078246606672404,-1.385608140243635,10.92590015297985,-10.37737363715165,1.5166785099208278,-0.25532789246156207,6.811977751251382,-1.8430580321928292,-6.167775226190112,-8.327142947384228,8.933105377716712,-0.7720577432692374,-2.579252106316769,-0.8001653590860149,-11.42959245332244,12.54419992491942,10.189931048211697,-2.1530483021079734,-1.12453472466877,-13.68740112970301,9.834518739655499,21.549724944632132,-12.917129107375763,-4.067644028120224,-35.929445147665035,-14.887718937647188,-5.050419030339025,24.955093340260408,8.838385168080622,-5.961784831672166,29.52768983862509,7.275016338767233,-9.329595297715013,-28.115046208820957,-47.87993685539662,-12.497301284757173,22.39580779787829,47.03110485100953,23.888320244741966,-36.57983283590657,20.6351677374093,128.5604843317563,45.22020996617488,-151.7130087877803,-2.594261447017872,-11.099011297493822,15.914952068060426,-4.061864407421924,18.113168197706283,-23.3459929793592,-11.743460990025682,-2.8981491563530217,-18.36627110268486,-4.391381334400488,2.179620299300262,26.325543476466787,0.979399561882019,0.9544070363044739,0.9883953928947449,0.977313220500946,0.6648067831993103,0.8972964286804199,0.8346560597419739,0.9577198624610901,0.7041431069374084,0.9435479044914246,0.8349826335906982,0.8771045804023743,0.793135404586792,0.984480082988739,0.9391213655471802,0.9346636533737183,0.9788980484008789
